( This gcode generated by /Applications/EAGLE-7.2.0/ulp/pcb-gcode.ulp )
( Copyright 2005 by John Johnson. See readme.txt for licensing terms. )

( This file generated from the board /Users/arminlanghofer/Documents/eagle/arduinosnullzaehler/arduinosnull.brd )
( This file generated 20.01.15 22:32 )

( T01 0.800000 )
( T02 1.016000 )
( T03 1.300000 )
G21

G90
M05
G00 X139.7000 Y86.3600 Z193.0400 
M06 T01  ; 0.8000 
G00 Z1.0000 
M03
G04 P0.000000
G00 Z1.000000
G00 X-43.7700 Y0.8800 
G01 Z-2.5000 F127.00 
G01 Z1.000000
(R1.0000  P10.000000)
(G00 Z1.000000)
G00 X-43.8700 Y10.7800 
G01 Z-2.500000
G01 Z1.000000
(G00 Z1.000000)
G00 X-60.0900 Y0.7800 
G01 Z-2.500000
G01 Z1.000000
(G00 Z1.000000)
G00 X-60.0900 Y10.7800 
G01 Z-2.500000
G01 Z1.000000
(G00 Z1.000000)
G00 X-11.4300 Y6.3500 
G01 Z-2.500000
G01 Z1.000000
(G00 Z1.000000)
G00 X-11.4300 Y8.8900 
G01 Z-2.500000
G01 Z1.000000
(G00 Z1.000000)
G00 X-11.4300 Y11.4300 
G01 Z-2.500000
G01 Z1.000000
(G00 Z1.000000)
G00 X-11.4300 Y24.1300 
G01 Z-2.500000
G01 Z1.000000
(G00 Z1.000000)
G00 X-11.4300 Y26.6700 
G01 Z-2.500000
G01 Z1.000000
(G00 Z1.000000)
G00 X-11.4300 Y29.2100 
G01 Z-2.500000
G01 Z1.000000
(G00 Z1.000000)
G00 X-14.3700 Y12.7000 
G01 Z-2.500000
G01 Z1.000000
(G00 Z1.000000)
G00 X-14.4700 Y15.3400 
G01 Z-2.500000
G01 Z1.000000
(G00 Z1.000000)
G00 X-20.3200 Y1.2700 
G01 Z-2.500000
G01 Z1.000000
(G00 Z1.000000)
G00 X-26.6700 Y11.4300 
G01 Z-2.500000
G01 Z1.000000
(G00 Z1.000000)
G00 X-26.6700 Y13.9700 
G01 Z-2.500000
G01 Z1.000000
(G00 Z1.000000)
G00 X-26.6700 Y29.2100 
G01 Z-2.500000
G01 Z1.000000
M05
G00 X139.7000 Y86.3600 Z193.0400 
M06 T02  ; 1.0160 
G00 Z1.0000 
M03
G04 P0.000000
G00 Z1.000000
G00 X-8.8900 Y6.3500 
G01 Z-2.5000 F127.00 
G01 Z1.000000
(R1.0000  P10.000000)
(G00 Z1.000000)
G00 X-8.8900 Y8.8900 
G01 Z-2.500000
G01 Z1.000000
(G00 Z1.000000)
G00 X-8.8900 Y11.4300 
G01 Z-2.500000
G01 Z1.000000
(G00 Z1.000000)
G00 X-8.8900 Y24.1300 
G01 Z-2.500000
G01 Z1.000000
(G00 Z1.000000)
G00 X-8.8900 Y26.6700 
G01 Z-2.500000
G01 Z1.000000
(G00 Z1.000000)
G00 X-8.8900 Y29.2100 
G01 Z-2.500000
G01 Z1.000000
M05
G00 X139.7000 Y86.3600 Z193.0400 
M06 T03  ; 1.3000 
G00 Z1.0000 
M03
G04 P0.000000
G00 Z1.000000
G00 X-3.7850 Y3.8100 
G01 Z-2.5000 F127.00 
G01 Z1.000000
(R1.0000  P10.000000)
(G00 Z1.000000)
G00 X-3.7850 Y8.8900 
G01 Z-2.500000
G01 Z1.000000
(G00 Z1.000000)
G00 X-3.7850 Y13.9700 
G01 Z-2.500000
G01 Z1.000000
(G00 Z1.000000)
G00 X-3.7850 Y19.0500 
G01 Z-2.500000
G01 Z1.000000
(G00 Z1.000000)
G00 X-3.7850 Y24.1300 
G01 Z-2.500000
G01 Z1.000000
(G00 Z1.000000)
G00 X-3.7850 Y29.2100 
G01 Z-2.500000
G01 Z1.000000
(G00 Z1.000000)
G00 X-66.0650 Y3.8100 
G01 Z-2.500000
G01 Z1.000000
(G00 Z1.000000)
G00 X-66.0650 Y8.8900 
G01 Z-2.500000
G01 Z1.000000
(G00 Z1.000000)
G00 X-66.0650 Y13.9700 
G01 Z-2.500000
G01 Z1.000000
(G00 Z1.000000)
G00 X-66.0650 Y19.0500 
G01 Z-2.500000
G01 Z1.000000
(G00 Z1.000000)
G00 X-66.0650 Y24.1300 
G01 Z-2.500000
G01 Z1.000000
(G00 Z1.000000)
G00 X-66.0650 Y29.2100 
G01 Z-2.500000
G01 Z1.000000
(File Footer)
T01 
G00 Z3.0000 
M05
M02
