( This gcode generated by /Applications/EAGLE-7.2.0/ulp/pcb-gcode.ulp )
( Copyright 2005 by John Johnson. See readme.txt for licensing terms. )

( This file generated from the board /Users/arminlanghofer/Documents/eagle/arduinosnullzaehler/arduinosnull.brd )
( This file generated 20.01.15 22:32 )

G21

G90
G00 Z3.0000 
G00 X0 Y0
M03
G04 P0.000000
G00 Z1.0000 
G00 X-43.3416 Y3.5994 
G01 Z-0.1000 F500.00 
G01 X-44.5590 Y4.8168 
G01 X-45.7547 Y4.8168 
G01 X-45.8216 Y4.8347 
G01 X-45.8816 Y4.8694 
G01 X-47.1516 Y6.1394 
G01 X-47.2006 Y6.1884 
G01 X-47.2353 Y6.2484 
G01 X-47.2532 Y6.3153 
G01 X-47.2532 Y12.0900 
G01 X-47.3399 Y12.0900 
G01 X-47.3750 Y12.1251 
G01 X-47.3750 Y13.8749 
G01 X-47.3399 Y13.9100 
G01 X-46.6401 Y13.9100 
G01 X-46.6050 Y13.8749 
G01 X-46.6050 Y12.1251 
G01 X-46.6401 Y12.0900 
G01 X-46.7268 Y12.0900 
G01 X-46.7268 Y6.4590 
G01 X-45.6110 Y5.3432 
G01 X-44.4153 Y5.3432 
G01 X-44.3484 Y5.3253 
G01 X-44.2884 Y5.2906 
G01 X-44.2394 Y5.2416 
G01 X-42.9694 Y3.9716 
G01 X-42.9347 Y3.9116 
G01 X-42.9168 Y3.8447 
G01 X-42.9168 Y3.7753 
G01 X-42.9347 Y3.7084 
G01 X-42.9694 Y3.6484 
G01 X-43.0184 Y3.5994 
G01 X-43.0784 Y3.5647 
G01 X-43.1453 Y3.5468 
G01 X-43.2146 Y3.5468 
G01 X-43.2816 Y3.5647 
G01 X-43.3416 Y3.5994 
G00 Z1.0000 
G00 X-44.6116 Y2.3294 
G01 Z-0.1000 F500.00 
G01 X-45.8290 Y3.5468 
G01 X-47.0247 Y3.5468 
G01 X-47.0916 Y3.5647 
G01 X-47.1516 Y3.5994 
G01 X-48.4216 Y4.8694 
G01 X-48.4706 Y4.9184 
G01 X-48.5053 Y4.9784 
G01 X-48.5232 Y5.0453 
G01 X-48.5232 Y12.0900 
G01 X-48.6099 Y12.0900 
G01 X-48.6450 Y12.1251 
G01 X-48.6450 Y13.8749 
G01 X-48.6099 Y13.9100 
G01 X-47.9101 Y13.9100 
G01 X-47.8750 Y13.8749 
G01 X-47.8750 Y12.1251 
G01 X-47.9101 Y12.0900 
G01 X-47.9968 Y12.0900 
G01 X-47.9968 Y5.1890 
G01 X-46.8810 Y4.0732 
G01 X-45.6853 Y4.0732 
G01 X-45.6184 Y4.0553 
G01 X-45.5584 Y4.0206 
G01 X-45.5094 Y3.9716 
G01 X-44.2394 Y2.7016 
G01 X-44.2047 Y2.6416 
G01 X-44.1868 Y2.5747 
G01 X-44.1868 Y2.5053 
G01 X-44.2047 Y2.4384 
G01 X-44.2394 Y2.3784 
G01 X-44.2884 Y2.3294 
G01 X-44.3484 Y2.2947 
G01 X-44.4153 Y2.2768 
G01 X-44.4847 Y2.2768 
G01 X-44.5516 Y2.2947 
G01 X-44.6116 Y2.3294 
G00 Z1.0000 
G00 X-39.5112 Y2.7762 
G01 Z-0.1000 F500.00 
G01 X-39.5112 Y2.3038 
G01 X-39.5404 Y2.2332 
G01 X-39.5944 Y2.1792 
G01 X-39.6650 Y2.1500 
G01 X-40.4974 Y2.1500 
G01 X-40.5680 Y2.1792 
G01 X-40.6220 Y2.2332 
G01 X-40.6512 Y2.3038 
G01 X-40.6512 Y2.7762 
G01 X-40.6220 Y2.8468 
G01 X-40.5680 Y2.9008 
G01 X-40.4974 Y2.9300 
G01 X-39.6650 Y2.9300 
G01 X-39.5944 Y2.9008 
G01 X-39.5404 Y2.8468 
G01 X-39.5112 Y2.7762 
G00 Z1.0000 
G00 X-39.5112 Y4.0462 
G01 Z-0.1000 F500.00 
G01 X-39.5112 Y3.5738 
G01 X-39.5404 Y3.5032 
G01 X-39.5944 Y3.4492 
G01 X-39.6650 Y3.4200 
G01 X-40.4974 Y3.4200 
G01 X-40.5680 Y3.4492 
G01 X-40.6220 Y3.5032 
G01 X-40.6512 Y3.5738 
G01 X-40.6512 Y4.0462 
G01 X-40.6220 Y4.1168 
G01 X-40.5680 Y4.1708 
G01 X-40.4974 Y4.2000 
G01 X-39.6650 Y4.2000 
G01 X-39.5944 Y4.1708 
G01 X-39.5404 Y4.1168 
G01 X-39.5112 Y4.0462 
G00 Z1.0000 
G00 X-39.5112 Y5.5858 
G01 Z-0.1000 F500.00 
G01 X-39.5112 Y4.5742 
G01 X-39.5292 Y4.5071 
G01 X-39.5639 Y4.4469 
G01 X-39.6131 Y4.3977 
G01 X-39.6733 Y4.3630 
G01 X-39.7404 Y4.3450 
G01 X-40.4220 Y4.3450 
G01 X-40.4891 Y4.3630 
G01 X-40.5493 Y4.3977 
G01 X-40.5984 Y4.4469 
G01 X-40.6332 Y4.5071 
G01 X-40.6512 Y4.5742 
G01 X-40.6512 Y5.5858 
G01 X-40.6332 Y5.6529 
G01 X-40.5984 Y5.7131 
G01 X-40.5493 Y5.7622 
G01 X-40.4891 Y5.7970 
G01 X-40.4220 Y5.8150 
G01 X-39.7404 Y5.8150 
G01 X-39.6733 Y5.7970 
G01 X-39.6131 Y5.7622 
G01 X-39.5639 Y5.7131 
G01 X-39.5292 Y5.6529 
G01 X-39.5112 Y5.5858 
G00 Z1.0000 
G00 X-39.5112 Y6.5862 
G01 Z-0.1000 F500.00 
G01 X-39.5112 Y6.1138 
G01 X-39.5404 Y6.0432 
G01 X-39.5944 Y5.9892 
G01 X-39.6650 Y5.9600 
G01 X-40.4974 Y5.9600 
G01 X-40.5680 Y5.9892 
G01 X-40.6220 Y6.0432 
G01 X-40.6512 Y6.1138 
G01 X-40.6512 Y6.5862 
G01 X-40.6220 Y6.6568 
G01 X-40.5680 Y6.7108 
G01 X-40.4974 Y6.7400 
G01 X-39.6650 Y6.7400 
G01 X-39.5944 Y6.7108 
G01 X-39.5404 Y6.6568 
G01 X-39.5112 Y6.5862 
G00 Z1.0000 
G00 X-39.5112 Y7.8562 
G01 Z-0.1000 F500.00 
G01 X-39.5112 Y7.3838 
G01 X-39.5404 Y7.3132 
G01 X-39.5944 Y7.2592 
G01 X-39.6650 Y7.2300 
G01 X-40.4974 Y7.2300 
G01 X-40.5680 Y7.2592 
G01 X-40.6220 Y7.3132 
G01 X-40.6512 Y7.3838 
G01 X-40.6512 Y7.8562 
G01 X-40.6220 Y7.9268 
G01 X-40.5680 Y7.9808 
G01 X-40.4974 Y8.0100 
G01 X-39.6650 Y8.0100 
G01 X-39.5944 Y7.9808 
G01 X-39.5404 Y7.9268 
G01 X-39.5112 Y7.8562 
G00 Z1.0000 
G00 X-34.1488 Y7.3838 
G01 Z-0.1000 F500.00 
G01 X-34.1488 Y7.8562 
G01 X-34.1196 Y7.9268 
G01 X-34.0656 Y7.9808 
G01 X-33.9950 Y8.0100 
G01 X-33.1626 Y8.0100 
G01 X-33.0920 Y7.9808 
G01 X-33.0380 Y7.9268 
G01 X-33.0088 Y7.8562 
G01 X-33.0088 Y7.3838 
G01 X-33.0380 Y7.3132 
G01 X-33.0920 Y7.2592 
G01 X-33.1626 Y7.2300 
G01 X-33.9950 Y7.2300 
G01 X-34.0656 Y7.2592 
G01 X-34.1196 Y7.3132 
G01 X-34.1488 Y7.3838 
G00 Z1.0000 
G00 X-34.1488 Y6.1138 
G01 Z-0.1000 F500.00 
G01 X-34.1488 Y6.5862 
G01 X-34.1196 Y6.6568 
G01 X-34.0656 Y6.7108 
G01 X-33.9950 Y6.7400 
G01 X-33.1626 Y6.7400 
G01 X-33.0920 Y6.7108 
G01 X-33.0380 Y6.6568 
G01 X-33.0088 Y6.5862 
G01 X-33.0088 Y6.1138 
G01 X-33.0380 Y6.0432 
G01 X-33.0920 Y5.9892 
G01 X-33.1626 Y5.9600 
G01 X-33.9950 Y5.9600 
G01 X-34.0656 Y5.9892 
G01 X-34.1196 Y6.0432 
G01 X-34.1488 Y6.1138 
G00 Z1.0000 
G00 X-34.1488 Y2.3038 
G01 Z-0.1000 F500.00 
G01 X-34.1488 Y2.7762 
G01 X-34.1196 Y2.8468 
G01 X-34.0656 Y2.9008 
G01 X-33.9950 Y2.9300 
G01 X-33.1626 Y2.9300 
G01 X-33.0920 Y2.9008 
G01 X-33.0380 Y2.8468 
G01 X-33.0200 Y2.8032 
G01 X-16.9000 Y2.8032 
G01 X-16.9000 Y3.3649 
G01 X-16.8649 Y3.4000 
G01 X-15.5151 Y3.4000 
G01 X-15.4800 Y3.3649 
G01 X-15.4800 Y1.7151 
G01 X-15.5151 Y1.6800 
G01 X-16.8649 Y1.6800 
G01 X-16.9000 Y1.7151 
G01 X-16.9000 Y2.2768 
G01 X-33.0200 Y2.2768 
G01 X-33.0380 Y2.2332 
G01 X-33.0920 Y2.1792 
G01 X-33.1626 Y2.1500 
G01 X-33.9950 Y2.1500 
G01 X-34.0656 Y2.1792 
G01 X-34.1196 Y2.2332 
G01 X-34.1488 Y2.3038 
G00 Z1.0000 
G00 X-49.3888 Y30.2438 
G01 Z-0.1000 F500.00 
G01 X-49.3888 Y30.7162 
G01 X-49.3596 Y30.7868 
G01 X-49.3056 Y30.8408 
G01 X-49.2350 Y30.8700 
G01 X-48.4026 Y30.8700 
G01 X-48.3320 Y30.8408 
G01 X-48.2780 Y30.7868 
G01 X-48.2488 Y30.7162 
G01 X-48.2488 Y30.2438 
G01 X-48.2780 Y30.1732 
G01 X-48.3320 Y30.1192 
G01 X-48.4026 Y30.0900 
G01 X-49.2350 Y30.0900 
G01 X-49.3056 Y30.1192 
G01 X-49.3596 Y30.1732 
G01 X-49.3888 Y30.2438 
G00 Z1.0000 
G00 X-49.3888 Y28.9738 
G01 Z-0.1000 F500.00 
G01 X-49.3888 Y29.4462 
G01 X-49.3596 Y29.5168 
G01 X-49.3056 Y29.5708 
G01 X-49.2350 Y29.6000 
G01 X-48.4026 Y29.6000 
G01 X-48.3320 Y29.5708 
G01 X-48.2780 Y29.5168 
G01 X-48.2488 Y29.4462 
G01 X-48.2488 Y28.9738 
G01 X-48.2780 Y28.9032 
G01 X-48.3320 Y28.8492 
G01 X-48.4026 Y28.8200 
G01 X-49.2350 Y28.8200 
G01 X-49.3056 Y28.8492 
G01 X-49.3596 Y28.9032 
G01 X-49.3888 Y28.9738 
G00 Z1.0000 
G00 X-49.3888 Y27.4342 
G01 Z-0.1000 F500.00 
G01 X-49.3888 Y28.4458 
G01 X-49.3708 Y28.5129 
G01 X-49.3361 Y28.5731 
G01 X-49.2869 Y28.6223 
G01 X-49.2267 Y28.6570 
G01 X-49.1596 Y28.6750 
G01 X-48.4780 Y28.6750 
G01 X-48.4109 Y28.6570 
G01 X-48.3507 Y28.6223 
G01 X-48.3015 Y28.5731 
G01 X-48.2668 Y28.5129 
G01 X-48.2488 Y28.4458 
G01 X-48.2488 Y27.4342 
G01 X-48.2668 Y27.3671 
G01 X-48.3015 Y27.3069 
G01 X-48.3507 Y27.2577 
G01 X-48.4109 Y27.2230 
G01 X-48.4780 Y27.2050 
G01 X-49.1596 Y27.2050 
G01 X-49.2267 Y27.2230 
G01 X-49.2869 Y27.2577 
G01 X-49.3361 Y27.3069 
G01 X-49.3708 Y27.3671 
G01 X-49.3888 Y27.4342 
G00 Z1.0000 
G00 X-49.3888 Y26.4338 
G01 Z-0.1000 F500.00 
G01 X-49.3888 Y26.9062 
G01 X-49.3596 Y26.9768 
G01 X-49.3056 Y27.0308 
G01 X-49.2350 Y27.0600 
G01 X-48.4026 Y27.0600 
G01 X-48.3320 Y27.0308 
G01 X-48.2780 Y26.9768 
G01 X-48.2488 Y26.9062 
G01 X-48.2488 Y26.4338 
G01 X-48.2780 Y26.3632 
G01 X-48.3320 Y26.3092 
G01 X-48.4026 Y26.2800 
G01 X-49.2350 Y26.2800 
G01 X-49.3056 Y26.3092 
G01 X-49.3596 Y26.3632 
G01 X-49.3888 Y26.4338 
G00 Z1.0000 
G00 X-49.3888 Y25.1638 
G01 Z-0.1000 F500.00 
G01 X-49.3888 Y25.6362 
G01 X-49.3596 Y25.7068 
G01 X-49.3056 Y25.7608 
G01 X-49.2350 Y25.7900 
G01 X-48.4026 Y25.7900 
G01 X-48.3320 Y25.7608 
G01 X-48.2780 Y25.7068 
G01 X-48.2488 Y25.6362 
G01 X-48.2488 Y25.1638 
G01 X-48.2780 Y25.0932 
G01 X-48.3320 Y25.0392 
G01 X-48.4026 Y25.0100 
G01 X-49.2350 Y25.0100 
G01 X-49.3056 Y25.0392 
G01 X-49.3596 Y25.0932 
G01 X-49.3888 Y25.1638 
G00 Z1.0000 
G00 X-54.7512 Y25.6362 
G01 Z-0.1000 F500.00 
G01 X-54.7512 Y25.1638 
G01 X-54.7804 Y25.0932 
G01 X-54.8236 Y25.0501 
G01 X-54.3812 Y24.2600 
G01 X-54.3647 Y24.2316 
G01 X-54.3643 Y24.2299 
G01 X-54.3634 Y24.2284 
G01 X-54.3553 Y24.1964 
G01 X-54.3468 Y24.1647 
G01 X-54.3468 Y24.1629 
G01 X-54.3464 Y24.1612 
G01 X-54.3468 Y24.1283 
G01 X-54.3468 Y21.9800 
G01 X-53.7851 Y21.9800 
G01 X-53.7500 Y21.9449 
G01 X-53.7500 Y20.5951 
G01 X-53.7851 Y20.5600 
G01 X-55.4349 Y20.5600 
G01 X-55.4700 Y20.5951 
G01 X-55.4700 Y21.9449 
G01 X-55.4349 Y21.9800 
G01 X-54.8732 Y21.9800 
G01 X-54.8732 Y24.0613 
G01 X-55.4045 Y25.0100 
G01 X-55.7374 Y25.0100 
G01 X-55.8080 Y25.0392 
G01 X-55.8620 Y25.0932 
G01 X-55.8912 Y25.1638 
G01 X-55.8912 Y25.6362 
G01 X-55.8620 Y25.7068 
G01 X-55.8080 Y25.7608 
G01 X-55.7374 Y25.7900 
G01 X-54.9050 Y25.7900 
G01 X-54.8344 Y25.7608 
G01 X-54.7804 Y25.7068 
G01 X-54.7512 Y25.6362 
G00 Z1.0000 
G00 X-54.7512 Y26.9062 
G01 Z-0.1000 F500.00 
G01 X-54.7512 Y26.4338 
G01 X-54.7804 Y26.3632 
G01 X-54.8344 Y26.3092 
G01 X-54.9050 Y26.2800 
G01 X-55.7374 Y26.2800 
G01 X-55.8080 Y26.3092 
G01 X-55.8620 Y26.3632 
G01 X-55.8800 Y26.4068 
G01 X-56.8868 Y26.4068 
G01 X-56.8868 Y24.1378 
G01 X-56.8852 Y24.1110 
G01 X-56.8868 Y24.1033 
G01 X-56.8868 Y24.0953 
G01 X-56.8938 Y24.0694 
G01 X-56.8992 Y24.0431 
G01 X-56.9027 Y24.0360 
G01 X-56.9047 Y24.0284 
G01 X-56.9182 Y24.0052 
G01 X-56.9302 Y23.9811 
G01 X-56.9354 Y23.9752 
G01 X-56.9394 Y23.9684 
G01 X-56.9584 Y23.9494 
G01 X-58.8300 Y21.8420 
G01 X-58.8300 Y20.5951 
G01 X-58.8651 Y20.5600 
G01 X-60.5149 Y20.5600 
G01 X-60.5500 Y20.5951 
G01 X-60.5500 Y21.9449 
G01 X-60.5149 Y21.9800 
G01 X-59.4115 Y21.9800 
G01 X-57.4132 Y24.2300 
G01 X-57.4132 Y26.7047 
G01 X-57.3953 Y26.7716 
G01 X-57.3606 Y26.8316 
G01 X-57.3116 Y26.8806 
G01 X-57.2516 Y26.9153 
G01 X-57.1847 Y26.9332 
G01 X-55.8800 Y26.9332 
G01 X-55.8620 Y26.9768 
G01 X-55.8080 Y27.0308 
G01 X-55.7374 Y27.0600 
G01 X-54.9050 Y27.0600 
G01 X-54.8344 Y27.0308 
G01 X-54.7804 Y26.9768 
G01 X-54.7512 Y26.9062 
G00 Z1.0000 
G00 X-54.7512 Y28.1762 
G01 Z-0.1000 F500.00 
G01 X-54.7512 Y27.7038 
G01 X-54.7804 Y27.6332 
G01 X-54.8344 Y27.5792 
G01 X-54.9050 Y27.5500 
G01 X-55.7374 Y27.5500 
G01 X-55.8080 Y27.5792 
G01 X-55.8620 Y27.6332 
G01 X-55.8912 Y27.7038 
G01 X-55.8912 Y28.1762 
G01 X-55.8620 Y28.2468 
G01 X-55.8080 Y28.3008 
G01 X-55.7374 Y28.3300 
G01 X-54.9050 Y28.3300 
G01 X-54.8344 Y28.3008 
G01 X-54.7804 Y28.2468 
G01 X-54.7512 Y28.1762 
G00 Z1.0000 
G00 X-38.2412 Y26.9062 
G01 Z-0.1000 F500.00 
G01 X-38.2412 Y26.4338 
G01 X-38.2704 Y26.3632 
G01 X-38.3244 Y26.3092 
G01 X-38.3950 Y26.2800 
G01 X-39.2274 Y26.2800 
G01 X-39.2980 Y26.3092 
G01 X-39.3520 Y26.3632 
G01 X-39.3812 Y26.4338 
G01 X-39.3812 Y26.9062 
G01 X-39.3520 Y26.9768 
G01 X-39.2980 Y27.0308 
G01 X-39.2274 Y27.0600 
G01 X-38.3950 Y27.0600 
G01 X-38.3244 Y27.0308 
G01 X-38.2704 Y26.9768 
G01 X-38.2412 Y26.9062 
G00 Z1.0000 
G00 X-38.2412 Y28.4458 
G01 Z-0.1000 F500.00 
G01 X-38.2412 Y28.2032 
G01 X-35.8232 Y28.2032 
G01 X-35.8232 Y30.3710 
G01 X-37.0406 Y31.5884 
G01 X-37.0753 Y31.6484 
G01 X-37.0932 Y31.7153 
G01 X-37.0932 Y31.7847 
G01 X-37.0753 Y31.8516 
G01 X-37.0406 Y31.9116 
G01 X-36.9916 Y31.9606 
G01 X-36.9316 Y31.9953 
G01 X-36.8647 Y32.0132 
G01 X-36.7953 Y32.0132 
G01 X-36.7284 Y31.9953 
G01 X-36.6684 Y31.9606 
G01 X-35.3984 Y30.6906 
G01 X-35.3494 Y30.6416 
G01 X-35.3147 Y30.5816 
G01 X-35.2968 Y30.5147 
G01 X-35.2968 Y27.9053 
G01 X-35.3147 Y27.8384 
G01 X-35.3494 Y27.7784 
G01 X-35.3984 Y27.7294 
G01 X-35.4584 Y27.6947 
G01 X-35.5253 Y27.6768 
G01 X-38.2412 Y27.6768 
G01 X-38.2412 Y27.4342 
G01 X-38.2592 Y27.3671 
G01 X-38.2939 Y27.3069 
G01 X-38.3431 Y27.2577 
G01 X-38.4033 Y27.2230 
G01 X-38.4704 Y27.2050 
G01 X-39.1520 Y27.2050 
G01 X-39.2191 Y27.2230 
G01 X-39.2793 Y27.2577 
G01 X-39.3285 Y27.3069 
G01 X-39.3632 Y27.3671 
G01 X-39.3812 Y27.4342 
G01 X-39.3812 Y28.4458 
G01 X-39.3632 Y28.5129 
G01 X-39.3285 Y28.5731 
G01 X-39.2793 Y28.6223 
G01 X-39.2191 Y28.6570 
G01 X-39.1520 Y28.6750 
G01 X-38.4704 Y28.6750 
G01 X-38.4033 Y28.6570 
G01 X-38.3431 Y28.6223 
G01 X-38.2939 Y28.5731 
G01 X-38.2592 Y28.5129 
G01 X-38.2412 Y28.4458 
G00 Z1.0000 
G00 X-38.2412 Y29.4462 
G01 Z-0.1000 F500.00 
G01 X-38.2412 Y28.9738 
G01 X-38.2704 Y28.9032 
G01 X-38.3244 Y28.8492 
G01 X-38.3950 Y28.8200 
G01 X-39.2274 Y28.8200 
G01 X-39.2980 Y28.8492 
G01 X-39.3520 Y28.9032 
G01 X-39.3812 Y28.9738 
G01 X-39.3812 Y29.4462 
G01 X-39.3520 Y29.5168 
G01 X-39.2980 Y29.5708 
G01 X-39.2274 Y29.6000 
G01 X-38.3950 Y29.6000 
G01 X-38.3244 Y29.5708 
G01 X-38.2704 Y29.5168 
G01 X-38.2412 Y29.4462 
G00 Z1.0000 
G00 X-38.2412 Y30.7162 
G01 Z-0.1000 F500.00 
G01 X-38.2412 Y30.2438 
G01 X-38.2704 Y30.1732 
G01 X-38.3244 Y30.1192 
G01 X-38.3950 Y30.0900 
G01 X-39.2274 Y30.0900 
G01 X-39.2980 Y30.1192 
G01 X-39.3520 Y30.1732 
G01 X-39.3812 Y30.2438 
G01 X-39.3812 Y30.7162 
G01 X-39.3520 Y30.7868 
G01 X-39.2980 Y30.8408 
G01 X-39.2274 Y30.8700 
G01 X-38.3950 Y30.8700 
G01 X-38.3244 Y30.8408 
G01 X-38.2704 Y30.7868 
G01 X-38.2412 Y30.7162 
G00 Z1.0000 
G00 X-32.8788 Y30.2438 
G01 Z-0.1000 F500.00 
G01 X-32.8788 Y30.7162 
G01 X-32.8496 Y30.7868 
G01 X-32.7956 Y30.8408 
G01 X-32.7250 Y30.8700 
G01 X-32.5720 Y30.8700 
G01 X-32.5720 Y31.2259 
G01 X-32.5541 Y31.2928 
G01 X-32.5194 Y31.3528 
G01 X-32.4704 Y31.4018 
G01 X-31.9116 Y31.9606 
G01 X-31.8516 Y31.9953 
G01 X-31.7847 Y32.0132 
G01 X-21.5553 Y32.0132 
G01 X-21.4884 Y31.9953 
G01 X-21.4284 Y31.9606 
G01 X-21.3794 Y31.9116 
G01 X-20.7100 Y31.2422 
G01 X-20.7100 Y31.3049 
G01 X-20.6748 Y31.3400 
G01 X-19.3251 Y31.3400 
G01 X-19.2900 Y31.3049 
G01 X-19.2900 Y29.6551 
G01 X-19.3251 Y29.6200 
G01 X-20.6748 Y29.6200 
G01 X-20.7100 Y29.6551 
G01 X-20.7100 Y30.4978 
G01 X-21.6990 Y31.4868 
G01 X-31.6410 Y31.4868 
G01 X-32.0456 Y31.0822 
G01 X-32.0456 Y30.8700 
G01 X-31.8926 Y30.8700 
G01 X-31.8220 Y30.8408 
G01 X-31.7680 Y30.7868 
G01 X-31.7388 Y30.7162 
G01 X-31.7388 Y30.2438 
G01 X-31.7680 Y30.1732 
G01 X-31.8220 Y30.1192 
G01 X-31.8926 Y30.0900 
G01 X-32.7250 Y30.0900 
G01 X-32.7956 Y30.1192 
G01 X-32.8496 Y30.1732 
G01 X-32.8788 Y30.2438 
G00 Z1.0000 
G00 X-32.8788 Y28.9738 
G01 Z-0.1000 F500.00 
G01 X-32.8788 Y29.4462 
G01 X-32.8496 Y29.5168 
G01 X-32.7956 Y29.5708 
G01 X-32.7250 Y29.6000 
G01 X-31.8926 Y29.6000 
G01 X-31.8220 Y29.5708 
G01 X-31.7680 Y29.5168 
G01 X-31.7500 Y29.4732 
G01 X-29.1753 Y29.4732 
G01 X-29.1084 Y29.4553 
G01 X-29.0484 Y29.4206 
G01 X-27.8310 Y28.2032 
G01 X-22.8253 Y28.2032 
G01 X-22.7584 Y28.1853 
G01 X-22.6984 Y28.1506 
G01 X-20.7100 Y26.1622 
G01 X-20.7100 Y26.2248 
G01 X-20.6748 Y26.2600 
G01 X-19.3251 Y26.2600 
G01 X-19.2900 Y26.2248 
G01 X-19.2900 Y24.5751 
G01 X-19.3251 Y24.5400 
G01 X-20.6748 Y24.5400 
G01 X-20.7100 Y24.5751 
G01 X-20.7100 Y25.4178 
G01 X-22.9690 Y27.6768 
G01 X-27.9747 Y27.6768 
G01 X-28.0416 Y27.6947 
G01 X-28.1016 Y27.7294 
G01 X-28.1506 Y27.7784 
G01 X-29.3190 Y28.9468 
G01 X-31.7500 Y28.9468 
G01 X-31.7680 Y28.9032 
G01 X-31.8220 Y28.8492 
G01 X-31.8926 Y28.8200 
G01 X-32.7250 Y28.8200 
G01 X-32.7956 Y28.8492 
G01 X-32.8496 Y28.9032 
G01 X-32.8788 Y28.9738 
G00 Z1.0000 
G00 X-32.8788 Y27.7038 
G01 Z-0.1000 F500.00 
G01 X-32.8788 Y28.1762 
G01 X-32.8496 Y28.2468 
G01 X-32.7956 Y28.3008 
G01 X-32.7250 Y28.3300 
G01 X-31.8926 Y28.3300 
G01 X-31.8220 Y28.3008 
G01 X-31.7680 Y28.2468 
G01 X-31.7388 Y28.1762 
G01 X-31.7388 Y27.7038 
G01 X-31.7680 Y27.6332 
G01 X-31.8220 Y27.5792 
G01 X-31.8926 Y27.5500 
G01 X-32.7250 Y27.5500 
G01 X-32.7956 Y27.5792 
G01 X-32.8496 Y27.6332 
G01 X-32.8788 Y27.7038 
G00 Z1.0000 
G00 X-32.8788 Y26.4338 
G01 Z-0.1000 F500.00 
G01 X-32.8788 Y26.9062 
G01 X-32.8496 Y26.9768 
G01 X-32.7956 Y27.0308 
G01 X-32.7250 Y27.0600 
G01 X-31.8926 Y27.0600 
G01 X-31.8220 Y27.0308 
G01 X-31.7680 Y26.9768 
G01 X-31.7500 Y26.9332 
G01 X-29.1753 Y26.9332 
G01 X-29.1084 Y26.9153 
G01 X-29.0484 Y26.8806 
G01 X-27.8310 Y25.6632 
G01 X-26.6353 Y25.6632 
G01 X-26.5684 Y25.6453 
G01 X-26.5084 Y25.6106 
G01 X-21.4810 Y20.5832 
G01 X-20.7100 Y20.5832 
G01 X-20.7100 Y21.1449 
G01 X-20.6748 Y21.1800 
G01 X-19.3251 Y21.1800 
G01 X-19.2900 Y21.1449 
G01 X-19.2900 Y19.4951 
G01 X-19.3251 Y19.4600 
G01 X-20.6748 Y19.4600 
G01 X-20.7100 Y19.4951 
G01 X-20.7100 Y20.0568 
G01 X-21.6247 Y20.0568 
G01 X-21.6916 Y20.0747 
G01 X-21.7516 Y20.1094 
G01 X-21.8006 Y20.1584 
G01 X-26.7790 Y25.1368 
G01 X-27.9747 Y25.1368 
G01 X-28.0416 Y25.1547 
G01 X-28.1016 Y25.1894 
G01 X-28.1506 Y25.2384 
G01 X-29.3190 Y26.4068 
G01 X-31.7500 Y26.4068 
G01 X-31.7680 Y26.3632 
G01 X-31.8220 Y26.3092 
G01 X-31.8926 Y26.2800 
G01 X-32.7250 Y26.2800 
G01 X-32.7956 Y26.3092 
G01 X-32.8496 Y26.3632 
G01 X-32.8788 Y26.4338 
G00 Z1.0000 
G00 X-32.8788 Y25.1638 
G01 Z-0.1000 F500.00 
G01 X-32.8788 Y25.6362 
G01 X-32.8496 Y25.7068 
G01 X-32.7956 Y25.7608 
G01 X-32.7250 Y25.7900 
G01 X-31.8926 Y25.7900 
G01 X-31.8220 Y25.7608 
G01 X-31.7680 Y25.7068 
G01 X-31.7500 Y25.6632 
G01 X-30.4453 Y25.6632 
G01 X-30.3784 Y25.6453 
G01 X-30.3184 Y25.6106 
G01 X-20.7100 Y16.0022 
G01 X-20.7100 Y16.0648 
G01 X-20.6748 Y16.1000 
G01 X-19.3251 Y16.1000 
G01 X-19.2900 Y16.0648 
G01 X-19.2900 Y14.4151 
G01 X-19.3251 Y14.3800 
G01 X-20.6748 Y14.3800 
G01 X-20.7100 Y14.4151 
G01 X-20.7100 Y15.2578 
G01 X-30.5890 Y25.1368 
G01 X-31.7500 Y25.1368 
G01 X-31.7680 Y25.0932 
G01 X-31.8220 Y25.0392 
G01 X-31.8926 Y25.0100 
G01 X-32.7250 Y25.0100 
G01 X-32.7956 Y25.0392 
G01 X-32.8496 Y25.0932 
G01 X-32.8788 Y25.1638 
G00 Z1.0000 
G00 X-67.1250 Y3.7266 
G01 Z-0.1000 F500.00 
G01 X-67.1250 Y3.8934 
G01 X-67.0989 Y4.0582 
G01 X-67.0473 Y4.2169 
G01 X-66.9716 Y4.3656 
G01 X-66.8735 Y4.5005 
G01 X-66.7555 Y4.6185 
G01 X-66.6206 Y4.7166 
G01 X-66.4719 Y4.7923 
G01 X-66.3132 Y4.8439 
G01 X-66.1484 Y4.8700 
G01 X-65.9816 Y4.8700 
G01 X-65.8168 Y4.8439 
G01 X-65.6581 Y4.7923 
G01 X-65.5094 Y4.7166 
G01 X-65.3745 Y4.6185 
G01 X-65.2565 Y4.5005 
G01 X-65.1584 Y4.3656 
G01 X-65.0827 Y4.2169 
G01 X-65.0311 Y4.0582 
G01 X-65.0050 Y3.8934 
G01 X-65.0050 Y3.7266 
G01 X-65.0283 Y3.5794 
G01 X-60.8040 Y1.4372 
G01 X-60.8040 Y1.4588 
G01 X-60.7689 Y1.4940 
G01 X-59.4111 Y1.4940 
G01 X-59.3760 Y1.4588 
G01 X-59.3760 Y0.1011 
G01 X-59.4111 Y0.0660 
G01 X-60.7689 Y0.0660 
G01 X-60.8040 Y0.1011 
G01 X-60.8040 Y0.8470 
G01 X-65.2661 Y3.1098 
G01 X-65.3745 Y3.0015 
G01 X-65.5094 Y2.9034 
G01 X-65.6581 Y2.8277 
G01 X-65.8168 Y2.7761 
G01 X-65.9816 Y2.7500 
G01 X-66.1484 Y2.7500 
G01 X-66.3132 Y2.7761 
G01 X-66.4719 Y2.8277 
G01 X-66.6206 Y2.9034 
G01 X-66.7555 Y3.0015 
G01 X-66.8735 Y3.1195 
G01 X-66.9716 Y3.2544 
G01 X-67.0473 Y3.4031 
G01 X-67.0989 Y3.5618 
G01 X-67.1250 Y3.7266 
G00 Z1.0000 
G00 X-67.1250 Y8.8066 
G01 Z-0.1000 F500.00 
G01 X-67.1250 Y8.9734 
G01 X-67.0989 Y9.1382 
G01 X-67.0473 Y9.2969 
G01 X-66.9716 Y9.4456 
G01 X-66.8735 Y9.5805 
G01 X-66.7555 Y9.6985 
G01 X-66.6206 Y9.7966 
G01 X-66.4719 Y9.8723 
G01 X-66.3132 Y9.9239 
G01 X-66.1484 Y9.9500 
G01 X-65.9816 Y9.9500 
G01 X-65.8168 Y9.9239 
G01 X-65.6581 Y9.8723 
G01 X-65.5094 Y9.7966 
G01 X-65.3745 Y9.6985 
G01 X-65.2565 Y9.5805 
G01 X-65.1627 Y9.4515 
G01 X-60.8040 Y10.8302 
G01 X-60.8040 Y11.4588 
G01 X-60.7689 Y11.4940 
G01 X-59.4111 Y11.4940 
G01 X-59.3760 Y11.4588 
G01 X-59.3760 Y10.1011 
G01 X-59.4111 Y10.0660 
G01 X-60.7689 Y10.0660 
G01 X-60.8040 Y10.1011 
G01 X-60.8040 Y10.2781 
G01 X-65.0050 Y8.9492 
G01 X-65.0050 Y8.8066 
G01 X-65.0311 Y8.6418 
G01 X-65.0827 Y8.4831 
G01 X-65.1584 Y8.3344 
G01 X-65.2565 Y8.1995 
G01 X-65.3745 Y8.0815 
G01 X-65.5094 Y7.9834 
G01 X-65.6581 Y7.9077 
G01 X-65.8168 Y7.8561 
G01 X-65.9816 Y7.8300 
G01 X-66.1484 Y7.8300 
G01 X-66.3132 Y7.8561 
G01 X-66.4719 Y7.9077 
G01 X-66.6206 Y7.9834 
G01 X-66.7555 Y8.0815 
G01 X-66.8735 Y8.1995 
G01 X-66.9716 Y8.3344 
G01 X-67.0473 Y8.4831 
G01 X-67.0989 Y8.6418 
G01 X-67.1250 Y8.8066 
G00 Z1.0000 
G00 X-67.1250 Y18.9666 
G01 Z-0.1000 F500.00 
G01 X-67.1250 Y19.1334 
G01 X-67.0989 Y19.2982 
G01 X-67.0473 Y19.4569 
G01 X-66.9716 Y19.6056 
G01 X-66.8735 Y19.7405 
G01 X-66.7555 Y19.8585 
G01 X-66.6206 Y19.9566 
G01 X-66.4719 Y20.0323 
G01 X-66.3132 Y20.0839 
G01 X-66.1484 Y20.1100 
G01 X-65.9816 Y20.1100 
G01 X-65.8168 Y20.0839 
G01 X-65.6581 Y20.0323 
G01 X-65.5094 Y19.9566 
G01 X-65.3745 Y19.8585 
G01 X-65.2565 Y19.7405 
G01 X-65.1584 Y19.6056 
G01 X-65.0827 Y19.4569 
G01 X-65.0360 Y19.3132 
G01 X-60.9926 Y19.3132 
G01 X-60.5500 Y19.4247 
G01 X-60.5500 Y20.0449 
G01 X-60.5149 Y20.0800 
G01 X-58.8651 Y20.0800 
G01 X-58.8300 Y20.0449 
G01 X-58.8300 Y18.6951 
G01 X-58.8651 Y18.6600 
G01 X-60.5149 Y18.6600 
G01 X-60.5500 Y18.6951 
G01 X-60.5500 Y18.8819 
G01 X-60.8939 Y18.7952 
G01 X-60.9253 Y18.7868 
G01 X-60.9273 Y18.7868 
G01 X-60.9293 Y18.7863 
G01 X-60.9621 Y18.7868 
G01 X-65.0360 Y18.7868 
G01 X-65.0827 Y18.6431 
G01 X-65.1584 Y18.4944 
G01 X-65.2565 Y18.3595 
G01 X-65.3745 Y18.2415 
G01 X-65.5094 Y18.1434 
G01 X-65.6581 Y18.0677 
G01 X-65.8168 Y18.0161 
G01 X-65.9816 Y17.9900 
G01 X-66.1484 Y17.9900 
G01 X-66.3132 Y18.0161 
G01 X-66.4719 Y18.0677 
G01 X-66.6206 Y18.1434 
G01 X-66.7555 Y18.2415 
G01 X-66.8735 Y18.3595 
G01 X-66.9716 Y18.4944 
G01 X-67.0473 Y18.6431 
G01 X-67.0989 Y18.8018 
G01 X-67.1250 Y18.9666 
G00 Z1.0000 
G00 X-67.1250 Y24.0466 
G01 Z-0.1000 F500.00 
G01 X-67.1250 Y24.2134 
G01 X-67.0989 Y24.3782 
G01 X-67.0473 Y24.5369 
G01 X-66.9716 Y24.6856 
G01 X-66.8735 Y24.8205 
G01 X-66.7555 Y24.9385 
G01 X-66.6206 Y25.0366 
G01 X-66.4719 Y25.1123 
G01 X-66.3132 Y25.1639 
G01 X-66.1484 Y25.1900 
G01 X-65.9816 Y25.1900 
G01 X-65.8168 Y25.1639 
G01 X-65.6581 Y25.1123 
G01 X-65.5094 Y25.0366 
G01 X-65.3745 Y24.9385 
G01 X-65.2565 Y24.8205 
G01 X-65.1584 Y24.6856 
G01 X-65.0827 Y24.5369 
G01 X-65.0360 Y24.3932 
G01 X-59.9532 Y24.3932 
G01 X-59.9532 Y25.0100 
G01 X-60.5149 Y25.0100 
G01 X-60.5500 Y25.0451 
G01 X-60.5500 Y26.3949 
G01 X-60.5149 Y26.4300 
G01 X-58.8651 Y26.4300 
G01 X-58.8300 Y26.3949 
G01 X-58.8300 Y25.0451 
G01 X-58.8651 Y25.0100 
G01 X-59.4268 Y25.0100 
G01 X-59.4268 Y24.0953 
G01 X-59.4447 Y24.0284 
G01 X-59.4794 Y23.9684 
G01 X-59.5284 Y23.9194 
G01 X-59.5884 Y23.8847 
G01 X-59.6553 Y23.8668 
G01 X-65.0360 Y23.8668 
G01 X-65.0827 Y23.7231 
G01 X-65.1584 Y23.5744 
G01 X-65.2565 Y23.4395 
G01 X-65.3745 Y23.3215 
G01 X-65.5094 Y23.2234 
G01 X-65.6581 Y23.1477 
G01 X-65.8168 Y23.0961 
G01 X-65.9816 Y23.0700 
G01 X-66.1484 Y23.0700 
G01 X-66.3132 Y23.0961 
G01 X-66.4719 Y23.1477 
G01 X-66.6206 Y23.2234 
G01 X-66.7555 Y23.3215 
G01 X-66.8735 Y23.4395 
G01 X-66.9716 Y23.5744 
G01 X-67.0473 Y23.7231 
G01 X-67.0989 Y23.8818 
G01 X-67.1250 Y24.0466 
G00 Z1.0000 
G00 X-67.1250 Y29.1266 
G01 Z-0.1000 F500.00 
G01 X-67.1250 Y29.2934 
G01 X-67.0989 Y29.4582 
G01 X-67.0473 Y29.6169 
G01 X-66.9716 Y29.7656 
G01 X-66.8735 Y29.9005 
G01 X-66.7555 Y30.0185 
G01 X-66.6206 Y30.1166 
G01 X-66.4719 Y30.1923 
G01 X-66.3132 Y30.2439 
G01 X-66.1484 Y30.2700 
G01 X-65.9816 Y30.2700 
G01 X-65.8168 Y30.2439 
G01 X-65.6581 Y30.1923 
G01 X-65.5094 Y30.1166 
G01 X-65.3745 Y30.0185 
G01 X-65.3531 Y29.9972 
G01 X-62.3974 Y31.9548 
G01 X-62.3916 Y31.9606 
G01 X-62.3686 Y31.9739 
G01 X-62.3464 Y31.9886 
G01 X-62.3387 Y31.9912 
G01 X-62.3316 Y31.9953 
G01 X-62.3059 Y32.0021 
G01 X-62.2807 Y32.0106 
G01 X-62.2726 Y32.0111 
G01 X-62.2647 Y32.0132 
G01 X-62.2381 Y32.0132 
G01 X-62.2116 Y32.0148 
G01 X-62.2035 Y32.0132 
G01 X-61.3500 Y32.0132 
G01 X-61.3500 Y32.5749 
G01 X-61.3148 Y32.6100 
G01 X-59.9651 Y32.6100 
G01 X-59.9300 Y32.5749 
G01 X-59.9300 Y30.9251 
G01 X-59.9651 Y30.8900 
G01 X-61.3148 Y30.8900 
G01 X-61.3500 Y30.9251 
G01 X-61.3500 Y31.4868 
G01 X-62.1507 Y31.4868 
G01 X-65.0634 Y29.5577 
G01 X-65.0311 Y29.4582 
G01 X-65.0050 Y29.2934 
G01 X-65.0050 Y29.1266 
G01 X-65.0311 Y28.9618 
G01 X-65.0827 Y28.8031 
G01 X-65.1584 Y28.6544 
G01 X-65.2565 Y28.5195 
G01 X-65.3745 Y28.4015 
G01 X-65.5094 Y28.3034 
G01 X-65.6581 Y28.2277 
G01 X-65.8168 Y28.1761 
G01 X-65.9816 Y28.1500 
G01 X-66.1484 Y28.1500 
G01 X-66.3132 Y28.1761 
G01 X-66.4719 Y28.2277 
G01 X-66.6206 Y28.3034 
G01 X-66.7555 Y28.4015 
G01 X-66.8735 Y28.5195 
G01 X-66.9716 Y28.6544 
G01 X-67.0473 Y28.8031 
G01 X-67.0989 Y28.9618 
G01 X-67.1250 Y29.1266 
G00 Z1.0000 
G00 X-4.8450 Y29.1266 
G01 Z-0.1000 F500.00 
G01 X-4.8450 Y29.2934 
G01 X-4.8189 Y29.4582 
G01 X-4.7673 Y29.6169 
G01 X-4.7072 Y29.7350 
G01 X-6.4590 Y31.4868 
G01 X-16.7210 Y31.4868 
G01 X-17.3900 Y30.8178 
G01 X-17.3900 Y29.6551 
G01 X-17.4251 Y29.6200 
G01 X-18.7749 Y29.6200 
G01 X-18.8100 Y29.6551 
G01 X-18.8100 Y31.3049 
G01 X-18.7749 Y31.3400 
G01 X-17.6122 Y31.3400 
G01 X-17.0406 Y31.9116 
G01 X-16.9916 Y31.9606 
G01 X-16.9316 Y31.9953 
G01 X-16.8647 Y32.0132 
G01 X-6.3153 Y32.0132 
G01 X-6.2484 Y31.9953 
G01 X-6.1884 Y31.9606 
G01 X-4.3428 Y30.1150 
G01 X-4.3406 Y30.1166 
G01 X-4.1919 Y30.1923 
G01 X-4.0332 Y30.2439 
G01 X-3.8684 Y30.2700 
G01 X-3.7016 Y30.2700 
G01 X-3.5368 Y30.2439 
G01 X-3.3781 Y30.1923 
G01 X-3.2294 Y30.1166 
G01 X-3.0945 Y30.0185 
G01 X-2.9765 Y29.9005 
G01 X-2.8784 Y29.7656 
G01 X-2.8027 Y29.6169 
G01 X-2.7511 Y29.4582 
G01 X-2.7250 Y29.2934 
G01 X-2.7250 Y29.1266 
G01 X-2.7511 Y28.9618 
G01 X-2.8027 Y28.8031 
G01 X-2.8784 Y28.6544 
G01 X-2.9765 Y28.5195 
G01 X-3.0945 Y28.4015 
G01 X-3.2294 Y28.3034 
G01 X-3.3781 Y28.2277 
G01 X-3.5368 Y28.1761 
G01 X-3.7016 Y28.1500 
G01 X-3.8684 Y28.1500 
G01 X-4.0332 Y28.1761 
G01 X-4.1919 Y28.2277 
G01 X-4.3406 Y28.3034 
G01 X-4.4755 Y28.4015 
G01 X-4.5935 Y28.5195 
G01 X-4.6916 Y28.6544 
G01 X-4.7673 Y28.8031 
G01 X-4.8189 Y28.9618 
G01 X-4.8450 Y29.1266 
G00 Z1.0000 
G00 X-4.7673 Y19.4569 
G01 Z-0.1000 F500.00 
G01 X-4.6916 Y19.6056 
G01 X-4.5935 Y19.7405 
G01 X-4.4755 Y19.8585 
G01 X-4.3406 Y19.9566 
G01 X-4.1919 Y20.0323 
G01 X-4.0332 Y20.0839 
G01 X-3.8684 Y20.1100 
G01 X-3.7016 Y20.1100 
G01 X-3.5368 Y20.0839 
G01 X-3.3781 Y20.0323 
G01 X-3.2294 Y19.9566 
G01 X-3.0945 Y19.8585 
G01 X-2.9765 Y19.7405 
G01 X-2.8784 Y19.6056 
G01 X-2.8027 Y19.4569 
G01 X-2.7511 Y19.2982 
G01 X-2.7250 Y19.1334 
G01 X-2.7250 Y18.9666 
G01 X-2.7511 Y18.8018 
G01 X-2.8027 Y18.6431 
G01 X-2.8784 Y18.4944 
G01 X-2.9765 Y18.3595 
G01 X-3.0945 Y18.2415 
G01 X-3.2294 Y18.1434 
G01 X-3.3781 Y18.0677 
G01 X-3.5368 Y18.0161 
G01 X-3.7016 Y17.9900 
G01 X-3.8684 Y17.9900 
G01 X-4.0332 Y18.0161 
G01 X-4.1919 Y18.0677 
G01 X-4.3406 Y18.1434 
G01 X-4.4755 Y18.2415 
G01 X-4.5935 Y18.3595 
G01 X-4.6916 Y18.4944 
G01 X-4.7673 Y18.6431 
G01 X-4.8140 Y18.7868 
G01 X-16.8647 Y18.7868 
G01 X-16.9316 Y18.8047 
G01 X-16.9916 Y18.8394 
G01 X-17.0406 Y18.8884 
G01 X-17.6122 Y19.4600 
G01 X-18.7749 Y19.4600 
G01 X-18.8100 Y19.4951 
G01 X-18.8100 Y21.1449 
G01 X-18.7749 Y21.1800 
G01 X-17.4251 Y21.1800 
G01 X-17.3900 Y21.1449 
G01 X-17.3900 Y19.9822 
G01 X-16.7210 Y19.3132 
G01 X-4.8140 Y19.3132 
G01 X-4.7673 Y19.4569 
G00 Z1.0000 
G00 X-44.4840 Y0.2011 
G01 Z-0.1000 F500.00 
G01 X-44.4840 Y1.5589 
G01 X-44.4489 Y1.5940 
G01 X-43.0911 Y1.5940 
G01 X-43.0560 Y1.5589 
G01 X-43.0560 Y0.2011 
G01 X-43.0911 Y0.1660 
G01 X-44.4489 Y0.1660 
G01 X-44.4840 Y0.2011 
G00 Z1.0000 
G00 X-15.0840 Y12.6297 
G01 Z-0.1000 F500.00 
G01 X-15.0840 Y12.7703 
G01 X-15.0566 Y12.9083 
G01 X-15.0027 Y13.0382 
G01 X-14.9246 Y13.1551 
G01 X-14.8251 Y13.2546 
G01 X-14.7082 Y13.3327 
G01 X-14.5783 Y13.3866 
G01 X-14.4403 Y13.4140 
G01 X-14.2997 Y13.4140 
G01 X-14.1617 Y13.3866 
G01 X-14.0318 Y13.3327 
G01 X-13.9149 Y13.2546 
G01 X-13.8154 Y13.1551 
G01 X-13.7373 Y13.0382 
G01 X-13.6834 Y12.9083 
G01 X-13.6560 Y12.7703 
G01 X-13.6560 Y12.6297 
G01 X-13.6834 Y12.4917 
G01 X-13.7373 Y12.3618 
G01 X-13.8154 Y12.2449 
G01 X-13.9149 Y12.1454 
G01 X-14.0318 Y12.0673 
G01 X-14.1617 Y12.0134 
G01 X-14.2997 Y11.9860 
G01 X-14.4403 Y11.9860 
G01 X-14.5783 Y12.0134 
G01 X-14.6533 Y12.0445 
G01 X-17.9694 Y8.7284 
G01 X-18.0184 Y8.6794 
G01 X-18.0784 Y8.6447 
G01 X-18.1453 Y8.6268 
G01 X-33.0547 Y8.6268 
G01 X-33.1216 Y8.6447 
G01 X-33.1816 Y8.6794 
G01 X-34.4516 Y9.9494 
G01 X-34.5006 Y9.9984 
G01 X-34.5353 Y10.0584 
G01 X-34.5532 Y10.1253 
G01 X-34.5532 Y12.0900 
G01 X-34.6399 Y12.0900 
G01 X-34.6750 Y12.1251 
G01 X-34.6750 Y13.8749 
G01 X-34.6399 Y13.9100 
G01 X-33.9401 Y13.9100 
G01 X-33.9050 Y13.8749 
G01 X-33.9050 Y12.1251 
G01 X-33.9401 Y12.0900 
G01 X-34.0268 Y12.0900 
G01 X-34.0268 Y10.2690 
G01 X-32.9110 Y9.1532 
G01 X-18.2890 Y9.1532 
G01 X-15.0255 Y12.4167 
G01 X-15.0566 Y12.4917 
G01 X-15.0840 Y12.6297 
G00 Z1.0000 
G00 X-15.1840 Y15.2697 
G01 Z-0.1000 F500.00 
G01 X-15.1840 Y15.4103 
G01 X-15.1566 Y15.5483 
G01 X-15.1027 Y15.6782 
G01 X-15.0246 Y15.7951 
G01 X-14.9251 Y15.8946 
G01 X-14.8082 Y15.9727 
G01 X-14.6783 Y16.0266 
G01 X-14.5403 Y16.0540 
G01 X-14.3997 Y16.0540 
G01 X-14.2617 Y16.0266 
G01 X-14.1318 Y15.9727 
G01 X-14.0149 Y15.8946 
G01 X-13.9154 Y15.7951 
G01 X-13.8373 Y15.6782 
G01 X-13.7834 Y15.5483 
G01 X-13.7560 Y15.4103 
G01 X-13.7560 Y15.2697 
G01 X-13.7834 Y15.1317 
G01 X-13.8373 Y15.0018 
G01 X-13.9154 Y14.8849 
G01 X-14.0149 Y14.7854 
G01 X-14.1318 Y14.7073 
G01 X-14.2617 Y14.6534 
G01 X-14.3997 Y14.6260 
G01 X-14.5403 Y14.6260 
G01 X-14.6783 Y14.6534 
G01 X-14.7533 Y14.6845 
G01 X-19.4394 Y9.9984 
G01 X-19.4884 Y9.9494 
G01 X-19.5484 Y9.9147 
G01 X-19.6153 Y9.8968 
G01 X-31.7847 Y9.8968 
G01 X-31.8516 Y9.9147 
G01 X-31.9116 Y9.9494 
G01 X-33.1816 Y11.2194 
G01 X-33.2306 Y11.2684 
G01 X-33.2653 Y11.3284 
G01 X-33.2832 Y11.3953 
G01 X-33.2832 Y12.0900 
G01 X-33.3698 Y12.0900 
G01 X-33.4050 Y12.1251 
G01 X-33.4050 Y13.8749 
G01 X-33.3698 Y13.9100 
G01 X-32.6701 Y13.9100 
G01 X-32.6350 Y13.8749 
G01 X-32.6350 Y12.1251 
G01 X-32.6701 Y12.0900 
G01 X-32.7568 Y12.0900 
G01 X-32.7568 Y11.5390 
G01 X-31.6410 Y10.4232 
G01 X-19.7590 Y10.4232 
G01 X-15.1255 Y15.0567 
G01 X-15.1566 Y15.1317 
G01 X-15.1840 Y15.2697 
G00 Z1.0000 
G00 X-20.9527 Y1.6082 
G01 Z-0.1000 F500.00 
G01 X-20.8746 Y1.7251 
G01 X-20.7751 Y1.8246 
G01 X-20.6582 Y1.9027 
G01 X-20.5283 Y1.9566 
G01 X-20.3903 Y1.9840 
G01 X-20.2497 Y1.9840 
G01 X-20.1117 Y1.9566 
G01 X-19.9818 Y1.9027 
G01 X-19.8649 Y1.8246 
G01 X-19.7654 Y1.7251 
G01 X-19.6873 Y1.6082 
G01 X-19.6334 Y1.4783 
G01 X-19.6060 Y1.3403 
G01 X-19.6060 Y1.1997 
G01 X-19.6334 Y1.0617 
G01 X-19.6873 Y0.9318 
G01 X-19.7654 Y0.8149 
G01 X-19.8649 Y0.7154 
G01 X-19.9818 Y0.6373 
G01 X-20.1117 Y0.5834 
G01 X-20.2497 Y0.5560 
G01 X-20.3903 Y0.5560 
G01 X-20.5283 Y0.5834 
G01 X-20.6582 Y0.6373 
G01 X-20.7751 Y0.7154 
G01 X-20.8746 Y0.8149 
G01 X-20.9527 Y0.9318 
G01 X-20.9838 Y1.0068 
G01 X-36.8647 Y1.0068 
G01 X-36.9316 Y1.0247 
G01 X-36.9916 Y1.0594 
G01 X-37.0406 Y1.1084 
G01 X-37.0753 Y1.1684 
G01 X-37.0932 Y1.2353 
G01 X-37.0932 Y3.7010 
G01 X-38.3106 Y4.9184 
G01 X-38.3453 Y4.9784 
G01 X-38.3632 Y5.0453 
G01 X-38.3632 Y5.1147 
G01 X-38.3453 Y5.1816 
G01 X-38.3106 Y5.2416 
G01 X-38.2616 Y5.2906 
G01 X-38.2016 Y5.3253 
G01 X-38.1347 Y5.3432 
G01 X-38.0653 Y5.3432 
G01 X-37.9984 Y5.3253 
G01 X-37.9384 Y5.2906 
G01 X-36.6194 Y3.9716 
G01 X-36.5847 Y3.9116 
G01 X-36.5668 Y3.8447 
G01 X-36.5668 Y1.5332 
G01 X-20.9838 Y1.5332 
G01 X-20.9527 Y1.6082 
G00 Z1.0000 
G00 X-27.3840 Y11.3597 
G01 Z-0.1000 F500.00 
G01 X-27.3840 Y11.5003 
G01 X-27.3566 Y11.6383 
G01 X-27.3255 Y11.7133 
G01 X-31.8590 Y16.2468 
G01 X-35.4510 Y16.2468 
G01 X-36.5668 Y15.1310 
G01 X-36.5668 Y13.9100 
G01 X-36.4801 Y13.9100 
G01 X-36.4450 Y13.8749 
G01 X-36.4450 Y12.1251 
G01 X-36.4801 Y12.0900 
G01 X-36.5668 Y12.0900 
G01 X-36.5668 Y10.2690 
G01 X-35.3494 Y9.0516 
G01 X-35.3147 Y8.9916 
G01 X-35.2968 Y8.9246 
G01 X-35.2968 Y5.3432 
G01 X-34.1376 Y5.3432 
G01 X-34.1196 Y5.3868 
G01 X-34.0656 Y5.4408 
G01 X-33.9950 Y5.4700 
G01 X-33.1626 Y5.4700 
G01 X-33.0920 Y5.4408 
G01 X-33.0380 Y5.3868 
G01 X-33.0088 Y5.3162 
G01 X-33.0088 Y4.8438 
G01 X-33.0380 Y4.7732 
G01 X-33.0920 Y4.7192 
G01 X-33.1626 Y4.6900 
G01 X-33.9950 Y4.6900 
G01 X-34.0656 Y4.7192 
G01 X-34.1196 Y4.7732 
G01 X-34.1376 Y4.8168 
G01 X-35.5947 Y4.8168 
G01 X-35.6616 Y4.8347 
G01 X-35.7216 Y4.8694 
G01 X-35.7706 Y4.9184 
G01 X-35.8053 Y4.9784 
G01 X-35.8232 Y5.0453 
G01 X-35.8232 Y8.7810 
G01 X-36.9916 Y9.9494 
G01 X-37.0406 Y9.9984 
G01 X-37.0753 Y10.0584 
G01 X-37.0932 Y10.1253 
G01 X-37.0932 Y12.0900 
G01 X-37.1799 Y12.0900 
G01 X-37.2150 Y12.1251 
G01 X-37.2150 Y13.8749 
G01 X-37.1799 Y13.9100 
G01 X-37.0932 Y13.9100 
G01 X-37.0932 Y15.2747 
G01 X-37.0753 Y15.3416 
G01 X-37.0406 Y15.4016 
G01 X-36.9916 Y15.4506 
G01 X-35.7216 Y16.7206 
G01 X-35.6616 Y16.7553 
G01 X-35.5947 Y16.7732 
G01 X-31.7153 Y16.7732 
G01 X-31.6484 Y16.7553 
G01 X-31.5884 Y16.7206 
G01 X-31.5394 Y16.6716 
G01 X-31.5394 Y16.6716 
G01 X-26.9533 Y12.0855 
G01 X-26.8783 Y12.1166 
G01 X-26.7403 Y12.1440 
G01 X-26.5997 Y12.1440 
G01 X-26.4617 Y12.1166 
G01 X-26.3318 Y12.0627 
G01 X-26.2149 Y11.9846 
G01 X-26.1154 Y11.8851 
G01 X-26.0373 Y11.7682 
G01 X-26.0062 Y11.6932 
G01 X-25.5090 Y11.6932 
G01 X-24.3932 Y12.8090 
G01 X-24.3932 Y15.1310 
G01 X-30.6906 Y21.4284 
G01 X-30.7253 Y21.4884 
G01 X-30.7432 Y21.5553 
G01 X-30.7432 Y22.5968 
G01 X-31.3410 Y22.5968 
G01 X-31.3650 Y22.5728 
G01 X-31.3650 Y21.6851 
G01 X-31.4001 Y21.6500 
G01 X-31.4868 Y21.6500 
G01 X-31.4868 Y21.5553 
G01 X-31.5047 Y21.4884 
G01 X-31.5394 Y21.4284 
G01 X-31.5884 Y21.3794 
G01 X-31.6484 Y21.3447 
G01 X-31.7153 Y21.3268 
G01 X-35.5947 Y21.3268 
G01 X-35.6616 Y21.3447 
G01 X-35.7216 Y21.3794 
G01 X-35.7706 Y21.4284 
G01 X-35.8053 Y21.4884 
G01 X-35.8232 Y21.5553 
G01 X-35.8232 Y21.6500 
G01 X-35.9098 Y21.6500 
G01 X-35.9450 Y21.6851 
G01 X-35.9450 Y23.4349 
G01 X-35.9098 Y23.4700 
G01 X-35.2101 Y23.4700 
G01 X-35.1750 Y23.4349 
G01 X-35.1750 Y21.8532 
G01 X-34.6750 Y21.8532 
G01 X-34.6750 Y23.4349 
G01 X-34.6399 Y23.4700 
G01 X-33.9401 Y23.4700 
G01 X-33.9050 Y23.4349 
G01 X-33.9050 Y21.8532 
G01 X-33.4050 Y21.8532 
G01 X-33.4050 Y23.4349 
G01 X-33.3698 Y23.4700 
G01 X-32.6701 Y23.4700 
G01 X-32.6350 Y23.4349 
G01 X-32.6350 Y21.8532 
G01 X-32.1350 Y21.8532 
G01 X-32.1350 Y23.4349 
G01 X-32.0999 Y23.4700 
G01 X-31.4001 Y23.4700 
G01 X-31.3650 Y23.4349 
G01 X-31.3650 Y23.1232 
G01 X-30.4453 Y23.1232 
G01 X-30.3784 Y23.1053 
G01 X-30.3184 Y23.0706 
G01 X-30.2694 Y23.0216 
G01 X-30.2347 Y22.9616 
G01 X-30.2168 Y22.8947 
G01 X-30.2168 Y21.6990 
G01 X-23.9684 Y15.4506 
G01 X-23.9194 Y15.4016 
G01 X-23.8847 Y15.3416 
G01 X-23.8668 Y15.2747 
G01 X-23.8668 Y12.6653 
G01 X-23.8847 Y12.5984 
G01 X-23.9194 Y12.5384 
G01 X-25.1894 Y11.2684 
G01 X-25.2384 Y11.2194 
G01 X-25.2984 Y11.1847 
G01 X-25.3653 Y11.1668 
G01 X-26.0062 Y11.1668 
G01 X-26.0373 Y11.0918 
G01 X-26.1154 Y10.9748 
G01 X-26.2149 Y10.8754 
G01 X-26.3318 Y10.7973 
G01 X-26.4617 Y10.7434 
G01 X-26.5997 Y10.7160 
G01 X-26.7403 Y10.7160 
G01 X-26.8783 Y10.7434 
G01 X-27.0082 Y10.7973 
G01 X-27.1251 Y10.8754 
G01 X-27.2246 Y10.9748 
G01 X-27.3027 Y11.0918 
G01 X-27.3566 Y11.2217 
G01 X-27.3840 Y11.3597 
G00 Z1.0000 
G00 X-27.3840 Y29.1397 
G01 Z-0.1000 F500.00 
G01 X-27.3840 Y29.2803 
G01 X-27.3566 Y29.4183 
G01 X-27.3027 Y29.5482 
G01 X-27.2246 Y29.6651 
G01 X-27.1251 Y29.7646 
G01 X-27.0082 Y29.8427 
G01 X-26.8783 Y29.8966 
G01 X-26.7403 Y29.9240 
G01 X-26.5997 Y29.9240 
G01 X-26.4617 Y29.8966 
G01 X-26.3318 Y29.8427 
G01 X-26.2149 Y29.7646 
G01 X-26.1154 Y29.6651 
G01 X-26.0373 Y29.5482 
G01 X-25.9834 Y29.4183 
G01 X-25.9560 Y29.2803 
G01 X-25.9560 Y29.1397 
G01 X-25.9834 Y29.0017 
G01 X-26.0373 Y28.8718 
G01 X-26.1154 Y28.7549 
G01 X-26.2149 Y28.6554 
G01 X-26.3318 Y28.5773 
G01 X-26.4617 Y28.5234 
G01 X-26.5997 Y28.4960 
G01 X-26.7403 Y28.4960 
G01 X-26.8783 Y28.5234 
G01 X-27.0082 Y28.5773 
G01 X-27.1251 Y28.6554 
G01 X-27.2246 Y28.7549 
G01 X-27.3027 Y28.8718 
G01 X-27.3566 Y29.0017 
G01 X-27.3840 Y29.1397 
G00 Z1.0000 
G00 X-12.1440 Y26.5997 
G01 Z-0.1000 F500.00 
G01 X-12.1440 Y26.7403 
G01 X-12.1166 Y26.8783 
G01 X-12.0627 Y27.0082 
G01 X-11.9846 Y27.1251 
G01 X-11.8851 Y27.2246 
G01 X-11.7682 Y27.3027 
G01 X-11.6383 Y27.3566 
G01 X-11.5003 Y27.3840 
G01 X-11.3597 Y27.3840 
G01 X-11.2217 Y27.3566 
G01 X-11.0918 Y27.3027 
G01 X-10.9748 Y27.2246 
G01 X-10.8754 Y27.1251 
G01 X-10.7973 Y27.0082 
G01 X-10.7662 Y26.9332 
G01 X-10.4327 Y26.9332 
G01 X-10.3804 Y27.0594 
G01 X-10.2905 Y27.1940 
G01 X-10.1760 Y27.3085 
G01 X-10.0414 Y27.3984 
G01 X-9.8918 Y27.4604 
G01 X-9.7330 Y27.4920 
G01 X-8.0470 Y27.4920 
G01 X-7.8882 Y27.4604 
G01 X-7.7386 Y27.3984 
G01 X-7.6040 Y27.3085 
G01 X-7.4895 Y27.1940 
G01 X-7.3996 Y27.0594 
G01 X-7.3376 Y26.9098 
G01 X-7.3060 Y26.7510 
G01 X-7.3060 Y26.5890 
G01 X-7.3376 Y26.4302 
G01 X-7.3996 Y26.2806 
G01 X-7.4895 Y26.1460 
G01 X-7.6040 Y26.0315 
G01 X-7.7386 Y25.9416 
G01 X-7.8882 Y25.8796 
G01 X-8.0470 Y25.8480 
G01 X-9.7330 Y25.8480 
G01 X-9.8918 Y25.8796 
G01 X-10.0414 Y25.9416 
G01 X-10.1760 Y26.0315 
G01 X-10.2905 Y26.1460 
G01 X-10.3804 Y26.2806 
G01 X-10.4327 Y26.4068 
G01 X-10.7662 Y26.4068 
G01 X-10.7973 Y26.3318 
G01 X-10.8754 Y26.2149 
G01 X-10.9748 Y26.1154 
G01 X-11.0918 Y26.0373 
G01 X-11.2217 Y25.9834 
G01 X-11.3597 Y25.9560 
G01 X-11.5003 Y25.9560 
G01 X-11.6383 Y25.9834 
G01 X-11.7682 Y26.0373 
G01 X-11.8851 Y26.1154 
G01 X-11.9846 Y26.2149 
G01 X-12.0627 Y26.3318 
G01 X-12.1166 Y26.4617 
G01 X-12.1440 Y26.5997 
G00 Z1.0000 
G00 X-12.1440 Y8.8197 
G01 Z-0.1000 F500.00 
G01 X-12.1440 Y8.9603 
G01 X-12.1166 Y9.0983 
G01 X-12.0627 Y9.2282 
G01 X-11.9846 Y9.3451 
G01 X-11.8851 Y9.4446 
G01 X-11.7682 Y9.5227 
G01 X-11.6383 Y9.5766 
G01 X-11.5003 Y9.6040 
G01 X-11.3597 Y9.6040 
G01 X-11.2217 Y9.5766 
G01 X-11.0918 Y9.5227 
G01 X-10.9748 Y9.4446 
G01 X-10.8754 Y9.3451 
G01 X-10.7973 Y9.2282 
G01 X-10.7662 Y9.1532 
G01 X-10.4327 Y9.1532 
G01 X-10.3804 Y9.2794 
G01 X-10.2905 Y9.4140 
G01 X-10.1760 Y9.5285 
G01 X-10.0414 Y9.6184 
G01 X-9.8918 Y9.6804 
G01 X-9.7330 Y9.7120 
G01 X-8.0470 Y9.7120 
G01 X-7.8882 Y9.6804 
G01 X-7.7386 Y9.6184 
G01 X-7.6040 Y9.5285 
G01 X-7.4895 Y9.4140 
G01 X-7.3996 Y9.2794 
G01 X-7.3376 Y9.1298 
G01 X-7.3060 Y8.9710 
G01 X-7.3060 Y8.8090 
G01 X-7.3376 Y8.6502 
G01 X-7.3996 Y8.5006 
G01 X-7.4895 Y8.3660 
G01 X-7.6040 Y8.2515 
G01 X-7.7386 Y8.1616 
G01 X-7.8882 Y8.0996 
G01 X-8.0470 Y8.0680 
G01 X-9.7330 Y8.0680 
G01 X-9.8918 Y8.0996 
G01 X-10.0414 Y8.1616 
G01 X-10.1760 Y8.2515 
G01 X-10.2905 Y8.3660 
G01 X-10.3804 Y8.5006 
G01 X-10.4327 Y8.6268 
G01 X-10.7662 Y8.6268 
G01 X-10.7973 Y8.5518 
G01 X-10.8754 Y8.4349 
G01 X-10.9748 Y8.3354 
G01 X-11.0918 Y8.2573 
G01 X-11.2217 Y8.2034 
G01 X-11.3597 Y8.1760 
G01 X-11.5003 Y8.1760 
G01 X-11.6383 Y8.2034 
G01 X-11.7682 Y8.2573 
G01 X-11.8851 Y8.3354 
G01 X-11.9846 Y8.4349 
G01 X-12.0627 Y8.5518 
G01 X-12.1166 Y8.6817 
G01 X-12.1440 Y8.8197 
G00 Z1.0000 
G00 X-12.1440 Y6.2797 
G01 Z-0.1000 F500.00 
G01 X-12.1440 Y6.4203 
G01 X-12.1166 Y6.5583 
G01 X-12.0627 Y6.6882 
G01 X-11.9846 Y6.8051 
G01 X-11.8851 Y6.9046 
G01 X-11.7682 Y6.9827 
G01 X-11.6383 Y7.0366 
G01 X-11.5003 Y7.0640 
G01 X-11.3597 Y7.0640 
G01 X-11.2217 Y7.0366 
G01 X-11.0918 Y6.9827 
G01 X-10.9748 Y6.9046 
G01 X-10.8754 Y6.8051 
G01 X-10.7973 Y6.6882 
G01 X-10.7662 Y6.6132 
G01 X-10.4327 Y6.6132 
G01 X-10.3804 Y6.7394 
G01 X-10.2905 Y6.8740 
G01 X-10.1760 Y6.9885 
G01 X-10.0414 Y7.0784 
G01 X-9.8918 Y7.1404 
G01 X-9.7330 Y7.1720 
G01 X-8.0470 Y7.1720 
G01 X-7.8882 Y7.1404 
G01 X-7.7386 Y7.0784 
G01 X-7.6040 Y6.9885 
G01 X-7.4895 Y6.8740 
G01 X-7.3996 Y6.7394 
G01 X-7.3376 Y6.5898 
G01 X-7.3060 Y6.4310 
G01 X-7.3060 Y6.2690 
G01 X-7.3376 Y6.1102 
G01 X-7.3996 Y5.9606 
G01 X-7.4895 Y5.8260 
G01 X-7.6040 Y5.7115 
G01 X-7.7386 Y5.6216 
G01 X-7.8882 Y5.5596 
G01 X-8.0470 Y5.5280 
G01 X-9.7330 Y5.5280 
G01 X-9.8918 Y5.5596 
G01 X-10.0414 Y5.6216 
G01 X-10.1760 Y5.7115 
G01 X-10.2905 Y5.8260 
G01 X-10.3804 Y5.9606 
G01 X-10.4327 Y6.0868 
G01 X-10.7662 Y6.0868 
G01 X-10.7973 Y6.0118 
G01 X-10.8754 Y5.8948 
G01 X-10.9748 Y5.7954 
G01 X-11.0918 Y5.7173 
G01 X-11.2217 Y5.6634 
G01 X-11.3597 Y5.6360 
G01 X-11.5003 Y5.6360 
G01 X-11.6383 Y5.6634 
G01 X-11.7682 Y5.7173 
G01 X-11.8851 Y5.7954 
G01 X-11.9846 Y5.8948 
G01 X-12.0627 Y6.0118 
G01 X-12.1166 Y6.1417 
G01 X-12.1440 Y6.2797 
G00 Z1.0000 
G00 X-8.0470 Y10.6080 
G01 Z-0.1000 F500.00 
G01 X-9.7330 Y10.6080 
G01 X-9.8918 Y10.6396 
G01 X-10.0414 Y10.7016 
G01 X-10.1760 Y10.7915 
G01 X-10.2905 Y10.9060 
G01 X-10.3804 Y11.0406 
G01 X-10.4327 Y11.1668 
G01 X-10.7662 Y11.1668 
G01 X-10.7973 Y11.0918 
G01 X-10.8754 Y10.9748 
G01 X-10.9748 Y10.8754 
G01 X-11.0918 Y10.7973 
G01 X-11.2217 Y10.7434 
G01 X-11.3597 Y10.7160 
G01 X-11.5003 Y10.7160 
G01 X-11.6383 Y10.7434 
G01 X-11.7682 Y10.7973 
G01 X-11.8851 Y10.8754 
G01 X-11.9846 Y10.9748 
G01 X-12.0627 Y11.0918 
G01 X-12.1166 Y11.2217 
G01 X-12.1440 Y11.3597 
G01 X-12.1440 Y11.5003 
G01 X-12.1166 Y11.6383 
G01 X-12.0627 Y11.7682 
G01 X-11.9846 Y11.8851 
G01 X-11.8851 Y11.9846 
G01 X-11.7682 Y12.0627 
G01 X-11.6383 Y12.1166 
G01 X-11.5003 Y12.1440 
G01 X-11.3597 Y12.1440 
G01 X-11.2217 Y12.1166 
G01 X-11.0918 Y12.0627 
G01 X-10.9748 Y11.9846 
G01 X-10.8754 Y11.8851 
G01 X-10.7973 Y11.7682 
G01 X-10.7662 Y11.6932 
G01 X-10.4327 Y11.6932 
G01 X-10.3804 Y11.8194 
G01 X-10.2905 Y11.9540 
G01 X-10.1760 Y12.0685 
G01 X-10.0414 Y12.1584 
G01 X-9.8918 Y12.2204 
G01 X-9.7330 Y12.2520 
G01 X-8.0470 Y12.2520 
G01 X-7.8882 Y12.2204 
G01 X-7.7386 Y12.1584 
G01 X-7.6040 Y12.0685 
G01 X-7.4895 Y11.9540 
G01 X-7.3996 Y11.8194 
G01 X-7.3376 Y11.6698 
G01 X-7.3060 Y11.5110 
G01 X-7.3060 Y11.3490 
G01 X-7.3376 Y11.1902 
G01 X-7.3996 Y11.0406 
G01 X-7.4895 Y10.9060 
G01 X-7.6040 Y10.7915 
G01 X-7.7386 Y10.7016 
G01 X-7.8882 Y10.6396 
G01 X-8.0470 Y10.6080 
G00 Z1.0000 
G00 X-8.0470 Y28.3880 
G01 Z-0.1000 F500.00 
G01 X-9.7330 Y28.3880 
G01 X-9.8918 Y28.4196 
G01 X-10.0414 Y28.4816 
G01 X-10.1760 Y28.5715 
G01 X-10.2905 Y28.6860 
G01 X-10.3804 Y28.8206 
G01 X-10.4327 Y28.9468 
G01 X-10.7662 Y28.9468 
G01 X-10.7973 Y28.8718 
G01 X-10.8754 Y28.7549 
G01 X-10.9748 Y28.6554 
G01 X-11.0918 Y28.5773 
G01 X-11.2217 Y28.5234 
G01 X-11.3597 Y28.4960 
G01 X-11.5003 Y28.4960 
G01 X-11.6383 Y28.5234 
G01 X-11.7682 Y28.5773 
G01 X-11.8851 Y28.6554 
G01 X-11.9846 Y28.7549 
G01 X-12.0627 Y28.8718 
G01 X-12.1166 Y29.0017 
G01 X-12.1440 Y29.1397 
G01 X-12.1440 Y29.2803 
G01 X-12.1166 Y29.4183 
G01 X-12.0627 Y29.5482 
G01 X-11.9846 Y29.6651 
G01 X-11.8851 Y29.7646 
G01 X-11.7682 Y29.8427 
G01 X-11.6383 Y29.8966 
G01 X-11.5003 Y29.9240 
G01 X-11.3597 Y29.9240 
G01 X-11.2217 Y29.8966 
G01 X-11.0918 Y29.8427 
G01 X-10.9748 Y29.7646 
G01 X-10.8754 Y29.6651 
G01 X-10.7973 Y29.5482 
G01 X-10.7662 Y29.4732 
G01 X-10.4327 Y29.4732 
G01 X-10.3804 Y29.5994 
G01 X-10.2905 Y29.7340 
G01 X-10.1760 Y29.8485 
G01 X-10.0414 Y29.9384 
G01 X-9.8918 Y30.0004 
G01 X-9.7330 Y30.0320 
G01 X-8.0470 Y30.0320 
G01 X-7.8882 Y30.0004 
G01 X-7.7386 Y29.9384 
G01 X-7.6040 Y29.8485 
G01 X-7.4895 Y29.7340 
G01 X-7.3996 Y29.5994 
G01 X-7.3376 Y29.4498 
G01 X-7.3060 Y29.2910 
G01 X-7.3060 Y29.1290 
G01 X-7.3376 Y28.9702 
G01 X-7.3996 Y28.8206 
G01 X-7.4895 Y28.6860 
G01 X-7.6040 Y28.5715 
G01 X-7.7386 Y28.4816 
G01 X-7.8882 Y28.4196 
G01 X-8.0470 Y28.3880 
G00 Z1.0000 
G00 X-8.0470 Y23.3080 
G01 Z-0.1000 F500.00 
G01 X-9.7330 Y23.3080 
G01 X-9.8918 Y23.3396 
G01 X-10.0414 Y23.4016 
G01 X-10.1760 Y23.4915 
G01 X-10.2905 Y23.6060 
G01 X-10.3804 Y23.7406 
G01 X-10.4327 Y23.8668 
G01 X-10.7662 Y23.8668 
G01 X-10.7973 Y23.7918 
G01 X-10.8754 Y23.6749 
G01 X-10.9748 Y23.5754 
G01 X-11.0918 Y23.4973 
G01 X-11.2217 Y23.4434 
G01 X-11.3597 Y23.4160 
G01 X-11.5003 Y23.4160 
G01 X-11.6383 Y23.4434 
G01 X-11.7682 Y23.4973 
G01 X-11.8851 Y23.5754 
G01 X-11.9846 Y23.6749 
G01 X-12.0627 Y23.7918 
G01 X-12.1166 Y23.9217 
G01 X-12.1440 Y24.0597 
G01 X-12.1440 Y24.2003 
G01 X-12.1166 Y24.3383 
G01 X-12.0627 Y24.4682 
G01 X-11.9846 Y24.5851 
G01 X-11.8851 Y24.6846 
G01 X-11.7682 Y24.7627 
G01 X-11.6383 Y24.8166 
G01 X-11.5003 Y24.8440 
G01 X-11.3597 Y24.8440 
G01 X-11.2217 Y24.8166 
G01 X-11.0918 Y24.7627 
G01 X-10.9748 Y24.6846 
G01 X-10.8754 Y24.5851 
G01 X-10.7973 Y24.4682 
G01 X-10.7662 Y24.3932 
G01 X-10.4327 Y24.3932 
G01 X-10.3804 Y24.5194 
G01 X-10.2905 Y24.6540 
G01 X-10.1760 Y24.7685 
G01 X-10.0414 Y24.8584 
G01 X-9.8918 Y24.9204 
G01 X-9.7330 Y24.9520 
G01 X-8.0470 Y24.9520 
G01 X-7.8882 Y24.9204 
G01 X-7.7386 Y24.8584 
G01 X-7.6040 Y24.7685 
G01 X-7.4895 Y24.6540 
G01 X-7.3996 Y24.5194 
G01 X-7.3376 Y24.3698 
G01 X-7.3060 Y24.2110 
G01 X-7.3060 Y24.0490 
G01 X-7.3376 Y23.8902 
G01 X-7.3996 Y23.7406 
G01 X-7.4895 Y23.6060 
G01 X-7.6040 Y23.4915 
G01 X-7.7386 Y23.4016 
G01 X-7.8882 Y23.3396 
G01 X-8.0470 Y23.3080 
G00 Z1.0000 
G00 X-13.5800 Y3.3649 
G01 Z-0.1000 F500.00 
G01 X-13.5800 Y2.8032 
G01 X-6.4116 Y2.8032 
G01 X-4.8233 Y3.5896 
G01 X-4.8450 Y3.7266 
G01 X-4.8450 Y3.8934 
G01 X-4.8189 Y4.0582 
G01 X-4.7673 Y4.2169 
G01 X-4.6916 Y4.3656 
G01 X-4.5935 Y4.5005 
G01 X-4.4755 Y4.6185 
G01 X-4.3406 Y4.7166 
G01 X-4.1919 Y4.7923 
G01 X-4.0332 Y4.8439 
G01 X-3.8684 Y4.8700 
G01 X-3.7016 Y4.8700 
G01 X-3.5368 Y4.8439 
G01 X-3.3781 Y4.7923 
G01 X-3.2294 Y4.7166 
G01 X-3.0945 Y4.6185 
G01 X-2.9765 Y4.5005 
G01 X-2.8784 Y4.3656 
G01 X-2.8027 Y4.2169 
G01 X-2.7511 Y4.0582 
G01 X-2.7250 Y3.8934 
G01 X-2.7250 Y3.7266 
G01 X-2.7511 Y3.5618 
G01 X-2.8027 Y3.4031 
G01 X-2.8784 Y3.2544 
G01 X-2.9765 Y3.1195 
G01 X-3.0945 Y3.0015 
G01 X-3.2294 Y2.9034 
G01 X-3.3781 Y2.8277 
G01 X-3.5368 Y2.7761 
G01 X-3.7016 Y2.7500 
G01 X-3.8684 Y2.7500 
G01 X-4.0332 Y2.7761 
G01 X-4.1919 Y2.8277 
G01 X-4.3406 Y2.9034 
G01 X-4.4755 Y3.0015 
G01 X-4.5912 Y3.1171 
G01 X-6.2257 Y2.3079 
G01 X-6.2484 Y2.2947 
G01 X-6.2566 Y2.2925 
G01 X-6.2643 Y2.2888 
G01 X-6.2900 Y2.2836 
G01 X-6.3153 Y2.2768 
G01 X-6.3239 Y2.2768 
G01 X-6.3322 Y2.2751 
G01 X-6.3584 Y2.2768 
G01 X-13.5800 Y2.2768 
G01 X-13.5800 Y1.7151 
G01 X-13.6151 Y1.6800 
G01 X-14.9649 Y1.6800 
G01 X-15.0000 Y1.7151 
G01 X-15.0000 Y3.3649 
G01 X-14.9649 Y3.4000 
G01 X-13.6151 Y3.4000 
G01 X-13.5800 Y3.3649 
G00 Z1.0000 
G00 X-53.7851 Y18.6600 
G01 Z-0.1000 F500.00 
G01 X-54.3468 Y18.6600 
G01 X-54.3468 Y17.7453 
G01 X-54.3647 Y17.6784 
G01 X-54.3994 Y17.6184 
G01 X-54.4484 Y17.5694 
G01 X-56.9884 Y15.0294 
G01 X-57.0484 Y14.9947 
G01 X-57.1153 Y14.9768 
G01 X-62.1210 Y14.9768 
G01 X-63.3384 Y13.7594 
G01 X-63.3984 Y13.7247 
G01 X-63.4653 Y13.7068 
G01 X-65.0360 Y13.7068 
G01 X-65.0827 Y13.5631 
G01 X-65.1584 Y13.4144 
G01 X-65.2565 Y13.2795 
G01 X-65.3745 Y13.1615 
G01 X-65.5094 Y13.0634 
G01 X-65.6581 Y12.9877 
G01 X-65.8168 Y12.9361 
G01 X-65.9816 Y12.9100 
G01 X-66.1484 Y12.9100 
G01 X-66.3132 Y12.9361 
G01 X-66.4719 Y12.9877 
G01 X-66.6206 Y13.0634 
G01 X-66.7555 Y13.1615 
G01 X-66.8735 Y13.2795 
G01 X-66.9716 Y13.4144 
G01 X-67.0473 Y13.5631 
G01 X-67.0989 Y13.7218 
G01 X-67.1250 Y13.8866 
G01 X-67.1250 Y14.0534 
G01 X-67.0989 Y14.2182 
G01 X-67.0473 Y14.3769 
G01 X-66.9716 Y14.5256 
G01 X-66.8735 Y14.6605 
G01 X-66.7555 Y14.7785 
G01 X-66.6206 Y14.8766 
G01 X-66.4719 Y14.9523 
G01 X-66.3132 Y15.0039 
G01 X-66.1484 Y15.0300 
G01 X-65.9816 Y15.0300 
G01 X-65.8168 Y15.0039 
G01 X-65.6581 Y14.9523 
G01 X-65.5094 Y14.8766 
G01 X-65.3745 Y14.7785 
G01 X-65.2565 Y14.6605 
G01 X-65.1584 Y14.5256 
G01 X-65.0827 Y14.3769 
G01 X-65.0360 Y14.2332 
G01 X-63.6090 Y14.2332 
G01 X-62.4406 Y15.4016 
G01 X-62.3916 Y15.4506 
G01 X-62.3316 Y15.4853 
G01 X-62.2647 Y15.5032 
G01 X-57.2590 Y15.5032 
G01 X-54.8732 Y17.8890 
G01 X-54.8732 Y18.6600 
G01 X-55.4349 Y18.6600 
G01 X-55.4700 Y18.6951 
G01 X-55.4700 Y20.0449 
G01 X-55.4349 Y20.0800 
G01 X-53.7851 Y20.0800 
G01 X-53.7500 Y20.0449 
G01 X-53.7500 Y18.6951 
G01 X-53.7851 Y18.6600 
G00 Z1.0000 
G00 X-58.8651 Y26.9100 
G01 Z-0.1000 F500.00 
G01 X-60.5149 Y26.9100 
G01 X-60.5500 Y26.9451 
G01 X-60.5500 Y28.2949 
G01 X-60.5149 Y28.3300 
G01 X-59.4597 Y28.3300 
G01 X-58.6380 Y29.3588 
G01 X-58.6306 Y29.3716 
G01 X-58.6165 Y29.3857 
G01 X-58.6040 Y29.4013 
G01 X-58.5921 Y29.4101 
G01 X-58.5816 Y29.4206 
G01 X-58.5643 Y29.4306 
G01 X-58.5482 Y29.4424 
G01 X-58.5344 Y29.4479 
G01 X-58.5216 Y29.4553 
G01 X-58.5023 Y29.4604 
G01 X-58.4837 Y29.4677 
G01 X-58.4690 Y29.4694 
G01 X-58.4547 Y29.4732 
G01 X-58.4347 Y29.4732 
G01 X-58.4148 Y29.4754 
G01 X-58.4002 Y29.4732 
G01 X-55.8800 Y29.4732 
G01 X-55.8620 Y29.5168 
G01 X-55.8080 Y29.5708 
G01 X-55.7374 Y29.6000 
G01 X-54.9050 Y29.6000 
G01 X-54.8344 Y29.5708 
G01 X-54.7804 Y29.5168 
G01 X-54.7512 Y29.4462 
G01 X-54.7512 Y28.9738 
G01 X-54.7804 Y28.9032 
G01 X-54.8344 Y28.8492 
G01 X-54.9050 Y28.8200 
G01 X-55.7374 Y28.8200 
G01 X-55.8080 Y28.8492 
G01 X-55.8620 Y28.9032 
G01 X-55.8800 Y28.9468 
G01 X-58.2934 Y28.9468 
G01 X-58.8300 Y28.2750 
G01 X-58.8300 Y26.9451 
G01 X-58.8651 Y26.9100 
G00 Z1.0000 
G00 X-59.4500 Y30.9251 
G01 Z-0.1000 F500.00 
G01 X-59.4500 Y32.5749 
G01 X-59.4149 Y32.6100 
G01 X-58.0651 Y32.6100 
G01 X-58.0300 Y32.5749 
G01 X-58.0300 Y32.0132 
G01 X-55.9001 Y32.0132 
G01 X-55.8858 Y32.0154 
G01 X-55.8656 Y32.0132 
G01 X-55.8453 Y32.0132 
G01 X-55.8313 Y32.0094 
G01 X-55.8169 Y32.0079 
G01 X-55.7980 Y32.0005 
G01 X-55.7784 Y31.9953 
G01 X-55.7658 Y31.9880 
G01 X-55.7523 Y31.9827 
G01 X-55.7360 Y31.9707 
G01 X-55.7184 Y31.9606 
G01 X-55.7081 Y31.9503 
G01 X-55.6964 Y31.9418 
G01 X-55.6837 Y31.9259 
G01 X-55.6694 Y31.9116 
G01 X-55.6621 Y31.8990 
G01 X-55.6530 Y31.8877 
G01 X-55.6449 Y31.8691 
G01 X-55.6347 Y31.8516 
G01 X-55.6310 Y31.8376 
G01 X-55.2052 Y30.8700 
G01 X-54.9050 Y30.8700 
G01 X-54.8344 Y30.8408 
G01 X-54.7804 Y30.7868 
G01 X-54.7512 Y30.7162 
G01 X-54.7512 Y30.2438 
G01 X-54.7804 Y30.1732 
G01 X-54.8344 Y30.1192 
G01 X-54.9050 Y30.0900 
G01 X-55.7374 Y30.0900 
G01 X-55.8080 Y30.1192 
G01 X-55.8620 Y30.1732 
G01 X-55.8912 Y30.2438 
G01 X-55.8912 Y30.7162 
G01 X-55.8620 Y30.7868 
G01 X-55.8080 Y30.8408 
G01 X-55.7737 Y30.8549 
G01 X-56.0517 Y31.4868 
G01 X-58.0300 Y31.4868 
G01 X-58.0300 Y30.9251 
G01 X-58.0651 Y30.8900 
G01 X-59.4149 Y30.8900 
G01 X-59.4500 Y30.9251 
G00 Z1.0000 
G00 X-17.3900 Y26.2248 
G01 Z-0.1000 F500.00 
G01 X-17.3900 Y25.0622 
G01 X-14.1810 Y21.8532 
G01 X-6.4590 Y21.8532 
G01 X-4.7072 Y23.6050 
G01 X-4.7673 Y23.7231 
G01 X-4.8189 Y23.8818 
G01 X-4.8450 Y24.0466 
G01 X-4.8450 Y24.2134 
G01 X-4.8189 Y24.3782 
G01 X-4.7673 Y24.5369 
G01 X-4.6916 Y24.6856 
G01 X-4.5935 Y24.8205 
G01 X-4.4755 Y24.9385 
G01 X-4.3406 Y25.0366 
G01 X-4.1919 Y25.1123 
G01 X-4.0332 Y25.1639 
G01 X-3.8684 Y25.1900 
G01 X-3.7016 Y25.1900 
G01 X-3.5368 Y25.1639 
G01 X-3.3781 Y25.1123 
G01 X-3.2294 Y25.0366 
G01 X-3.0945 Y24.9385 
G01 X-2.9765 Y24.8205 
G01 X-2.8784 Y24.6856 
G01 X-2.8027 Y24.5369 
G01 X-2.7511 Y24.3782 
G01 X-2.7250 Y24.2134 
G01 X-2.7250 Y24.0466 
G01 X-2.7511 Y23.8818 
G01 X-2.8027 Y23.7231 
G01 X-2.8784 Y23.5744 
G01 X-2.9765 Y23.4395 
G01 X-3.0945 Y23.3215 
G01 X-3.2294 Y23.2234 
G01 X-3.3781 Y23.1477 
G01 X-3.5368 Y23.0961 
G01 X-3.7016 Y23.0700 
G01 X-3.8684 Y23.0700 
G01 X-4.0332 Y23.0961 
G01 X-4.1919 Y23.1477 
G01 X-4.3406 Y23.2234 
G01 X-4.3428 Y23.2250 
G01 X-6.1884 Y21.3794 
G01 X-6.2484 Y21.3447 
G01 X-6.3153 Y21.3268 
G01 X-14.3247 Y21.3268 
G01 X-14.3916 Y21.3447 
G01 X-14.4516 Y21.3794 
G01 X-14.5006 Y21.4284 
G01 X-17.6122 Y24.5400 
G01 X-18.7749 Y24.5400 
G01 X-18.8100 Y24.5751 
G01 X-18.8100 Y26.2248 
G01 X-18.7749 Y26.2600 
G01 X-17.4251 Y26.2600 
G01 X-17.3900 Y26.2248 
G00 Z1.0000 
G00 X-21.2000 Y7.1749 
G01 Z-0.1000 F500.00 
G01 X-21.2000 Y6.6132 
G01 X-15.2661 Y6.6132 
G01 X-15.2576 Y6.6149 
G01 X-15.2315 Y6.6132 
G01 X-15.2053 Y6.6132 
G01 X-15.1971 Y6.6110 
G01 X-15.1885 Y6.6104 
G01 X-15.1637 Y6.6020 
G01 X-15.1384 Y6.5953 
G01 X-15.1310 Y6.5910 
G01 X-15.1228 Y6.5882 
G01 X-15.1011 Y6.5737 
G01 X-15.0784 Y6.5606 
G01 X-15.0723 Y6.5545 
G01 X-11.3503 Y4.0732 
G01 X-7.7511 Y4.0732 
G01 X-4.6144 Y8.2282 
G01 X-4.6916 Y8.3344 
G01 X-4.7673 Y8.4831 
G01 X-4.8189 Y8.6418 
G01 X-4.8450 Y8.8066 
G01 X-4.8450 Y8.9734 
G01 X-4.8189 Y9.1382 
G01 X-4.7673 Y9.2969 
G01 X-4.6916 Y9.4456 
G01 X-4.5935 Y9.5805 
G01 X-4.4755 Y9.6985 
G01 X-4.3406 Y9.7966 
G01 X-4.1919 Y9.8723 
G01 X-4.0332 Y9.9239 
G01 X-3.8684 Y9.9500 
G01 X-3.7016 Y9.9500 
G01 X-3.5368 Y9.9239 
G01 X-3.3781 Y9.8723 
G01 X-3.2294 Y9.7966 
G01 X-3.0945 Y9.6985 
G01 X-2.9765 Y9.5805 
G01 X-2.8784 Y9.4456 
G01 X-2.8027 Y9.2969 
G01 X-2.7511 Y9.1382 
G01 X-2.7250 Y8.9734 
G01 X-2.7250 Y8.8066 
G01 X-2.7511 Y8.6418 
G01 X-2.8027 Y8.4831 
G01 X-2.8784 Y8.3344 
G01 X-2.9765 Y8.1995 
G01 X-3.0945 Y8.0815 
G01 X-3.2294 Y7.9834 
G01 X-3.3781 Y7.9077 
G01 X-3.5368 Y7.8561 
G01 X-3.7016 Y7.8300 
G01 X-3.8684 Y7.8300 
G01 X-4.0332 Y7.8561 
G01 X-4.1919 Y7.9077 
G01 X-4.1954 Y7.9095 
G01 X-7.4002 Y3.6643 
G01 X-7.4094 Y3.6484 
G01 X-7.4209 Y3.6368 
G01 X-7.4308 Y3.6238 
G01 X-7.4454 Y3.6124 
G01 X-7.4584 Y3.5994 
G01 X-7.4726 Y3.5912 
G01 X-7.4855 Y3.5811 
G01 X-7.5024 Y3.5740 
G01 X-7.5184 Y3.5647 
G01 X-7.5342 Y3.5605 
G01 X-7.5493 Y3.5541 
G01 X-7.5675 Y3.5516 
G01 X-7.5853 Y3.5468 
G01 X-7.6017 Y3.5468 
G01 X-7.6179 Y3.5445 
G01 X-7.6362 Y3.5468 
G01 X-11.4039 Y3.5468 
G01 X-11.4124 Y3.5451 
G01 X-11.4385 Y3.5468 
G01 X-11.4647 Y3.5468 
G01 X-11.4729 Y3.5490 
G01 X-11.4815 Y3.5496 
G01 X-11.5063 Y3.5580 
G01 X-11.5316 Y3.5647 
G01 X-11.5390 Y3.5690 
G01 X-11.5472 Y3.5718 
G01 X-11.5689 Y3.5863 
G01 X-11.5916 Y3.5994 
G01 X-11.5977 Y3.6055 
G01 X-15.3197 Y6.0868 
G01 X-21.2000 Y6.0868 
G01 X-21.2000 Y5.5251 
G01 X-21.2351 Y5.4900 
G01 X-22.5848 Y5.4900 
G01 X-22.6200 Y5.5251 
G01 X-22.6200 Y7.1749 
G01 X-22.5848 Y7.2100 
G01 X-21.2351 Y7.2100 
G01 X-21.2000 Y7.1749 
G00 Z1.0000 
G00 X-23.1000 Y7.1749 
G01 Z-0.1000 F500.00 
G01 X-23.1000 Y5.5251 
G01 X-23.1351 Y5.4900 
G01 X-24.4849 Y5.4900 
G01 X-24.5200 Y5.5251 
G01 X-24.5200 Y6.0868 
G01 X-27.8310 Y6.0868 
G01 X-30.2694 Y3.6484 
G01 X-30.2694 Y3.6484 
G01 X-30.3184 Y3.5994 
G01 X-30.3784 Y3.5647 
G01 X-30.4453 Y3.5468 
G01 X-33.0200 Y3.5468 
G01 X-33.0380 Y3.5032 
G01 X-33.0920 Y3.4492 
G01 X-33.1626 Y3.4200 
G01 X-33.9950 Y3.4200 
G01 X-34.0656 Y3.4492 
G01 X-34.1196 Y3.5032 
G01 X-34.1488 Y3.5738 
G01 X-34.1488 Y4.0462 
G01 X-34.1196 Y4.1168 
G01 X-34.0656 Y4.1708 
G01 X-33.9950 Y4.2000 
G01 X-33.1626 Y4.2000 
G01 X-33.0920 Y4.1708 
G01 X-33.0380 Y4.1168 
G01 X-33.0200 Y4.0732 
G01 X-30.5890 Y4.0732 
G01 X-28.1016 Y6.5606 
G01 X-28.0416 Y6.5953 
G01 X-27.9747 Y6.6132 
G01 X-24.5200 Y6.6132 
G01 X-24.5200 Y7.1749 
G01 X-24.4849 Y7.2100 
G01 X-23.1351 Y7.2100 
G01 X-23.1000 Y7.1749 
G00 Z1.0000 
G00 X-17.3900 Y16.0648 
G01 Z-0.1000 F500.00 
G01 X-17.3900 Y16.0022 
G01 X-16.6716 Y16.7206 
G01 X-16.6116 Y16.7553 
G01 X-16.5447 Y16.7732 
G01 X-6.2903 Y16.7732 
G01 X-6.2234 Y16.7553 
G01 X-6.1634 Y16.7206 
G01 X-6.1144 Y16.6716 
G01 X-4.3265 Y14.8837 
G01 X-4.1919 Y14.9523 
G01 X-4.0332 Y15.0039 
G01 X-3.8684 Y15.0300 
G01 X-3.7016 Y15.0300 
G01 X-3.5368 Y15.0039 
G01 X-3.3781 Y14.9523 
G01 X-3.2294 Y14.8766 
G01 X-3.0945 Y14.7785 
G01 X-2.9765 Y14.6605 
G01 X-2.8784 Y14.5256 
G01 X-2.8027 Y14.3769 
G01 X-2.7511 Y14.2182 
G01 X-2.7250 Y14.0534 
G01 X-2.7250 Y13.8866 
G01 X-2.7511 Y13.7218 
G01 X-2.8027 Y13.5631 
G01 X-2.8784 Y13.4144 
G01 X-2.9765 Y13.2795 
G01 X-3.0945 Y13.1615 
G01 X-3.2294 Y13.0634 
G01 X-3.3781 Y12.9877 
G01 X-3.5368 Y12.9361 
G01 X-3.7016 Y12.9100 
G01 X-3.8684 Y12.9100 
G01 X-4.0332 Y12.9361 
G01 X-4.1919 Y12.9877 
G01 X-4.3406 Y13.0634 
G01 X-4.4755 Y13.1615 
G01 X-4.5935 Y13.2795 
G01 X-4.6916 Y13.4144 
G01 X-4.7673 Y13.5631 
G01 X-4.8189 Y13.7218 
G01 X-4.8450 Y13.8866 
G01 X-4.8450 Y14.0534 
G01 X-4.8189 Y14.2182 
G01 X-4.7673 Y14.3769 
G01 X-4.6987 Y14.5115 
G01 X-6.4340 Y16.2468 
G01 X-16.4010 Y16.2468 
G01 X-17.3900 Y15.2578 
G01 X-17.3900 Y14.4151 
G01 X-17.4251 Y14.3800 
G01 X-18.7749 Y14.3800 
G01 X-18.8100 Y14.4151 
G01 X-18.8100 Y16.0648 
G01 X-18.7749 Y16.1000 
G01 X-17.4251 Y16.1000 
G01 X-17.3900 Y16.0648 
G00 Z1.0000 
G00 X-47.8750 Y23.4349 
G01 Z-0.1000 F500.00 
G01 X-47.8750 Y21.6851 
G01 X-47.9101 Y21.6500 
G01 X-48.6099 Y21.6500 
G01 X-48.6450 Y21.6851 
G01 X-48.6450 Y23.4349 
G01 X-48.6099 Y23.4700 
G01 X-47.9101 Y23.4700 
G01 X-47.8750 Y23.4349 
G00 Z1.0000 
G00 X-46.6050 Y23.4349 
G01 Z-0.1000 F500.00 
G01 X-46.6050 Y21.6851 
G01 X-46.6401 Y21.6500 
G01 X-47.3399 Y21.6500 
G01 X-47.3750 Y21.6851 
G01 X-47.3750 Y23.4349 
G01 X-47.3399 Y23.4700 
G01 X-46.6401 Y23.4700 
G01 X-46.6050 Y23.4349 
G00 Z1.0000 
G00 X-45.3350 Y23.4349 
G01 Z-0.1000 F500.00 
G01 X-45.3350 Y21.6851 
G01 X-45.3701 Y21.6500 
G01 X-46.0699 Y21.6500 
G01 X-46.1050 Y21.6851 
G01 X-46.1050 Y23.4349 
G01 X-46.0699 Y23.4700 
G01 X-45.3701 Y23.4700 
G01 X-45.3350 Y23.4349 
G00 Z1.0000 
G00 X-44.0650 Y23.4349 
G01 Z-0.1000 F500.00 
G01 X-44.0650 Y21.6851 
G01 X-44.1001 Y21.6500 
G01 X-44.7998 Y21.6500 
G01 X-44.8350 Y21.6851 
G01 X-44.8350 Y23.4349 
G01 X-44.7998 Y23.4700 
G01 X-44.1001 Y23.4700 
G01 X-44.0650 Y23.4349 
G00 Z1.0000 
G00 X-42.7950 Y23.4349 
G01 Z-0.1000 F500.00 
G01 X-42.7950 Y21.6851 
G01 X-42.8301 Y21.6500 
G01 X-43.5299 Y21.6500 
G01 X-43.5650 Y21.6851 
G01 X-43.5650 Y23.4349 
G01 X-43.5299 Y23.4700 
G01 X-42.8301 Y23.4700 
G01 X-42.7950 Y23.4349 
G00 Z1.0000 
G00 X-41.5250 Y23.4349 
G01 Z-0.1000 F500.00 
G01 X-41.5250 Y21.6851 
G01 X-41.5601 Y21.6500 
G01 X-42.2599 Y21.6500 
G01 X-42.2950 Y21.6851 
G01 X-42.2950 Y23.4349 
G01 X-42.2599 Y23.4700 
G01 X-41.5601 Y23.4700 
G01 X-41.5250 Y23.4349 
G00 Z1.0000 
G00 X-40.2550 Y23.4349 
G01 Z-0.1000 F500.00 
G01 X-40.2550 Y21.6851 
G01 X-40.2901 Y21.6500 
G01 X-40.9899 Y21.6500 
G01 X-41.0250 Y21.6851 
G01 X-41.0250 Y23.4349 
G01 X-40.9899 Y23.4700 
G01 X-40.2901 Y23.4700 
G01 X-40.2550 Y23.4349 
G00 Z1.0000 
G00 X-38.9850 Y23.4349 
G01 Z-0.1000 F500.00 
G01 X-38.9850 Y21.6851 
G01 X-39.0201 Y21.6500 
G01 X-39.7199 Y21.6500 
G01 X-39.7550 Y21.6851 
G01 X-39.7550 Y23.4349 
G01 X-39.7199 Y23.4700 
G01 X-39.6332 Y23.4700 
G01 X-39.6332 Y25.4347 
G01 X-39.6153 Y25.5016 
G01 X-39.5806 Y25.5616 
G01 X-39.5316 Y25.6106 
G01 X-39.4716 Y25.6453 
G01 X-39.4047 Y25.6632 
G01 X-39.3700 Y25.6632 
G01 X-39.3520 Y25.7068 
G01 X-39.2980 Y25.7608 
G01 X-39.2274 Y25.7900 
G01 X-38.3950 Y25.7900 
G01 X-38.3244 Y25.7608 
G01 X-38.2704 Y25.7068 
G01 X-38.2412 Y25.6362 
G01 X-38.2412 Y25.1638 
G01 X-38.2704 Y25.0932 
G01 X-38.3244 Y25.0392 
G01 X-38.3950 Y25.0100 
G01 X-39.1068 Y25.0100 
G01 X-39.1068 Y23.4700 
G01 X-39.0201 Y23.4700 
G01 X-38.9850 Y23.4349 
G00 Z1.0000 
G00 X-35.1750 Y13.8749 
G01 Z-0.1000 F500.00 
G01 X-35.1750 Y12.1251 
G01 X-35.2101 Y12.0900 
G01 X-35.9098 Y12.0900 
G01 X-35.9450 Y12.1251 
G01 X-35.9450 Y13.8749 
G01 X-35.9098 Y13.9100 
G01 X-35.2101 Y13.9100 
G01 X-35.1750 Y13.8749 
G00 Z1.0000 
G00 X-31.3650 Y13.8749 
G01 Z-0.1000 F500.00 
G01 X-31.3650 Y12.1251 
G01 X-31.4001 Y12.0900 
G01 X-32.0999 Y12.0900 
G01 X-32.1350 Y12.1251 
G01 X-32.1350 Y13.8749 
G01 X-32.0999 Y13.9100 
G01 X-31.4001 Y13.9100 
G01 X-31.3650 Y13.8749 
G00 Z1.0000 
G00 X-36.4450 Y23.4349 
G01 Z-0.1000 F500.00 
G01 X-36.4450 Y21.6851 
G01 X-36.4801 Y21.6500 
G01 X-37.1799 Y21.6500 
G01 X-37.2150 Y21.6851 
G01 X-37.2150 Y23.4349 
G01 X-37.1799 Y23.4700 
G01 X-36.4801 Y23.4700 
G01 X-36.4450 Y23.4349 
G00 Z1.0000 
G00 X-37.7150 Y23.4349 
G01 Z-0.1000 F500.00 
G01 X-37.7150 Y21.6851 
G01 X-37.7501 Y21.6500 
G01 X-37.8368 Y21.6500 
G01 X-37.8368 Y20.4290 
G01 X-36.7210 Y19.3132 
G01 X-30.4453 Y19.3132 
G01 X-30.3784 Y19.2953 
G01 X-30.3184 Y19.2606 
G01 X-26.5084 Y15.4506 
G01 X-26.4594 Y15.4016 
G01 X-26.4247 Y15.3416 
G01 X-26.4068 Y15.2747 
G01 X-26.4068 Y14.6338 
G01 X-26.3318 Y14.6027 
G01 X-26.2149 Y14.5246 
G01 X-26.1154 Y14.4251 
G01 X-26.0373 Y14.3082 
G01 X-25.9834 Y14.1783 
G01 X-25.9560 Y14.0403 
G01 X-25.9560 Y13.8997 
G01 X-25.9834 Y13.7617 
G01 X-26.0373 Y13.6318 
G01 X-26.1154 Y13.5149 
G01 X-26.2149 Y13.4154 
G01 X-26.3318 Y13.3373 
G01 X-26.4617 Y13.2834 
G01 X-26.5997 Y13.2560 
G01 X-26.7403 Y13.2560 
G01 X-26.8783 Y13.2834 
G01 X-27.0082 Y13.3373 
G01 X-27.1251 Y13.4154 
G01 X-27.2246 Y13.5149 
G01 X-27.3027 Y13.6318 
G01 X-27.3566 Y13.7617 
G01 X-27.3840 Y13.8997 
G01 X-27.3840 Y14.0403 
G01 X-27.3566 Y14.1783 
G01 X-27.3027 Y14.3082 
G01 X-27.2246 Y14.4251 
G01 X-27.1251 Y14.5246 
G01 X-27.0082 Y14.6027 
G01 X-26.9332 Y14.6338 
G01 X-26.9332 Y15.1310 
G01 X-30.5890 Y18.7868 
G01 X-36.8647 Y18.7868 
G01 X-36.9316 Y18.8047 
G01 X-36.9916 Y18.8394 
G01 X-38.2616 Y20.1094 
G01 X-38.3106 Y20.1584 
G01 X-38.3453 Y20.2184 
G01 X-38.3632 Y20.2853 
G01 X-38.3632 Y21.6500 
G01 X-38.4499 Y21.6500 
G01 X-38.4850 Y21.6851 
G01 X-38.4850 Y23.4349 
G01 X-38.4499 Y23.4700 
G01 X-37.7501 Y23.4700 
G01 X-37.7150 Y23.4349 
G00 Z1.0000 
G00 X-38.9850 Y13.8749 
G01 Z-0.1000 F500.00 
G01 X-38.9850 Y12.1251 
G01 X-39.0201 Y12.0900 
G01 X-39.7199 Y12.0900 
G01 X-39.7550 Y12.1251 
G01 X-39.7550 Y13.8749 
G01 X-39.7199 Y13.9100 
G01 X-39.0201 Y13.9100 
G01 X-38.9850 Y13.8749 
G00 Z1.0000 
G00 X-40.2550 Y13.8749 
G01 Z-0.1000 F500.00 
G01 X-40.2550 Y12.1251 
G01 X-40.2901 Y12.0900 
G01 X-40.9899 Y12.0900 
G01 X-41.0250 Y12.1251 
G01 X-41.0250 Y13.8749 
G01 X-40.9899 Y13.9100 
G01 X-40.2901 Y13.9100 
G01 X-40.2550 Y13.8749 
G00 Z1.0000 
G00 X-41.5250 Y13.8749 
G01 Z-0.1000 F500.00 
G01 X-41.5250 Y12.1251 
G01 X-41.5601 Y12.0900 
G01 X-42.2599 Y12.0900 
G01 X-42.2950 Y12.1251 
G01 X-42.2950 Y13.8749 
G01 X-42.2599 Y13.9100 
G01 X-41.5601 Y13.9100 
G01 X-41.5250 Y13.8749 
G00 Z1.0000 
G00 X-42.7950 Y13.8749 
G01 Z-0.1000 F500.00 
G01 X-42.7950 Y12.1251 
G01 X-42.8301 Y12.0900 
G01 X-43.5299 Y12.0900 
G01 X-43.5650 Y12.1251 
G01 X-43.5650 Y13.8749 
G01 X-43.5299 Y13.9100 
G01 X-42.8301 Y13.9100 
G01 X-42.7950 Y13.8749 
G00 Z1.0000 
G00 X-44.0650 Y13.8749 
G01 Z-0.1000 F500.00 
G01 X-44.0650 Y12.1251 
G01 X-44.1001 Y12.0900 
G01 X-44.7998 Y12.0900 
G01 X-44.8350 Y12.1251 
G01 X-44.8350 Y13.8749 
G01 X-44.7998 Y13.9100 
G01 X-44.1001 Y13.9100 
G01 X-44.0650 Y13.8749 
G00 Z1.0000 
G00 X-45.3350 Y13.8749 
G01 Z-0.1000 F500.00 
G01 X-45.3350 Y12.1251 
G01 X-45.3701 Y12.0900 
G01 X-46.0699 Y12.0900 
G01 X-46.1050 Y12.1251 
G01 X-46.1050 Y13.8749 
G01 X-46.0699 Y13.9100 
G01 X-45.3701 Y13.9100 
G01 X-45.3350 Y13.8749 
G00 Z1.0000 
G00 X-50.5894 Y28.1016 
G01 Z-0.1000 F500.00 
G01 X-50.5547 Y28.0416 
G01 X-50.5368 Y27.9747 
G01 X-50.5368 Y17.8890 
G01 X-49.4210 Y16.7732 
G01 X-39.3353 Y16.7732 
G01 X-39.2684 Y16.7553 
G01 X-39.2084 Y16.7206 
G01 X-39.1594 Y16.6716 
G01 X-37.8894 Y15.4016 
G01 X-37.8547 Y15.3416 
G01 X-37.8368 Y15.2747 
G01 X-37.8368 Y13.9100 
G01 X-37.7501 Y13.9100 
G01 X-37.7150 Y13.8749 
G01 X-37.7150 Y12.1251 
G01 X-37.7501 Y12.0900 
G01 X-37.8368 Y12.0900 
G01 X-37.8368 Y11.3953 
G01 X-37.8547 Y11.3284 
G01 X-37.8894 Y11.2684 
G01 X-39.1594 Y9.9984 
G01 X-39.1594 Y9.9984 
G01 X-39.2084 Y9.9494 
G01 X-39.2684 Y9.9147 
G01 X-39.3353 Y9.8968 
G01 X-41.6468 Y9.8968 
G01 X-41.6468 Y5.0453 
G01 X-41.6647 Y4.9784 
G01 X-41.6994 Y4.9184 
G01 X-41.7484 Y4.8694 
G01 X-41.8084 Y4.8347 
G01 X-41.8753 Y4.8168 
G01 X-41.9447 Y4.8168 
G01 X-42.0116 Y4.8347 
G01 X-42.0716 Y4.8694 
G01 X-42.1206 Y4.9184 
G01 X-42.1553 Y4.9784 
G01 X-42.1732 Y5.0453 
G01 X-42.1732 Y9.8968 
G01 X-43.1730 Y9.8968 
G01 X-43.2006 Y9.8953 
G01 X-43.2075 Y9.8968 
G01 X-43.2146 Y9.8968 
G01 X-43.2413 Y9.9039 
G01 X-43.2684 Y9.9097 
G01 X-43.2747 Y9.9129 
G01 X-43.2816 Y9.9147 
G01 X-43.3055 Y9.9285 
G01 X-43.3301 Y9.9411 
G01 X-43.3354 Y9.9458 
G01 X-43.3416 Y9.9494 
G01 X-43.3611 Y9.9689 
G01 X-43.4692 Y10.0660 
G01 X-44.5489 Y10.0660 
G01 X-44.5840 Y10.1011 
G01 X-44.5840 Y11.4588 
G01 X-44.5489 Y11.4940 
G01 X-43.1911 Y11.4940 
G01 X-43.1560 Y11.4588 
G01 X-43.1560 Y10.4923 
G01 X-43.0791 Y10.4232 
G01 X-39.4790 Y10.4232 
G01 X-38.3632 Y11.5390 
G01 X-38.3632 Y12.0900 
G01 X-38.4499 Y12.0900 
G01 X-38.4850 Y12.1251 
G01 X-38.4850 Y13.8749 
G01 X-38.4499 Y13.9100 
G01 X-38.3632 Y13.9100 
G01 X-38.3632 Y15.1310 
G01 X-39.4790 Y16.2468 
G01 X-49.5647 Y16.2468 
G01 X-49.6316 Y16.2647 
G01 X-49.6916 Y16.2994 
G01 X-50.9616 Y17.5694 
G01 X-51.0106 Y17.6184 
G01 X-51.0453 Y17.6784 
G01 X-51.0632 Y17.7453 
G01 X-51.0632 Y27.8310 
G01 X-52.2316 Y28.9994 
G01 X-52.2806 Y29.0484 
G01 X-52.3153 Y29.1084 
G01 X-52.3332 Y29.1753 
G01 X-52.3332 Y31.7847 
G01 X-52.3153 Y31.8516 
G01 X-52.2806 Y31.9116 
G01 X-52.2316 Y31.9606 
G01 X-52.1716 Y31.9953 
G01 X-52.1046 Y32.0132 
G01 X-52.0353 Y32.0132 
G01 X-51.9684 Y31.9953 
G01 X-51.9084 Y31.9606 
G01 X-51.8594 Y31.9116 
G01 X-51.8247 Y31.8516 
G01 X-51.8068 Y31.7847 
G01 X-51.8068 Y29.3190 
G01 X-50.5894 Y28.1016 
(File Footer)
G00 Z1.0000 
G00 Z3.0000 
M05
M02
