( This gcode generated by /Applications/EAGLE-7.2.0/ulp/pcb-gcode.ulp )
( Copyright 2005 by John Johnson. See readme.txt for licensing terms. )

( This file generated from the board /Users/arminlanghofer/Documents/eagle/arduinosnullzaehler/arduinosnull.brd )
( This file generated 20.01.15 22:32 )

G21

G90
G00 Z3.0000 
G00 X0 Y0
M03
G04 P0.000000
G00 Z1.0000 
G00 X8.0470 Y23.3080 
G01 Z-0.1000 F500.00 
G01 X9.7330 Y23.3080 
G01 X9.8918 Y23.3396 
G01 X10.0414 Y23.4016 
G01 X10.1760 Y23.4915 
G01 X10.2905 Y23.6060 
G01 X10.3804 Y23.7406 
G01 X10.4424 Y23.8902 
G01 X10.4740 Y24.0490 
G01 X10.4740 Y24.2110 
G01 X10.4424 Y24.3698 
G01 X10.3804 Y24.5194 
G01 X10.2905 Y24.6540 
G01 X10.1760 Y24.7685 
G01 X10.0414 Y24.8584 
G01 X9.8918 Y24.9204 
G01 X9.7330 Y24.9520 
G01 X8.0470 Y24.9520 
G01 X7.8882 Y24.9204 
G01 X7.7386 Y24.8584 
G01 X7.6040 Y24.7685 
G01 X7.4895 Y24.6540 
G01 X7.3996 Y24.5194 
G01 X7.3376 Y24.3698 
G01 X7.3060 Y24.2110 
G01 X7.3060 Y24.0490 
G01 X7.3376 Y23.8902 
G01 X7.3996 Y23.7406 
G01 X7.4895 Y23.6060 
G01 X7.6040 Y23.4915 
G01 X7.7386 Y23.4016 
G01 X7.8882 Y23.3396 
G01 X8.0470 Y23.3080 
G00 Z1.0000 
G00 X8.0470 Y25.8480 
G01 Z-0.1000 F500.00 
G01 X9.7330 Y25.8480 
G01 X9.8918 Y25.8796 
G01 X10.0414 Y25.9416 
G01 X10.1760 Y26.0315 
G01 X10.2905 Y26.1460 
G01 X10.3804 Y26.2806 
G01 X10.4424 Y26.4302 
G01 X10.4740 Y26.5890 
G01 X10.4740 Y26.7510 
G01 X10.4424 Y26.9098 
G01 X10.3804 Y27.0594 
G01 X10.2905 Y27.1940 
G01 X10.1760 Y27.3085 
G01 X10.0414 Y27.3984 
G01 X9.8918 Y27.4604 
G01 X9.7330 Y27.4920 
G01 X8.0470 Y27.4920 
G01 X7.8882 Y27.4604 
G01 X7.7386 Y27.3984 
G01 X7.6040 Y27.3085 
G01 X7.4895 Y27.1940 
G01 X7.3996 Y27.0594 
G01 X7.3376 Y26.9098 
G01 X7.3060 Y26.7510 
G01 X7.3060 Y26.5890 
G01 X7.3376 Y26.4302 
G01 X7.3996 Y26.2806 
G01 X7.4895 Y26.1460 
G01 X7.6040 Y26.0315 
G01 X7.7386 Y25.9416 
G01 X7.8882 Y25.8796 
G01 X8.0470 Y25.8480 
G00 Z1.0000 
G00 X8.0470 Y28.3880 
G01 Z-0.1000 F500.00 
G01 X9.7330 Y28.3880 
G01 X9.8918 Y28.4196 
G01 X10.0414 Y28.4816 
G01 X10.1760 Y28.5715 
G01 X10.2905 Y28.6860 
G01 X10.3804 Y28.8206 
G01 X10.4424 Y28.9702 
G01 X10.4740 Y29.1290 
G01 X10.4740 Y29.2910 
G01 X10.4424 Y29.4498 
G01 X10.3804 Y29.5994 
G01 X10.2905 Y29.7340 
G01 X10.1760 Y29.8485 
G01 X10.0414 Y29.9384 
G01 X9.8918 Y30.0004 
G01 X9.7330 Y30.0320 
G01 X8.0470 Y30.0320 
G01 X7.8882 Y30.0004 
G01 X7.7386 Y29.9384 
G01 X7.6040 Y29.8485 
G01 X7.4895 Y29.7340 
G01 X7.3996 Y29.5994 
G01 X7.3376 Y29.4498 
G01 X7.3060 Y29.2910 
G01 X7.3060 Y29.1290 
G01 X7.3376 Y28.9702 
G01 X7.3996 Y28.8206 
G01 X7.4895 Y28.6860 
G01 X7.6040 Y28.5715 
G01 X7.7386 Y28.4816 
G01 X7.8882 Y28.4196 
G01 X8.0470 Y28.3880 
G00 Z1.0000 
G00 X8.0470 Y5.5280 
G01 Z-0.1000 F500.00 
G01 X9.7330 Y5.5280 
G01 X9.8918 Y5.5596 
G01 X10.0414 Y5.6216 
G01 X10.1760 Y5.7115 
G01 X10.2905 Y5.8260 
G01 X10.3804 Y5.9606 
G01 X10.4424 Y6.1102 
G01 X10.4740 Y6.2690 
G01 X10.4740 Y6.4310 
G01 X10.4424 Y6.5898 
G01 X10.3804 Y6.7394 
G01 X10.2905 Y6.8740 
G01 X10.1760 Y6.9885 
G01 X10.0414 Y7.0784 
G01 X9.8918 Y7.1404 
G01 X9.7330 Y7.1720 
G01 X8.0470 Y7.1720 
G01 X7.8882 Y7.1404 
G01 X7.7386 Y7.0784 
G01 X7.6040 Y6.9885 
G01 X7.4895 Y6.8740 
G01 X7.3996 Y6.7394 
G01 X7.3376 Y6.5898 
G01 X7.3060 Y6.4310 
G01 X7.3060 Y6.2690 
G01 X7.3376 Y6.1102 
G01 X7.3996 Y5.9606 
G01 X7.4895 Y5.8260 
G01 X7.6040 Y5.7115 
G01 X7.7386 Y5.6216 
G01 X7.8882 Y5.5596 
G01 X8.0470 Y5.5280 
G00 Z1.0000 
G00 X8.0470 Y8.0680 
G01 Z-0.1000 F500.00 
G01 X9.7330 Y8.0680 
G01 X9.8918 Y8.0996 
G01 X10.0414 Y8.1616 
G01 X10.1760 Y8.2515 
G01 X10.2905 Y8.3660 
G01 X10.3804 Y8.5006 
G01 X10.4424 Y8.6502 
G01 X10.4740 Y8.8090 
G01 X10.4740 Y8.9710 
G01 X10.4424 Y9.1298 
G01 X10.3804 Y9.2794 
G01 X10.2905 Y9.4140 
G01 X10.1760 Y9.5285 
G01 X10.0414 Y9.6184 
G01 X9.8918 Y9.6804 
G01 X9.7330 Y9.7120 
G01 X8.0470 Y9.7120 
G01 X7.8882 Y9.6804 
G01 X7.7386 Y9.6184 
G01 X7.6040 Y9.5285 
G01 X7.4895 Y9.4140 
G01 X7.3996 Y9.2794 
G01 X7.3376 Y9.1298 
G01 X7.3060 Y8.9710 
G01 X7.3060 Y8.8090 
G01 X7.3376 Y8.6502 
G01 X7.3996 Y8.5006 
G01 X7.4895 Y8.3660 
G01 X7.6040 Y8.2515 
G01 X7.7386 Y8.1616 
G01 X7.8882 Y8.0996 
G01 X8.0470 Y8.0680 
G00 Z1.0000 
G00 X8.0470 Y10.6080 
G01 Z-0.1000 F500.00 
G01 X9.7330 Y10.6080 
G01 X9.8918 Y10.6396 
G01 X10.0414 Y10.7016 
G01 X10.1760 Y10.7915 
G01 X10.2905 Y10.9060 
G01 X10.3804 Y11.0406 
G01 X10.4424 Y11.1902 
G01 X10.4740 Y11.3490 
G01 X10.4740 Y11.5110 
G01 X10.4424 Y11.6698 
G01 X10.3804 Y11.8194 
G01 X10.2905 Y11.9540 
G01 X10.1760 Y12.0685 
G01 X10.0414 Y12.1584 
G01 X9.8918 Y12.2204 
G01 X9.7330 Y12.2520 
G01 X8.0470 Y12.2520 
G01 X7.8882 Y12.2204 
G01 X7.7386 Y12.1584 
G01 X7.6040 Y12.0685 
G01 X7.4895 Y11.9540 
G01 X7.3996 Y11.8194 
G01 X7.3376 Y11.6698 
G01 X7.3060 Y11.5110 
G01 X7.3060 Y11.3490 
G01 X7.3376 Y11.1902 
G01 X7.3996 Y11.0406 
G01 X7.4895 Y10.9060 
G01 X7.6040 Y10.7915 
G01 X7.7386 Y10.7016 
G01 X7.8882 Y10.6396 
G01 X8.0470 Y10.6080 
G00 Z1.0000 
G00 X12.1440 Y6.2797 
G01 Z-0.1000 F500.00 
G01 X12.1440 Y6.4203 
G01 X12.1166 Y6.5583 
G01 X12.0627 Y6.6882 
G01 X11.9846 Y6.8051 
G01 X11.8851 Y6.9046 
G01 X11.7682 Y6.9827 
G01 X11.6383 Y7.0366 
G01 X11.5003 Y7.0640 
G01 X11.3597 Y7.0640 
G01 X11.2217 Y7.0366 
G01 X11.0918 Y6.9827 
G01 X10.9748 Y6.9046 
G01 X10.8754 Y6.8051 
G01 X10.7973 Y6.6882 
G01 X10.7434 Y6.5583 
G01 X10.7160 Y6.4203 
G01 X10.7160 Y6.2797 
G01 X10.7434 Y6.1417 
G01 X10.7973 Y6.0118 
G01 X10.8754 Y5.8948 
G01 X10.9748 Y5.7954 
G01 X11.0918 Y5.7173 
G01 X11.2217 Y5.6634 
G01 X11.3597 Y5.6360 
G01 X11.5003 Y5.6360 
G01 X11.6383 Y5.6634 
G01 X11.7682 Y5.7173 
G01 X11.8851 Y5.7954 
G01 X11.9846 Y5.8948 
G01 X12.0627 Y6.0118 
G01 X12.1166 Y6.1417 
G01 X12.1440 Y6.2797 
G00 Z1.0000 
G00 X12.1440 Y8.8197 
G01 Z-0.1000 F500.00 
G01 X12.1440 Y8.9603 
G01 X12.1166 Y9.0983 
G01 X12.0627 Y9.2282 
G01 X11.9846 Y9.3451 
G01 X11.8851 Y9.4446 
G01 X11.7682 Y9.5227 
G01 X11.6383 Y9.5766 
G01 X11.5003 Y9.6040 
G01 X11.3597 Y9.6040 
G01 X11.2217 Y9.5766 
G01 X11.0918 Y9.5227 
G01 X10.9748 Y9.4446 
G01 X10.8754 Y9.3451 
G01 X10.7973 Y9.2282 
G01 X10.7434 Y9.0983 
G01 X10.7160 Y8.9603 
G01 X10.7160 Y8.8197 
G01 X10.7434 Y8.6817 
G01 X10.7973 Y8.5518 
G01 X10.8754 Y8.4349 
G01 X10.9748 Y8.3354 
G01 X11.0918 Y8.2573 
G01 X11.2217 Y8.2034 
G01 X11.3597 Y8.1760 
G01 X11.5003 Y8.1760 
G01 X11.6383 Y8.2034 
G01 X11.7682 Y8.2573 
G01 X11.8851 Y8.3354 
G01 X11.9846 Y8.4349 
G01 X12.0627 Y8.5518 
G01 X12.1166 Y8.6817 
G01 X12.1440 Y8.8197 
G00 Z1.0000 
G00 X12.1440 Y11.3597 
G01 Z-0.1000 F500.00 
G01 X12.1440 Y11.5003 
G01 X12.1166 Y11.6383 
G01 X12.0627 Y11.7682 
G01 X11.9846 Y11.8851 
G01 X11.8851 Y11.9846 
G01 X11.7682 Y12.0627 
G01 X11.6383 Y12.1166 
G01 X11.5003 Y12.1440 
G01 X11.3597 Y12.1440 
G01 X11.2217 Y12.1166 
G01 X11.0918 Y12.0627 
G01 X10.9748 Y11.9846 
G01 X10.8754 Y11.8851 
G01 X10.7973 Y11.7682 
G01 X10.7434 Y11.6383 
G01 X10.7160 Y11.5003 
G01 X10.7160 Y11.3597 
G01 X10.7434 Y11.2217 
G01 X10.7973 Y11.0918 
G01 X10.8754 Y10.9748 
G01 X10.9748 Y10.8754 
G01 X11.0918 Y10.7973 
G01 X11.2217 Y10.7434 
G01 X11.3597 Y10.7160 
G01 X11.5003 Y10.7160 
G01 X11.6383 Y10.7434 
G01 X11.7682 Y10.7973 
G01 X11.8851 Y10.8754 
G01 X11.9846 Y10.9748 
G01 X12.0627 Y11.0918 
G01 X12.1166 Y11.2217 
G01 X12.1440 Y11.3597 
G00 Z1.0000 
G00 X12.1440 Y24.0597 
G01 Z-0.1000 F500.00 
G01 X12.1440 Y24.2003 
G01 X12.1166 Y24.3383 
G01 X12.0627 Y24.4682 
G01 X11.9846 Y24.5851 
G01 X11.8851 Y24.6846 
G01 X11.7682 Y24.7627 
G01 X11.6383 Y24.8166 
G01 X11.5003 Y24.8440 
G01 X11.3597 Y24.8440 
G01 X11.2217 Y24.8166 
G01 X11.0918 Y24.7627 
G01 X10.9748 Y24.6846 
G01 X10.8754 Y24.5851 
G01 X10.7973 Y24.4682 
G01 X10.7434 Y24.3383 
G01 X10.7160 Y24.2003 
G01 X10.7160 Y24.0597 
G01 X10.7434 Y23.9217 
G01 X10.7973 Y23.7918 
G01 X10.8754 Y23.6749 
G01 X10.9748 Y23.5754 
G01 X11.0918 Y23.4973 
G01 X11.2217 Y23.4434 
G01 X11.3597 Y23.4160 
G01 X11.5003 Y23.4160 
G01 X11.6383 Y23.4434 
G01 X11.7682 Y23.4973 
G01 X11.8851 Y23.5754 
G01 X11.9846 Y23.6749 
G01 X12.0627 Y23.7918 
G01 X12.1166 Y23.9217 
G01 X12.1440 Y24.0597 
G00 Z1.0000 
G00 X12.1440 Y26.5997 
G01 Z-0.1000 F500.00 
G01 X12.1440 Y26.7403 
G01 X12.1166 Y26.8783 
G01 X12.0627 Y27.0082 
G01 X11.9846 Y27.1251 
G01 X11.8851 Y27.2246 
G01 X11.7682 Y27.3027 
G01 X11.6383 Y27.3566 
G01 X11.5003 Y27.3840 
G01 X11.3597 Y27.3840 
G01 X11.2217 Y27.3566 
G01 X11.0918 Y27.3027 
G01 X10.9748 Y27.2246 
G01 X10.8754 Y27.1251 
G01 X10.7973 Y27.0082 
G01 X10.7434 Y26.8783 
G01 X10.7160 Y26.7403 
G01 X10.7160 Y26.5997 
G01 X10.7434 Y26.4617 
G01 X10.7973 Y26.3318 
G01 X10.8754 Y26.2149 
G01 X10.9748 Y26.1154 
G01 X11.0918 Y26.0373 
G01 X11.2217 Y25.9834 
G01 X11.3597 Y25.9560 
G01 X11.5003 Y25.9560 
G01 X11.6383 Y25.9834 
G01 X11.7682 Y26.0373 
G01 X11.8851 Y26.1154 
G01 X11.9846 Y26.2149 
G01 X12.0627 Y26.3318 
G01 X12.1166 Y26.4617 
G01 X12.1440 Y26.5997 
G00 Z1.0000 
G00 X12.1440 Y29.1397 
G01 Z-0.1000 F500.00 
G01 X12.1440 Y29.2803 
G01 X12.1166 Y29.4183 
G01 X12.0627 Y29.5482 
G01 X11.9846 Y29.6651 
G01 X11.8851 Y29.7646 
G01 X11.7682 Y29.8427 
G01 X11.6383 Y29.8966 
G01 X11.5003 Y29.9240 
G01 X11.3597 Y29.9240 
G01 X11.2217 Y29.8966 
G01 X11.0918 Y29.8427 
G01 X10.9748 Y29.7646 
G01 X10.8754 Y29.6651 
G01 X10.7973 Y29.5482 
G01 X10.7434 Y29.4183 
G01 X10.7160 Y29.2803 
G01 X10.7160 Y29.1397 
G01 X10.7434 Y29.0017 
G01 X10.7973 Y28.8718 
G01 X10.8754 Y28.7549 
G01 X10.9748 Y28.6554 
G01 X11.0918 Y28.5773 
G01 X11.2217 Y28.5234 
G01 X11.3597 Y28.4960 
G01 X11.5003 Y28.4960 
G01 X11.6383 Y28.5234 
G01 X11.7682 Y28.5773 
G01 X11.8851 Y28.6554 
G01 X11.9846 Y28.7549 
G01 X12.0627 Y28.8718 
G01 X12.1166 Y29.0017 
G01 X12.1440 Y29.1397 
G00 Z1.0000 
G00 X27.3840 Y29.1397 
G01 Z-0.1000 F500.00 
G01 X27.3840 Y29.2803 
G01 X27.3566 Y29.4183 
G01 X27.3027 Y29.5482 
G01 X27.2246 Y29.6651 
G01 X27.1251 Y29.7646 
G01 X27.0082 Y29.8427 
G01 X26.8783 Y29.8966 
G01 X26.7403 Y29.9240 
G01 X26.5997 Y29.9240 
G01 X26.4617 Y29.8966 
G01 X26.3318 Y29.8427 
G01 X26.2149 Y29.7646 
G01 X26.1154 Y29.6651 
G01 X26.0373 Y29.5482 
G01 X25.9834 Y29.4183 
G01 X25.9560 Y29.2803 
G01 X25.9560 Y29.1397 
G01 X25.9834 Y29.0017 
G01 X26.0373 Y28.8718 
G01 X26.1154 Y28.7549 
G01 X26.2149 Y28.6554 
G01 X26.3318 Y28.5773 
G01 X26.4617 Y28.5234 
G01 X26.5997 Y28.4960 
G01 X26.7403 Y28.4960 
G01 X26.8783 Y28.5234 
G01 X27.0082 Y28.5773 
G01 X27.1251 Y28.6554 
G01 X27.2246 Y28.7549 
G01 X27.3027 Y28.8718 
G01 X27.3566 Y29.0017 
G01 X27.3840 Y29.1397 
G00 Z1.0000 
G00 X27.3840 Y13.8997 
G01 Z-0.1000 F500.00 
G01 X27.3840 Y14.0403 
G01 X27.3566 Y14.1783 
G01 X27.3027 Y14.3082 
G01 X27.2246 Y14.4251 
G01 X27.1251 Y14.5246 
G01 X27.0082 Y14.6027 
G01 X26.8783 Y14.6566 
G01 X26.7403 Y14.6840 
G01 X26.5997 Y14.6840 
G01 X26.4617 Y14.6566 
G01 X26.3318 Y14.6027 
G01 X26.2149 Y14.5246 
G01 X26.1154 Y14.4251 
G01 X26.0373 Y14.3082 
G01 X25.9834 Y14.1783 
G01 X25.9560 Y14.0403 
G01 X25.9560 Y13.8997 
G01 X25.9834 Y13.7617 
G01 X26.0373 Y13.6318 
G01 X26.1154 Y13.5149 
G01 X26.2149 Y13.4154 
G01 X26.3318 Y13.3373 
G01 X26.4617 Y13.2834 
G01 X26.5997 Y13.2560 
G01 X26.7403 Y13.2560 
G01 X26.8783 Y13.2834 
G01 X27.0082 Y13.3373 
G01 X27.1251 Y13.4154 
G01 X27.2246 Y13.5149 
G01 X27.3027 Y13.6318 
G01 X27.3566 Y13.7617 
G01 X27.3840 Y13.8997 
G00 Z1.0000 
G00 X27.3840 Y11.3597 
G01 Z-0.1000 F500.00 
G01 X27.3840 Y11.5003 
G01 X27.3566 Y11.6383 
G01 X27.3027 Y11.7682 
G01 X27.2246 Y11.8851 
G01 X27.1251 Y11.9846 
G01 X27.0082 Y12.0627 
G01 X26.8783 Y12.1166 
G01 X26.7403 Y12.1440 
G01 X26.5997 Y12.1440 
G01 X26.4617 Y12.1166 
G01 X26.3318 Y12.0627 
G01 X26.2149 Y11.9846 
G01 X26.1154 Y11.8851 
G01 X26.0373 Y11.7682 
G01 X25.9834 Y11.6383 
G01 X25.9560 Y11.5003 
G01 X25.9560 Y11.3597 
G01 X25.9834 Y11.2217 
G01 X26.0373 Y11.0918 
G01 X26.1154 Y10.9748 
G01 X26.2149 Y10.8754 
G01 X26.3318 Y10.7973 
G01 X26.4617 Y10.7434 
G01 X26.5997 Y10.7160 
G01 X26.7403 Y10.7160 
G01 X26.8783 Y10.7434 
G01 X27.0082 Y10.7973 
G01 X27.1251 Y10.8754 
G01 X27.2246 Y10.9748 
G01 X27.3027 Y11.0918 
G01 X27.3566 Y11.2217 
G01 X27.3840 Y11.3597 
G00 Z1.0000 
G00 X21.0340 Y1.1997 
G01 Z-0.1000 F500.00 
G01 X21.0340 Y1.3403 
G01 X21.0066 Y1.4783 
G01 X20.9527 Y1.6082 
G01 X20.8746 Y1.7251 
G01 X20.7751 Y1.8246 
G01 X20.6582 Y1.9027 
G01 X20.5283 Y1.9566 
G01 X20.3903 Y1.9840 
G01 X20.2497 Y1.9840 
G01 X20.1117 Y1.9566 
G01 X19.9818 Y1.9027 
G01 X19.8649 Y1.8246 
G01 X19.7654 Y1.7251 
G01 X19.6873 Y1.6082 
G01 X19.6334 Y1.4783 
G01 X19.6060 Y1.3403 
G01 X19.6060 Y1.1997 
G01 X19.6334 Y1.0617 
G01 X19.6873 Y0.9318 
G01 X19.7654 Y0.8149 
G01 X19.8649 Y0.7154 
G01 X19.9818 Y0.6373 
G01 X20.1117 Y0.5834 
G01 X20.2497 Y0.5560 
G01 X20.3903 Y0.5560 
G01 X20.5283 Y0.5834 
G01 X20.6582 Y0.6373 
G01 X20.7751 Y0.7154 
G01 X20.8746 Y0.8149 
G01 X20.9527 Y0.9318 
G01 X21.0066 Y1.0617 
G01 X21.0340 Y1.1997 
G00 Z1.0000 
G00 X15.1840 Y15.2697 
G01 Z-0.1000 F500.00 
G01 X15.1840 Y15.4103 
G01 X15.1566 Y15.5483 
G01 X15.1027 Y15.6782 
G01 X15.0246 Y15.7951 
G01 X14.9251 Y15.8946 
G01 X14.8082 Y15.9727 
G01 X14.6783 Y16.0266 
G01 X14.5403 Y16.0540 
G01 X14.3997 Y16.0540 
G01 X14.2617 Y16.0266 
G01 X14.1318 Y15.9727 
G01 X14.0149 Y15.8946 
G01 X13.9154 Y15.7951 
G01 X13.8373 Y15.6782 
G01 X13.7834 Y15.5483 
G01 X13.7560 Y15.4103 
G01 X13.7560 Y15.2697 
G01 X13.7834 Y15.1317 
G01 X13.8373 Y15.0018 
G01 X13.9154 Y14.8849 
G01 X14.0149 Y14.7854 
G01 X14.1318 Y14.7073 
G01 X14.2617 Y14.6534 
G01 X14.3997 Y14.6260 
G01 X14.5403 Y14.6260 
G01 X14.6783 Y14.6534 
G01 X14.8082 Y14.7073 
G01 X14.9251 Y14.7854 
G01 X15.0246 Y14.8849 
G01 X15.1027 Y15.0018 
G01 X15.1566 Y15.1317 
G01 X15.1840 Y15.2697 
G00 Z1.0000 
G00 X15.0840 Y12.6297 
G01 Z-0.1000 F500.00 
G01 X15.0840 Y12.7703 
G01 X15.0566 Y12.9083 
G01 X15.0027 Y13.0382 
G01 X14.9246 Y13.1551 
G01 X14.8251 Y13.2546 
G01 X14.7082 Y13.3327 
G01 X14.5783 Y13.3866 
G01 X14.4403 Y13.4140 
G01 X14.2997 Y13.4140 
G01 X14.1617 Y13.3866 
G01 X14.0318 Y13.3327 
G01 X13.9149 Y13.2546 
G01 X13.8154 Y13.1551 
G01 X13.7373 Y13.0382 
G01 X13.6834 Y12.9083 
G01 X13.6560 Y12.7703 
G01 X13.6560 Y12.6297 
G01 X13.6834 Y12.4917 
G01 X13.7373 Y12.3618 
G01 X13.8154 Y12.2449 
G01 X13.9149 Y12.1454 
G01 X14.0318 Y12.0673 
G01 X14.1617 Y12.0134 
G01 X14.2997 Y11.9860 
G01 X14.4403 Y11.9860 
G01 X14.5783 Y12.0134 
G01 X14.7082 Y12.0673 
G01 X14.8251 Y12.1454 
G01 X14.9246 Y12.2449 
G01 X15.0027 Y12.3618 
G01 X15.0566 Y12.4917 
G01 X15.0840 Y12.6297 
G00 Z1.0000 
G00 X44.5840 Y10.1011 
G01 Z-0.1000 F500.00 
G01 X44.5840 Y11.4588 
G01 X44.5489 Y11.4940 
G01 X43.1911 Y11.4940 
G01 X43.1560 Y11.4588 
G01 X43.1560 Y10.1011 
G01 X43.1911 Y10.0660 
G01 X44.5489 Y10.0660 
G01 X44.5840 Y10.1011 
G00 Z1.0000 
G00 X44.4840 Y0.2011 
G01 Z-0.1000 F500.00 
G01 X44.4840 Y1.5589 
G01 X44.4489 Y1.5940 
G01 X43.0911 Y1.5940 
G01 X43.0560 Y1.5589 
G01 X43.0560 Y0.2011 
G01 X43.0911 Y0.1660 
G01 X44.4489 Y0.1660 
G01 X44.4840 Y0.2011 
G00 Z1.0000 
G00 X60.8040 Y10.1011 
G01 Z-0.1000 F500.00 
G01 X60.8040 Y11.4588 
G01 X60.7689 Y11.4940 
G01 X59.4111 Y11.4940 
G01 X59.3760 Y11.4588 
G01 X59.3760 Y10.1011 
G01 X59.4111 Y10.0660 
G01 X60.7689 Y10.0660 
G01 X60.8040 Y10.1011 
G00 Z1.0000 
G00 X60.8040 Y0.1011 
G01 Z-0.1000 F500.00 
G01 X60.8040 Y1.4588 
G01 X60.7689 Y1.4940 
G01 X59.4111 Y1.4940 
G01 X59.3760 Y1.4588 
G01 X59.3760 Y0.1011 
G01 X59.4111 Y0.0660 
G01 X60.7689 Y0.0660 
G01 X60.8040 Y0.1011 
G00 Z1.0000 
G00 X4.8450 Y3.7266 
G01 Z-0.1000 F500.00 
G01 X4.8450 Y3.8934 
G01 X4.8189 Y4.0582 
G01 X4.7673 Y4.2169 
G01 X4.6916 Y4.3656 
G01 X4.5935 Y4.5005 
G01 X4.4755 Y4.6185 
G01 X4.3406 Y4.7166 
G01 X4.1919 Y4.7923 
G01 X4.0332 Y4.8439 
G01 X3.8684 Y4.8700 
G01 X3.7016 Y4.8700 
G01 X3.5368 Y4.8439 
G01 X3.3781 Y4.7923 
G01 X3.2294 Y4.7166 
G01 X3.0945 Y4.6185 
G01 X2.9765 Y4.5005 
G01 X2.8784 Y4.3656 
G01 X2.8027 Y4.2169 
G01 X2.7511 Y4.0582 
G01 X2.7250 Y3.8934 
G01 X2.7250 Y3.7266 
G01 X2.7511 Y3.5618 
G01 X2.8027 Y3.4031 
G01 X2.8784 Y3.2544 
G01 X2.9765 Y3.1195 
G01 X3.0945 Y3.0015 
G01 X3.2294 Y2.9034 
G01 X3.3781 Y2.8277 
G01 X3.5368 Y2.7761 
G01 X3.7016 Y2.7500 
G01 X3.8684 Y2.7500 
G01 X4.0332 Y2.7761 
G01 X4.1919 Y2.8277 
G01 X4.3406 Y2.9034 
G01 X4.4755 Y3.0015 
G01 X4.5935 Y3.1195 
G01 X4.6916 Y3.2544 
G01 X4.7673 Y3.4031 
G01 X4.8189 Y3.5618 
G01 X4.8450 Y3.7266 
G00 Z1.0000 
G00 X4.8450 Y8.8066 
G01 Z-0.1000 F500.00 
G01 X4.8450 Y8.9734 
G01 X4.8189 Y9.1382 
G01 X4.7673 Y9.2969 
G01 X4.6916 Y9.4456 
G01 X4.5935 Y9.5805 
G01 X4.4755 Y9.6985 
G01 X4.3406 Y9.7966 
G01 X4.1919 Y9.8723 
G01 X4.0332 Y9.9239 
G01 X3.8684 Y9.9500 
G01 X3.7016 Y9.9500 
G01 X3.5368 Y9.9239 
G01 X3.3781 Y9.8723 
G01 X3.2294 Y9.7966 
G01 X3.0945 Y9.6985 
G01 X2.9765 Y9.5805 
G01 X2.8784 Y9.4456 
G01 X2.8027 Y9.2969 
G01 X2.7511 Y9.1382 
G01 X2.7250 Y8.9734 
G01 X2.7250 Y8.8066 
G01 X2.7511 Y8.6418 
G01 X2.8027 Y8.4831 
G01 X2.8784 Y8.3344 
G01 X2.9765 Y8.1995 
G01 X3.0945 Y8.0815 
G01 X3.2294 Y7.9834 
G01 X3.3781 Y7.9077 
G01 X3.5368 Y7.8561 
G01 X3.7016 Y7.8300 
G01 X3.8684 Y7.8300 
G01 X4.0332 Y7.8561 
G01 X4.1919 Y7.9077 
G01 X4.3406 Y7.9834 
G01 X4.4755 Y8.0815 
G01 X4.5935 Y8.1995 
G01 X4.6916 Y8.3344 
G01 X4.7673 Y8.4831 
G01 X4.8189 Y8.6418 
G01 X4.8450 Y8.8066 
G00 Z1.0000 
G00 X4.8450 Y13.8866 
G01 Z-0.1000 F500.00 
G01 X4.8450 Y14.0534 
G01 X4.8189 Y14.2182 
G01 X4.7673 Y14.3769 
G01 X4.6916 Y14.5256 
G01 X4.5935 Y14.6605 
G01 X4.4755 Y14.7785 
G01 X4.3406 Y14.8766 
G01 X4.1919 Y14.9523 
G01 X4.0332 Y15.0039 
G01 X3.8684 Y15.0300 
G01 X3.7016 Y15.0300 
G01 X3.5368 Y15.0039 
G01 X3.3781 Y14.9523 
G01 X3.2294 Y14.8766 
G01 X3.0945 Y14.7785 
G01 X2.9765 Y14.6605 
G01 X2.8784 Y14.5256 
G01 X2.8027 Y14.3769 
G01 X2.7511 Y14.2182 
G01 X2.7250 Y14.0534 
G01 X2.7250 Y13.8866 
G01 X2.7511 Y13.7218 
G01 X2.8027 Y13.5631 
G01 X2.8784 Y13.4144 
G01 X2.9765 Y13.2795 
G01 X3.0945 Y13.1615 
G01 X3.2294 Y13.0634 
G01 X3.3781 Y12.9877 
G01 X3.5368 Y12.9361 
G01 X3.7016 Y12.9100 
G01 X3.8684 Y12.9100 
G01 X4.0332 Y12.9361 
G01 X4.1919 Y12.9877 
G01 X4.3406 Y13.0634 
G01 X4.4755 Y13.1615 
G01 X4.5935 Y13.2795 
G01 X4.6916 Y13.4144 
G01 X4.7673 Y13.5631 
G01 X4.8189 Y13.7218 
G01 X4.8450 Y13.8866 
G00 Z1.0000 
G00 X4.8450 Y18.9666 
G01 Z-0.1000 F500.00 
G01 X4.8450 Y19.1334 
G01 X4.8189 Y19.2982 
G01 X4.7673 Y19.4569 
G01 X4.6916 Y19.6056 
G01 X4.5935 Y19.7405 
G01 X4.4755 Y19.8585 
G01 X4.3406 Y19.9566 
G01 X4.1919 Y20.0323 
G01 X4.0332 Y20.0839 
G01 X3.8684 Y20.1100 
G01 X3.7016 Y20.1100 
G01 X3.5368 Y20.0839 
G01 X3.3781 Y20.0323 
G01 X3.2294 Y19.9566 
G01 X3.0945 Y19.8585 
G01 X2.9765 Y19.7405 
G01 X2.8784 Y19.6056 
G01 X2.8027 Y19.4569 
G01 X2.7511 Y19.2982 
G01 X2.7250 Y19.1334 
G01 X2.7250 Y18.9666 
G01 X2.7511 Y18.8018 
G01 X2.8027 Y18.6431 
G01 X2.8784 Y18.4944 
G01 X2.9765 Y18.3595 
G01 X3.0945 Y18.2415 
G01 X3.2294 Y18.1434 
G01 X3.3781 Y18.0677 
G01 X3.5368 Y18.0161 
G01 X3.7016 Y17.9900 
G01 X3.8684 Y17.9900 
G01 X4.0332 Y18.0161 
G01 X4.1919 Y18.0677 
G01 X4.3406 Y18.1434 
G01 X4.4755 Y18.2415 
G01 X4.5935 Y18.3595 
G01 X4.6916 Y18.4944 
G01 X4.7673 Y18.6431 
G01 X4.8189 Y18.8018 
G01 X4.8450 Y18.9666 
G00 Z1.0000 
G00 X4.8450 Y24.0466 
G01 Z-0.1000 F500.00 
G01 X4.8450 Y24.2134 
G01 X4.8189 Y24.3782 
G01 X4.7673 Y24.5369 
G01 X4.6916 Y24.6856 
G01 X4.5935 Y24.8205 
G01 X4.4755 Y24.9385 
G01 X4.3406 Y25.0366 
G01 X4.1919 Y25.1123 
G01 X4.0332 Y25.1639 
G01 X3.8684 Y25.1900 
G01 X3.7016 Y25.1900 
G01 X3.5368 Y25.1639 
G01 X3.3781 Y25.1123 
G01 X3.2294 Y25.0366 
G01 X3.0945 Y24.9385 
G01 X2.9765 Y24.8205 
G01 X2.8784 Y24.6856 
G01 X2.8027 Y24.5369 
G01 X2.7511 Y24.3782 
G01 X2.7250 Y24.2134 
G01 X2.7250 Y24.0466 
G01 X2.7511 Y23.8818 
G01 X2.8027 Y23.7231 
G01 X2.8784 Y23.5744 
G01 X2.9765 Y23.4395 
G01 X3.0945 Y23.3215 
G01 X3.2294 Y23.2234 
G01 X3.3781 Y23.1477 
G01 X3.5368 Y23.0961 
G01 X3.7016 Y23.0700 
G01 X3.8684 Y23.0700 
G01 X4.0332 Y23.0961 
G01 X4.1919 Y23.1477 
G01 X4.3406 Y23.2234 
G01 X4.4755 Y23.3215 
G01 X4.5935 Y23.4395 
G01 X4.6916 Y23.5744 
G01 X4.7673 Y23.7231 
G01 X4.8189 Y23.8818 
G01 X4.8450 Y24.0466 
G00 Z1.0000 
G00 X4.8450 Y29.1266 
G01 Z-0.1000 F500.00 
G01 X4.8450 Y29.2934 
G01 X4.8189 Y29.4582 
G01 X4.7673 Y29.6169 
G01 X4.6916 Y29.7656 
G01 X4.5935 Y29.9005 
G01 X4.4755 Y30.0185 
G01 X4.3406 Y30.1166 
G01 X4.1919 Y30.1923 
G01 X4.0332 Y30.2439 
G01 X3.8684 Y30.2700 
G01 X3.7016 Y30.2700 
G01 X3.5368 Y30.2439 
G01 X3.3781 Y30.1923 
G01 X3.2294 Y30.1166 
G01 X3.0945 Y30.0185 
G01 X2.9765 Y29.9005 
G01 X2.8784 Y29.7656 
G01 X2.8027 Y29.6169 
G01 X2.7511 Y29.4582 
G01 X2.7250 Y29.2934 
G01 X2.7250 Y29.1266 
G01 X2.7511 Y28.9618 
G01 X2.8027 Y28.8031 
G01 X2.8784 Y28.6544 
G01 X2.9765 Y28.5195 
G01 X3.0945 Y28.4015 
G01 X3.2294 Y28.3034 
G01 X3.3781 Y28.2277 
G01 X3.5368 Y28.1761 
G01 X3.7016 Y28.1500 
G01 X3.8684 Y28.1500 
G01 X4.0332 Y28.1761 
G01 X4.1919 Y28.2277 
G01 X4.3406 Y28.3034 
G01 X4.4755 Y28.4015 
G01 X4.5935 Y28.5195 
G01 X4.6916 Y28.6544 
G01 X4.7673 Y28.8031 
G01 X4.8189 Y28.9618 
G01 X4.8450 Y29.1266 
G00 Z1.0000 
G00 X67.1250 Y29.1266 
G01 Z-0.1000 F500.00 
G01 X67.1250 Y29.2934 
G01 X67.0989 Y29.4582 
G01 X67.0473 Y29.6169 
G01 X66.9716 Y29.7656 
G01 X66.8735 Y29.9005 
G01 X66.7555 Y30.0185 
G01 X66.6206 Y30.1166 
G01 X66.4719 Y30.1923 
G01 X66.3132 Y30.2439 
G01 X66.1484 Y30.2700 
G01 X65.9816 Y30.2700 
G01 X65.8168 Y30.2439 
G01 X65.6581 Y30.1923 
G01 X65.5094 Y30.1166 
G01 X65.3745 Y30.0185 
G01 X65.2565 Y29.9005 
G01 X65.1584 Y29.7656 
G01 X65.0827 Y29.6169 
G01 X65.0311 Y29.4582 
G01 X65.0050 Y29.2934 
G01 X65.0050 Y29.1266 
G01 X65.0311 Y28.9618 
G01 X65.0827 Y28.8031 
G01 X65.1584 Y28.6544 
G01 X65.2565 Y28.5195 
G01 X65.3745 Y28.4015 
G01 X65.5094 Y28.3034 
G01 X65.6581 Y28.2277 
G01 X65.8168 Y28.1761 
G01 X65.9816 Y28.1500 
G01 X66.1484 Y28.1500 
G01 X66.3132 Y28.1761 
G01 X66.4719 Y28.2277 
G01 X66.6206 Y28.3034 
G01 X66.7555 Y28.4015 
G01 X66.8735 Y28.5195 
G01 X66.9716 Y28.6544 
G01 X67.0473 Y28.8031 
G01 X67.0989 Y28.9618 
G01 X67.1250 Y29.1266 
G00 Z1.0000 
G00 X67.1250 Y24.0466 
G01 Z-0.1000 F500.00 
G01 X67.1250 Y24.2134 
G01 X67.0989 Y24.3782 
G01 X67.0473 Y24.5369 
G01 X66.9716 Y24.6856 
G01 X66.8735 Y24.8205 
G01 X66.7555 Y24.9385 
G01 X66.6206 Y25.0366 
G01 X66.4719 Y25.1123 
G01 X66.3132 Y25.1639 
G01 X66.1484 Y25.1900 
G01 X65.9816 Y25.1900 
G01 X65.8168 Y25.1639 
G01 X65.6581 Y25.1123 
G01 X65.5094 Y25.0366 
G01 X65.3745 Y24.9385 
G01 X65.2565 Y24.8205 
G01 X65.1584 Y24.6856 
G01 X65.0827 Y24.5369 
G01 X65.0311 Y24.3782 
G01 X65.0050 Y24.2134 
G01 X65.0050 Y24.0466 
G01 X65.0311 Y23.8818 
G01 X65.0827 Y23.7231 
G01 X65.1584 Y23.5744 
G01 X65.2565 Y23.4395 
G01 X65.3745 Y23.3215 
G01 X65.5094 Y23.2234 
G01 X65.6581 Y23.1477 
G01 X65.8168 Y23.0961 
G01 X65.9816 Y23.0700 
G01 X66.1484 Y23.0700 
G01 X66.3132 Y23.0961 
G01 X66.4719 Y23.1477 
G01 X66.6206 Y23.2234 
G01 X66.7555 Y23.3215 
G01 X66.8735 Y23.4395 
G01 X66.9716 Y23.5744 
G01 X67.0473 Y23.7231 
G01 X67.0989 Y23.8818 
G01 X67.1250 Y24.0466 
G00 Z1.0000 
G00 X67.1250 Y18.9666 
G01 Z-0.1000 F500.00 
G01 X67.1250 Y19.1334 
G01 X67.0989 Y19.2982 
G01 X67.0473 Y19.4569 
G01 X66.9716 Y19.6056 
G01 X66.8735 Y19.7405 
G01 X66.7555 Y19.8585 
G01 X66.6206 Y19.9566 
G01 X66.4719 Y20.0323 
G01 X66.3132 Y20.0839 
G01 X66.1484 Y20.1100 
G01 X65.9816 Y20.1100 
G01 X65.8168 Y20.0839 
G01 X65.6581 Y20.0323 
G01 X65.5094 Y19.9566 
G01 X65.3745 Y19.8585 
G01 X65.2565 Y19.7405 
G01 X65.1584 Y19.6056 
G01 X65.0827 Y19.4569 
G01 X65.0311 Y19.2982 
G01 X65.0050 Y19.1334 
G01 X65.0050 Y18.9666 
G01 X65.0311 Y18.8018 
G01 X65.0827 Y18.6431 
G01 X65.1584 Y18.4944 
G01 X65.2565 Y18.3595 
G01 X65.3745 Y18.2415 
G01 X65.5094 Y18.1434 
G01 X65.6581 Y18.0677 
G01 X65.8168 Y18.0161 
G01 X65.9816 Y17.9900 
G01 X66.1484 Y17.9900 
G01 X66.3132 Y18.0161 
G01 X66.4719 Y18.0677 
G01 X66.6206 Y18.1434 
G01 X66.7555 Y18.2415 
G01 X66.8735 Y18.3595 
G01 X66.9716 Y18.4944 
G01 X67.0473 Y18.6431 
G01 X67.0989 Y18.8018 
G01 X67.1250 Y18.9666 
G00 Z1.0000 
G00 X67.1250 Y13.8866 
G01 Z-0.1000 F500.00 
G01 X67.1250 Y14.0534 
G01 X67.0989 Y14.2182 
G01 X67.0473 Y14.3769 
G01 X66.9716 Y14.5256 
G01 X66.8735 Y14.6605 
G01 X66.7555 Y14.7785 
G01 X66.6206 Y14.8766 
G01 X66.4719 Y14.9523 
G01 X66.3132 Y15.0039 
G01 X66.1484 Y15.0300 
G01 X65.9816 Y15.0300 
G01 X65.8168 Y15.0039 
G01 X65.6581 Y14.9523 
G01 X65.5094 Y14.8766 
G01 X65.3745 Y14.7785 
G01 X65.2565 Y14.6605 
G01 X65.1584 Y14.5256 
G01 X65.0827 Y14.3769 
G01 X65.0311 Y14.2182 
G01 X65.0050 Y14.0534 
G01 X65.0050 Y13.8866 
G01 X65.0311 Y13.7218 
G01 X65.0827 Y13.5631 
G01 X65.1584 Y13.4144 
G01 X65.2565 Y13.2795 
G01 X65.3745 Y13.1615 
G01 X65.5094 Y13.0634 
G01 X65.6581 Y12.9877 
G01 X65.8168 Y12.9361 
G01 X65.9816 Y12.9100 
G01 X66.1484 Y12.9100 
G01 X66.3132 Y12.9361 
G01 X66.4719 Y12.9877 
G01 X66.6206 Y13.0634 
G01 X66.7555 Y13.1615 
G01 X66.8735 Y13.2795 
G01 X66.9716 Y13.4144 
G01 X67.0473 Y13.5631 
G01 X67.0989 Y13.7218 
G01 X67.1250 Y13.8866 
G00 Z1.0000 
G00 X67.1250 Y8.8066 
G01 Z-0.1000 F500.00 
G01 X67.1250 Y8.9734 
G01 X67.0989 Y9.1382 
G01 X67.0473 Y9.2969 
G01 X66.9716 Y9.4456 
G01 X66.8735 Y9.5805 
G01 X66.7555 Y9.6985 
G01 X66.6206 Y9.7966 
G01 X66.4719 Y9.8723 
G01 X66.3132 Y9.9239 
G01 X66.1484 Y9.9500 
G01 X65.9816 Y9.9500 
G01 X65.8168 Y9.9239 
G01 X65.6581 Y9.8723 
G01 X65.5094 Y9.7966 
G01 X65.3745 Y9.6985 
G01 X65.2565 Y9.5805 
G01 X65.1584 Y9.4456 
G01 X65.0827 Y9.2969 
G01 X65.0311 Y9.1382 
G01 X65.0050 Y8.9734 
G01 X65.0050 Y8.8066 
G01 X65.0311 Y8.6418 
G01 X65.0827 Y8.4831 
G01 X65.1584 Y8.3344 
G01 X65.2565 Y8.1995 
G01 X65.3745 Y8.0815 
G01 X65.5094 Y7.9834 
G01 X65.6581 Y7.9077 
G01 X65.8168 Y7.8561 
G01 X65.9816 Y7.8300 
G01 X66.1484 Y7.8300 
G01 X66.3132 Y7.8561 
G01 X66.4719 Y7.9077 
G01 X66.6206 Y7.9834 
G01 X66.7555 Y8.0815 
G01 X66.8735 Y8.1995 
G01 X66.9716 Y8.3344 
G01 X67.0473 Y8.4831 
G01 X67.0989 Y8.6418 
G01 X67.1250 Y8.8066 
G00 Z1.0000 
G00 X67.1250 Y3.7266 
G01 Z-0.1000 F500.00 
G01 X67.1250 Y3.8934 
G01 X67.0989 Y4.0582 
G01 X67.0473 Y4.2169 
G01 X66.9716 Y4.3656 
G01 X66.8735 Y4.5005 
G01 X66.7555 Y4.6185 
G01 X66.6206 Y4.7166 
G01 X66.4719 Y4.7923 
G01 X66.3132 Y4.8439 
G01 X66.1484 Y4.8700 
G01 X65.9816 Y4.8700 
G01 X65.8168 Y4.8439 
G01 X65.6581 Y4.7923 
G01 X65.5094 Y4.7166 
G01 X65.3745 Y4.6185 
G01 X65.2565 Y4.5005 
G01 X65.1584 Y4.3656 
G01 X65.0827 Y4.2169 
G01 X65.0311 Y4.0582 
G01 X65.0050 Y3.8934 
G01 X65.0050 Y3.7266 
G01 X65.0311 Y3.5618 
G01 X65.0827 Y3.4031 
G01 X65.1584 Y3.2544 
G01 X65.2565 Y3.1195 
G01 X65.3745 Y3.0015 
G01 X65.5094 Y2.9034 
G01 X65.6581 Y2.8277 
G01 X65.8168 Y2.7761 
G01 X65.9816 Y2.7500 
G01 X66.1484 Y2.7500 
G01 X66.3132 Y2.7761 
G01 X66.4719 Y2.8277 
G01 X66.6206 Y2.9034 
G01 X66.7555 Y3.0015 
G01 X66.8735 Y3.1195 
G01 X66.9716 Y3.2544 
G01 X67.0473 Y3.4031 
G01 X67.0989 Y3.5618 
G01 X67.1250 Y3.7266 
G00 Z1.0000 
G00 X-0.2400 Y-5.9049 
G01 Z-0.1000 F500.00 
G01 X-0.2400 Y-4.2551 
G01 X-0.2751 Y-4.2200 
G01 X-1.6249 Y-4.2200 
G01 X-1.6600 Y-4.2551 
G01 X-1.6600 Y-5.9049 
G01 X-1.6249 Y-5.9400 
G01 X-0.2751 Y-5.9400 
G01 X-0.2400 Y-5.9049 
G00 Z1.0000 
G00 X1.6600 Y-5.9049 
G01 Z-0.1000 F500.00 
G01 X1.6600 Y-4.2551 
G01 X1.6249 Y-4.2200 
G01 X0.2751 Y-4.2200 
G01 X0.2400 Y-4.2551 
G01 X0.2400 Y-5.9049 
G01 X0.2751 Y-5.9400 
G01 X1.6249 Y-5.9400 
G01 X1.6600 Y-5.9049 
G00 Z1.0000 
G00 X-0.3900 Y-12.0549 
G01 Z-0.1000 F500.00 
G01 X-0.3900 Y-10.8051 
G01 X-0.4251 Y-10.7700 
G01 X-1.6749 Y-10.7700 
G01 X-1.7100 Y-10.8051 
G01 X-1.7100 Y-12.0549 
G01 X-1.6749 Y-12.0900 
G01 X-0.4251 Y-12.0900 
G01 X-0.3900 Y-12.0549 
G00 Z1.0000 
G00 X1.7100 Y-12.0549 
G01 Z-0.1000 F500.00 
G01 X1.7100 Y-10.8051 
G01 X1.6749 Y-10.7700 
G01 X0.4251 Y-10.7700 
G01 X0.3900 Y-10.8051 
G01 X0.3900 Y-12.0549 
G01 X0.4251 Y-12.0900 
G01 X1.6749 Y-12.0900 
G01 X1.7100 Y-12.0549 
G00 Z1.0000 
G00 X21.3500 Y60.4851 
G01 Z-0.1000 F500.00 
G01 X21.3500 Y61.4349 
G01 X21.3148 Y61.4700 
G01 X20.5651 Y61.4700 
G01 X20.5300 Y61.4349 
G01 X20.5300 Y60.4851 
G01 X20.5651 Y60.4500 
G01 X21.3148 Y60.4500 
G01 X21.3500 Y60.4851 
G00 Z1.0000 
G00 X22.6500 Y60.4851 
G01 Z-0.1000 F500.00 
G01 X22.6500 Y61.4349 
G01 X22.6149 Y61.4700 
G01 X21.8651 Y61.4700 
G01 X21.8300 Y61.4349 
G01 X21.8300 Y60.4851 
G01 X21.8651 Y60.4500 
G01 X22.6149 Y60.4500 
G01 X22.6500 Y60.4851 
(File Footer)
G00 Z1.0000 
G00 Z3.0000 
M05
M02
