( This gcode generated by /Applications/EAGLE-7.2.0/ulp/pcb-gcode.ulp )
( Copyright 2005 by John Johnson. See readme.txt for licensing terms. )

( This file generated from the board /Users/arminlanghofer/Documents/eagle/arduinosnullzaehler/snullv2.brd )
( This file generated 18.01.15 10:39 )

( T01 0.600000 )
( T02 0.800000 )
( T03 1.300000 )
G21

G90
M05
G00 X139.7000 Y86.3600 Z193.0400 
M06 T01  ; 0.6000 
G00 Z1.0000 
M03
G04 P0.000000
G00 Z1.000000
G00 X-34.2900 Y16.5100 
G01 Z-2.5000 F127.00 
G01 Z1.000000
(R1.0000  P10.000000)
(G00 Z1.000000)
G00 X-43.1800 Y3.8100 
G01 Z-2.500000
G01 Z1.000000
(G00 Z1.000000)
G00 X-48.2600 Y25.4000 
G01 Z-2.500000
G01 Z1.000000
(G00 Z1.000000)
G00 X-53.3400 Y7.6200 
G01 Z-2.500000
G01 Z1.000000
M05
G00 X139.7000 Y86.3600 Z193.0400 
M06 T02  ; 0.8000 
G00 Z1.0000 
M03
G04 P0.000000
G00 Z1.000000
G00 X-31.7500 Y22.4600 
G01 Z-2.5000 F127.00 
G01 Z1.000000
(R1.0000  P10.000000)
(G00 Z1.000000)
G00 X-33.0200 Y10.1600 
G01 Z-2.500000
G01 Z1.000000
(G00 Z1.000000)
G00 X-34.3900 Y22.3600 
G01 Z-2.500000
G01 Z1.000000
(G00 Z1.000000)
G00 X-48.2600 Y25.4000 
G01 Z-2.500000
G01 Z1.000000
(G00 Z1.000000)
G00 X-50.8000 Y10.1600 
G01 Z-2.500000
G01 Z1.000000
(G00 Z1.000000)
G00 X-50.8000 Y25.4000 
G01 Z-2.500000
G01 Z1.000000
(G00 Z1.000000)
G00 X-59.0100 Y2.1500 
G01 Z-2.500000
G01 Z1.000000
(G00 Z1.000000)
G00 X-59.1100 Y12.0500 
G01 Z-2.500000
G01 Z1.000000
(G00 Z1.000000)
G00 X-75.3300 Y12.0500 
G01 Z-2.500000
G01 Z1.000000
(G00 Z1.000000)
G00 X-75.3300 Y2.0500 
G01 Z-2.500000
G01 Z1.000000
(G00 Z1.000000)
G00 X-25.4000 Y25.4000 
G01 Z-2.500000
G01 Z1.000000
(G00 Z1.000000)
G00 X-30.4800 Y25.4000 
G01 Z-2.500000
G01 Z1.000000
M05
G00 X139.7000 Y86.3600 Z193.0400 
M06 T03  ; 1.3000 
G00 Z1.0000 
M03
G04 P0.000000
G00 Z1.000000
G00 X-3.8350 Y7.6200 
G01 Z-2.5000 F127.00 
G01 Z1.000000
(R1.0000  P10.000000)
(G00 Z1.000000)
G00 X-3.8350 Y12.7000 
G01 Z-2.500000
G01 Z1.000000
(G00 Z1.000000)
G00 X-3.8350 Y17.7800 
G01 Z-2.500000
G01 Z1.000000
(G00 Z1.000000)
G00 X-3.8350 Y22.8600 
G01 Z-2.500000
G01 Z1.000000
(G00 Z1.000000)
G00 X-3.8350 Y2.5400 
G01 Z-2.500000
G01 Z1.000000
(G00 Z1.000000)
G00 X-3.8350 Y27.9400 
G01 Z-2.500000
G01 Z1.000000
(G00 Z1.000000)
G00 X-81.3050 Y7.6200 
G01 Z-2.500000
G01 Z1.000000
(G00 Z1.000000)
G00 X-81.3050 Y12.7000 
G01 Z-2.500000
G01 Z1.000000
(G00 Z1.000000)
G00 X-81.3050 Y17.7800 
G01 Z-2.500000
G01 Z1.000000
(G00 Z1.000000)
G00 X-81.3050 Y22.8600 
G01 Z-2.500000
G01 Z1.000000
(G00 Z1.000000)
G00 X-81.3050 Y2.5400 
G01 Z-2.500000
G01 Z1.000000
(G00 Z1.000000)
G00 X-81.3050 Y27.9400 
G01 Z-2.500000
G01 Z1.000000
(File Footer)
T01 
G00 Z30.0000 
M05
M02
