( This gcode generated by /Applications/EAGLE-7.2.0/ulp/pcb-gcode.ulp )
( Copyright 2005 by John Johnson. See readme.txt for licensing terms. )

( This file generated from the board /Users/arminlanghofer/Documents/eagle/arduinosnullzaehler/snullv2.brd )
( This file generated 18.01.15 10:39 )

G21

G90
G00 Z30.0000 
G00 X0 Y0
M03
G04 P0.000000
G00 Z1.0000 
G00 X34.8532 Y17.0381 
G01 Z-0.1000 F500.00 
G01 X34.8180 Y17.0732 
G01 X33.7619 Y17.0732 
G01 X33.7268 Y17.0381 
G01 X33.7268 Y15.9819 
G01 X33.7619 Y15.9468 
G01 X34.4810 Y15.9468 
G01 X35.3494 Y15.0784 
G01 X35.3984 Y15.0294 
G01 X35.4584 Y14.9947 
G01 X35.5253 Y14.9768 
G01 X35.5947 Y14.9768 
G01 X35.6616 Y14.9947 
G01 X35.7216 Y15.0294 
G01 X35.9590 Y15.2668 
G01 X38.5200 Y15.2668 
G01 X38.5200 Y15.0051 
G01 X38.5551 Y14.9700 
G01 X39.6048 Y14.9700 
G01 X39.6400 Y15.0051 
G01 X39.6400 Y16.0549 
G01 X39.6048 Y16.0900 
G01 X38.5551 Y16.0900 
G01 X38.5200 Y16.0549 
G01 X38.5200 Y15.7932 
G01 X35.8153 Y15.7932 
G01 X35.7484 Y15.7753 
G01 X35.6884 Y15.7406 
G01 X35.6394 Y15.6916 
G01 X35.5600 Y15.6122 
G01 X34.8532 Y16.3190 
G01 X34.8532 Y17.0381 
G00 Z1.0000 
G00 X43.7432 Y3.2819 
G01 Z-0.1000 F500.00 
G01 X43.7432 Y4.3380 
G01 X43.7081 Y4.3732 
G01 X42.6519 Y4.3732 
G01 X42.6168 Y4.3380 
G01 X42.6168 Y4.0732 
G01 X34.3990 Y4.0732 
G01 X33.2832 Y5.1890 
G01 X33.2832 Y9.4962 
G01 X33.3582 Y9.5273 
G01 X33.4751 Y9.6054 
G01 X33.5746 Y9.7049 
G01 X33.6527 Y9.8218 
G01 X33.7066 Y9.9517 
G01 X33.7340 Y10.0897 
G01 X33.7340 Y10.2303 
G01 X33.7066 Y10.3683 
G01 X33.6527 Y10.4982 
G01 X33.5746 Y10.6151 
G01 X33.4751 Y10.7146 
G01 X33.3582 Y10.7927 
G01 X33.2283 Y10.8466 
G01 X33.0903 Y10.8740 
G01 X32.9497 Y10.8740 
G01 X32.8117 Y10.8466 
G01 X32.6818 Y10.7927 
G01 X32.5648 Y10.7146 
G01 X32.4654 Y10.6151 
G01 X32.3873 Y10.4982 
G01 X32.3334 Y10.3683 
G01 X32.3060 Y10.2303 
G01 X32.3060 Y10.0897 
G01 X32.3334 Y9.9517 
G01 X32.3873 Y9.8218 
G01 X32.4654 Y9.7049 
G01 X32.5648 Y9.6054 
G01 X32.6818 Y9.5273 
G01 X32.7568 Y9.4962 
G01 X32.7568 Y5.0453 
G01 X32.7747 Y4.9784 
G01 X32.8094 Y4.9184 
G01 X34.1284 Y3.5994 
G01 X34.1884 Y3.5647 
G01 X34.2553 Y3.5468 
G01 X42.6168 Y3.5468 
G01 X42.6168 Y3.2819 
G01 X42.6519 Y3.2468 
G01 X43.7081 Y3.2468 
G01 X43.7432 Y3.2819 
G00 Z1.0000 
G00 X51.5140 Y25.3297 
G01 Z-0.1000 F500.00 
G01 X51.5140 Y25.4703 
G01 X51.4866 Y25.6083 
G01 X51.4327 Y25.7382 
G01 X51.3546 Y25.8551 
G01 X51.2551 Y25.9546 
G01 X51.1382 Y26.0327 
G01 X51.0632 Y26.0638 
G01 X51.0632 Y26.6621 
G01 X51.0648 Y26.6888 
G01 X51.0632 Y26.6967 
G01 X51.0632 Y26.7047 
G01 X51.0563 Y26.7305 
G01 X51.0509 Y26.7567 
G01 X51.0473 Y26.7639 
G01 X51.0453 Y26.7716 
G01 X51.0319 Y26.7948 
G01 X49.7773 Y29.3039 
G01 X49.7753 Y29.3116 
G01 X49.7619 Y29.3347 
G01 X49.7499 Y29.3587 
G01 X49.7446 Y29.3647 
G01 X49.7406 Y29.3716 
G01 X49.7217 Y29.3905 
G01 X49.7039 Y29.4106 
G01 X49.6973 Y29.4150 
G01 X49.6916 Y29.4206 
G01 X49.6685 Y29.4340 
G01 X49.6461 Y29.4487 
G01 X49.6385 Y29.4513 
G01 X49.6316 Y29.4553 
G01 X49.6057 Y29.4622 
G01 X49.5804 Y29.4706 
G01 X49.5724 Y29.4711 
G01 X49.5647 Y29.4732 
G01 X49.5379 Y29.4732 
G01 X49.5112 Y29.4748 
G01 X49.5033 Y29.4732 
G01 X45.7358 Y29.4732 
G01 X45.7171 Y29.4755 
G01 X45.7013 Y29.4732 
G01 X45.6853 Y29.4732 
G01 X45.6671 Y29.4683 
G01 X45.6485 Y29.4657 
G01 X45.6338 Y29.4594 
G01 X45.6184 Y29.4553 
G01 X45.6021 Y29.4458 
G01 X45.5847 Y29.4384 
G01 X45.5722 Y29.4286 
G01 X45.5584 Y29.4206 
G01 X45.5451 Y29.4073 
G01 X45.5302 Y29.3956 
G01 X45.5207 Y29.3829 
G01 X45.5094 Y29.3716 
G01 X45.5000 Y29.3553 
G01 X41.7107 Y24.3029 
G01 X41.6994 Y24.2916 
G01 X41.6900 Y24.2753 
G01 X41.6787 Y24.2602 
G01 X41.6727 Y24.2454 
G01 X41.6647 Y24.2316 
G01 X41.6599 Y24.2134 
G01 X41.6528 Y24.1959 
G01 X41.6509 Y24.1800 
G01 X41.6468 Y24.1647 
G01 X41.6468 Y24.1458 
G01 X41.6445 Y24.1271 
G01 X41.6468 Y24.1113 
G01 X41.6468 Y21.9800 
G01 X41.1351 Y21.9800 
G01 X41.1000 Y21.9449 
G01 X41.1000 Y20.5951 
G01 X41.1351 Y20.5600 
G01 X42.6849 Y20.5600 
G01 X42.7200 Y20.5951 
G01 X42.7200 Y21.9449 
G01 X42.6849 Y21.9800 
G01 X42.1732 Y21.9800 
G01 X42.1732 Y24.0423 
G01 X45.8516 Y28.9468 
G01 X49.3673 Y28.9468 
G01 X50.5368 Y26.6079 
G01 X50.5368 Y26.0638 
G01 X50.4618 Y26.0327 
G01 X50.3449 Y25.9546 
G01 X50.2454 Y25.8551 
G01 X50.1673 Y25.7382 
G01 X50.1134 Y25.6083 
G01 X50.0860 Y25.4703 
G01 X50.0860 Y25.3297 
G01 X50.1134 Y25.1917 
G01 X50.1673 Y25.0618 
G01 X50.2454 Y24.9449 
G01 X50.3449 Y24.8454 
G01 X50.4618 Y24.7673 
G01 X50.5917 Y24.7134 
G01 X50.7297 Y24.6860 
G01 X50.8703 Y24.6860 
G01 X51.0083 Y24.7134 
G01 X51.1382 Y24.7673 
G01 X51.2551 Y24.8454 
G01 X51.3546 Y24.9449 
G01 X51.4327 Y25.0618 
G01 X51.4866 Y25.1917 
G01 X51.5140 Y25.3297 
G00 Z1.0000 
G00 X32.4640 Y22.3897 
G01 Z-0.1000 F500.00 
G01 X32.4640 Y22.5303 
G01 X32.4366 Y22.6683 
G01 X32.3827 Y22.7982 
G01 X32.3046 Y22.9151 
G01 X32.2051 Y23.0146 
G01 X32.0882 Y23.0927 
G01 X31.9583 Y23.1466 
G01 X31.8203 Y23.1740 
G01 X31.6797 Y23.1740 
G01 X31.5417 Y23.1466 
G01 X31.4118 Y23.0927 
G01 X31.2949 Y23.0146 
G01 X31.1954 Y22.9151 
G01 X31.1173 Y22.7982 
G01 X31.0634 Y22.6683 
G01 X31.0360 Y22.5303 
G01 X31.0360 Y22.3897 
G01 X31.0634 Y22.2517 
G01 X31.1173 Y22.1218 
G01 X31.1954 Y22.0049 
G01 X31.2949 Y21.9054 
G01 X31.4118 Y21.8273 
G01 X31.5417 Y21.7734 
G01 X31.6797 Y21.7460 
G01 X31.8203 Y21.7460 
G01 X31.9583 Y21.7734 
G01 X32.0882 Y21.8273 
G01 X32.2051 Y21.9054 
G01 X32.3046 Y22.0049 
G01 X32.3827 Y22.1218 
G01 X32.4366 Y22.2517 
G01 X32.4640 Y22.3897 
G00 Z1.0000 
G00 X35.1040 Y22.2897 
G01 Z-0.1000 F500.00 
G01 X35.1040 Y22.4303 
G01 X35.0766 Y22.5683 
G01 X35.0227 Y22.6982 
G01 X34.9446 Y22.8151 
G01 X34.8451 Y22.9146 
G01 X34.7282 Y22.9927 
G01 X34.5983 Y23.0466 
G01 X34.4603 Y23.0740 
G01 X34.3197 Y23.0740 
G01 X34.1817 Y23.0466 
G01 X34.0518 Y22.9927 
G01 X33.9349 Y22.9146 
G01 X33.8354 Y22.8151 
G01 X33.7573 Y22.6982 
G01 X33.7034 Y22.5683 
G01 X33.6760 Y22.4303 
G01 X33.6760 Y22.2897 
G01 X33.7034 Y22.1517 
G01 X33.7573 Y22.0218 
G01 X33.8354 Y21.9048 
G01 X33.9349 Y21.8054 
G01 X34.0518 Y21.7273 
G01 X34.1817 Y21.6734 
G01 X34.3197 Y21.6460 
G01 X34.4603 Y21.6460 
G01 X34.5983 Y21.6734 
G01 X34.7282 Y21.7273 
G01 X34.8451 Y21.8054 
G01 X34.9446 Y21.9048 
G01 X35.0227 Y22.0218 
G01 X35.0766 Y22.1517 
G01 X35.1040 Y22.2897 
G00 Z1.0000 
G00 X51.5140 Y10.0897 
G01 Z-0.1000 F500.00 
G01 X51.5140 Y10.2303 
G01 X51.4866 Y10.3683 
G01 X51.4327 Y10.4982 
G01 X51.3546 Y10.6151 
G01 X51.2551 Y10.7146 
G01 X51.1382 Y10.7927 
G01 X51.0083 Y10.8466 
G01 X50.8703 Y10.8740 
G01 X50.7297 Y10.8740 
G01 X50.5917 Y10.8466 
G01 X50.4618 Y10.7927 
G01 X50.3449 Y10.7146 
G01 X50.2454 Y10.6151 
G01 X50.1673 Y10.4982 
G01 X50.1134 Y10.3683 
G01 X50.0860 Y10.2303 
G01 X50.0860 Y10.0897 
G01 X50.1134 Y9.9517 
G01 X50.1673 Y9.8218 
G01 X50.2454 Y9.7049 
G01 X50.3449 Y9.6054 
G01 X50.4618 Y9.5273 
G01 X50.5917 Y9.4734 
G01 X50.7297 Y9.4460 
G01 X50.8703 Y9.4460 
G01 X51.0083 Y9.4734 
G01 X51.1382 Y9.5273 
G01 X51.2551 Y9.6054 
G01 X51.3546 Y9.7049 
G01 X51.4327 Y9.8218 
G01 X51.4866 Y9.9517 
G01 X51.5140 Y10.0897 
G00 Z1.0000 
G00 X31.1940 Y25.3297 
G01 Z-0.1000 F500.00 
G01 X31.1940 Y25.4703 
G01 X31.1666 Y25.6083 
G01 X31.1127 Y25.7382 
G01 X31.0346 Y25.8551 
G01 X30.9351 Y25.9546 
G01 X30.8182 Y26.0327 
G01 X30.6883 Y26.0866 
G01 X30.5503 Y26.1140 
G01 X30.4097 Y26.1140 
G01 X30.2717 Y26.0866 
G01 X30.1418 Y26.0327 
G01 X30.0249 Y25.9546 
G01 X29.9254 Y25.8551 
G01 X29.8473 Y25.7382 
G01 X29.7934 Y25.6083 
G01 X29.7660 Y25.4703 
G01 X29.7660 Y25.3297 
G01 X29.7934 Y25.1917 
G01 X29.8473 Y25.0618 
G01 X29.9254 Y24.9449 
G01 X30.0249 Y24.8454 
G01 X30.1418 Y24.7673 
G01 X30.2717 Y24.7134 
G01 X30.4097 Y24.6860 
G01 X30.5503 Y24.6860 
G01 X30.6883 Y24.7134 
G01 X30.8182 Y24.7673 
G01 X30.9351 Y24.8454 
G01 X31.0346 Y24.9449 
G01 X31.1127 Y25.0618 
G01 X31.1666 Y25.1917 
G01 X31.1940 Y25.3297 
G00 Z1.0000 
G00 X26.1140 Y25.3297 
G01 Z-0.1000 F500.00 
G01 X26.1140 Y25.4703 
G01 X26.0866 Y25.6083 
G01 X26.0327 Y25.7382 
G01 X25.9546 Y25.8551 
G01 X25.8551 Y25.9546 
G01 X25.7382 Y26.0327 
G01 X25.6083 Y26.0866 
G01 X25.4703 Y26.1140 
G01 X25.3297 Y26.1140 
G01 X25.1917 Y26.0866 
G01 X25.0618 Y26.0327 
G01 X24.9449 Y25.9546 
G01 X24.8454 Y25.8551 
G01 X24.7673 Y25.7382 
G01 X24.7134 Y25.6083 
G01 X24.6860 Y25.4703 
G01 X24.6860 Y25.3297 
G01 X24.7134 Y25.1917 
G01 X24.7673 Y25.0618 
G01 X24.8454 Y24.9449 
G01 X24.9449 Y24.8454 
G01 X25.0618 Y24.7673 
G01 X25.1917 Y24.7134 
G01 X25.3297 Y24.6860 
G01 X25.4703 Y24.6860 
G01 X25.6083 Y24.7134 
G01 X25.7382 Y24.7673 
G01 X25.8551 Y24.8454 
G01 X25.9546 Y24.9449 
G01 X26.0327 Y25.0618 
G01 X26.0866 Y25.1917 
G01 X26.1140 Y25.3297 
G00 Z1.0000 
G00 X49.9200 Y5.5751 
G01 Z-0.1000 F500.00 
G01 X49.9200 Y7.1249 
G01 X49.8849 Y7.1600 
G01 X49.4732 Y7.1600 
G01 X49.4732 Y9.2447 
G01 X49.4553 Y9.3116 
G01 X49.4206 Y9.3716 
G01 X49.3716 Y9.4206 
G01 X48.5232 Y10.2690 
G01 X48.5232 Y24.7362 
G01 X48.5982 Y24.7673 
G01 X48.7023 Y24.8368 
G01 X48.7881 Y24.8368 
G01 X48.8232 Y24.8719 
G01 X48.8232 Y24.9577 
G01 X48.8927 Y25.0618 
G01 X48.9466 Y25.1917 
G01 X48.9740 Y25.3297 
G01 X48.9740 Y25.4703 
G01 X48.9466 Y25.6083 
G01 X48.8927 Y25.7382 
G01 X48.8232 Y25.8423 
G01 X48.8232 Y25.9281 
G01 X48.7881 Y25.9632 
G01 X48.7023 Y25.9632 
G01 X48.5982 Y26.0327 
G01 X48.4683 Y26.0866 
G01 X48.3303 Y26.1140 
G01 X48.1897 Y26.1140 
G01 X48.0517 Y26.0866 
G01 X47.9218 Y26.0327 
G01 X47.8177 Y25.9632 
G01 X47.7319 Y25.9632 
G01 X47.6968 Y25.9281 
G01 X47.6968 Y25.8423 
G01 X47.6273 Y25.7382 
G01 X47.5734 Y25.6083 
G01 X47.5460 Y25.4703 
G01 X47.5460 Y25.3297 
G01 X47.5734 Y25.1917 
G01 X47.6273 Y25.0618 
G01 X47.6968 Y24.9577 
G01 X47.6968 Y24.8719 
G01 X47.7319 Y24.8368 
G01 X47.8177 Y24.8368 
G01 X47.9218 Y24.7673 
G01 X47.9968 Y24.7362 
G01 X47.9968 Y10.1253 
G01 X48.0147 Y10.0584 
G01 X48.0494 Y9.9984 
G01 X48.9468 Y9.1010 
G01 X48.9468 Y7.1600 
G01 X48.5351 Y7.1600 
G01 X48.5000 Y7.1249 
G01 X48.5000 Y5.5751 
G01 X48.5351 Y5.5400 
G01 X49.8849 Y5.5400 
G01 X49.9200 Y5.5751 
G00 Z1.0000 
G00 X48.0200 Y5.5751 
G01 Z-0.1000 F500.00 
G01 X48.0200 Y7.1249 
G01 X47.9849 Y7.1600 
G01 X47.5732 Y7.1600 
G01 X47.5732 Y7.3347 
G01 X47.5553 Y7.4016 
G01 X47.5206 Y7.4616 
G01 X47.4716 Y7.5106 
G01 X41.5200 Y13.4622 
G01 X41.5200 Y14.1749 
G01 X41.4849 Y14.2100 
G01 X40.4351 Y14.2100 
G01 X40.4000 Y14.1749 
G01 X40.4000 Y13.1251 
G01 X40.4351 Y13.0900 
G01 X41.1478 Y13.0900 
G01 X47.0468 Y7.1910 
G01 X47.0468 Y7.1600 
G01 X46.6351 Y7.1600 
G01 X46.6000 Y7.1249 
G01 X46.6000 Y5.5751 
G01 X46.6351 Y5.5400 
G01 X47.9849 Y5.5400 
G01 X48.0200 Y5.5751 
G00 Z1.0000 
G00 X39.6400 Y13.1251 
G01 Z-0.1000 F500.00 
G01 X39.6400 Y14.1749 
G01 X39.6048 Y14.2100 
G01 X38.5551 Y14.2100 
G01 X38.5200 Y14.1749 
G01 X38.5200 Y13.6556 
G01 X37.7111 Y13.2352 
G01 X36.7919 Y12.9632 
G01 X31.7153 Y12.9632 
G01 X31.6484 Y12.9453 
G01 X31.5884 Y12.9106 
G01 X30.3184 Y11.6406 
G01 X30.2694 Y11.5916 
G01 X30.2347 Y11.5316 
G01 X30.2168 Y11.4647 
G01 X30.2168 Y3.7753 
G01 X30.2347 Y3.7084 
G01 X30.2694 Y3.6484 
G01 X31.5394 Y2.3784 
G01 X31.5884 Y2.3294 
G01 X31.6484 Y2.2947 
G01 X31.7153 Y2.2768 
G01 X46.6000 Y2.2768 
G01 X46.6000 Y1.7651 
G01 X46.6351 Y1.7300 
G01 X47.9849 Y1.7300 
G01 X48.0200 Y1.7651 
G01 X48.0200 Y3.3149 
G01 X47.9849 Y3.3500 
G01 X46.6351 Y3.3500 
G01 X46.6000 Y3.3149 
G01 X46.6000 Y2.8032 
G01 X31.8590 Y2.8032 
G01 X30.7432 Y3.9190 
G01 X30.7432 Y11.3210 
G01 X31.8590 Y12.4368 
G01 X36.7988 Y12.4368 
G01 X36.8022 Y12.4360 
G01 X36.8334 Y12.4368 
G01 X36.8647 Y12.4368 
G01 X36.8680 Y12.4377 
G01 X36.8715 Y12.4378 
G01 X36.9014 Y12.4466 
G01 X36.9316 Y12.4547 
G01 X36.9346 Y12.4565 
G01 X37.8758 Y12.7350 
G01 X37.9006 Y12.7405 
G01 X37.9089 Y12.7448 
G01 X37.9179 Y12.7475 
G01 X37.9396 Y12.7607 
G01 X38.5732 Y13.0900 
G01 X39.6048 Y13.0900 
G01 X39.6400 Y13.1251 
G00 Z1.0000 
G00 X41.5200 Y15.0051 
G01 Z-0.1000 F500.00 
G01 X41.5200 Y15.7178 
G01 X42.0716 Y16.2694 
G01 X42.1206 Y16.3184 
G01 X42.1553 Y16.3784 
G01 X42.1732 Y16.4453 
G01 X42.1732 Y18.6600 
G01 X42.6849 Y18.6600 
G01 X42.7200 Y18.6951 
G01 X42.7200 Y20.0449 
G01 X42.6849 Y20.0800 
G01 X41.1351 Y20.0800 
G01 X41.1000 Y20.0449 
G01 X41.1000 Y18.6951 
G01 X41.1351 Y18.6600 
G01 X41.6468 Y18.6600 
G01 X41.6468 Y16.5890 
G01 X41.1478 Y16.0900 
G01 X40.4351 Y16.0900 
G01 X40.4000 Y16.0549 
G01 X40.4000 Y15.0051 
G01 X40.4351 Y14.9700 
G01 X41.4849 Y14.9700 
G01 X41.5200 Y15.0051 
G00 Z1.0000 
G00 X82.3650 Y2.4566 
G01 Z-0.1000 F500.00 
G01 X82.3650 Y2.6234 
G01 X82.3389 Y2.7882 
G01 X82.2873 Y2.9469 
G01 X82.2116 Y3.0956 
G01 X82.1135 Y3.2305 
G01 X81.9955 Y3.3485 
G01 X81.8606 Y3.4466 
G01 X81.7119 Y3.5223 
G01 X81.5532 Y3.5739 
G01 X81.3884 Y3.6000 
G01 X81.2216 Y3.6000 
G01 X81.0568 Y3.5739 
G01 X80.8981 Y3.5223 
G01 X80.7494 Y3.4466 
G01 X80.6145 Y3.3485 
G01 X80.4965 Y3.2305 
G01 X80.3984 Y3.0956 
G01 X80.3227 Y2.9469 
G01 X80.2711 Y2.7882 
G01 X80.2450 Y2.6234 
G01 X80.2450 Y2.4566 
G01 X80.2711 Y2.2918 
G01 X80.3227 Y2.1331 
G01 X80.3984 Y1.9844 
G01 X80.4965 Y1.8495 
G01 X80.6145 Y1.7315 
G01 X80.7494 Y1.6334 
G01 X80.8981 Y1.5577 
G01 X81.0568 Y1.5061 
G01 X81.2216 Y1.4800 
G01 X81.3884 Y1.4800 
G01 X81.5532 Y1.5061 
G01 X81.7119 Y1.5577 
G01 X81.8606 Y1.6334 
G01 X81.9955 Y1.7315 
G01 X82.1135 Y1.8495 
G01 X82.2116 Y1.9844 
G01 X82.2873 Y2.1331 
G01 X82.3389 Y2.2918 
G01 X82.3650 Y2.4566 
G00 Z1.0000 
G00 X82.3650 Y7.5366 
G01 Z-0.1000 F500.00 
G01 X82.3650 Y7.7034 
G01 X82.3389 Y7.8682 
G01 X82.2873 Y8.0269 
G01 X82.2116 Y8.1756 
G01 X82.1135 Y8.3105 
G01 X81.9955 Y8.4285 
G01 X81.8606 Y8.5266 
G01 X81.7119 Y8.6023 
G01 X81.5532 Y8.6539 
G01 X81.3884 Y8.6800 
G01 X81.2216 Y8.6800 
G01 X81.0568 Y8.6539 
G01 X80.8981 Y8.6023 
G01 X80.7494 Y8.5266 
G01 X80.6145 Y8.4285 
G01 X80.4965 Y8.3105 
G01 X80.3984 Y8.1756 
G01 X80.3227 Y8.0269 
G01 X80.2711 Y7.8682 
G01 X80.2450 Y7.7034 
G01 X80.2450 Y7.5366 
G01 X80.2711 Y7.3718 
G01 X80.3227 Y7.2131 
G01 X80.3984 Y7.0644 
G01 X80.4965 Y6.9295 
G01 X80.6145 Y6.8115 
G01 X80.7494 Y6.7134 
G01 X80.8981 Y6.6377 
G01 X81.0568 Y6.5861 
G01 X81.2216 Y6.5600 
G01 X81.3884 Y6.5600 
G01 X81.5532 Y6.5861 
G01 X81.7119 Y6.6377 
G01 X81.8606 Y6.7134 
G01 X81.9955 Y6.8115 
G01 X82.1135 Y6.9295 
G01 X82.2116 Y7.0644 
G01 X82.2873 Y7.2131 
G01 X82.3389 Y7.3718 
G01 X82.3650 Y7.5366 
G00 Z1.0000 
G00 X82.3650 Y12.6166 
G01 Z-0.1000 F500.00 
G01 X82.3650 Y12.7834 
G01 X82.3389 Y12.9482 
G01 X82.2873 Y13.1069 
G01 X82.2116 Y13.2556 
G01 X82.1135 Y13.3905 
G01 X81.9955 Y13.5085 
G01 X81.8606 Y13.6066 
G01 X81.7119 Y13.6823 
G01 X81.5532 Y13.7339 
G01 X81.3884 Y13.7600 
G01 X81.2216 Y13.7600 
G01 X81.0568 Y13.7339 
G01 X80.8981 Y13.6823 
G01 X80.7494 Y13.6066 
G01 X80.6145 Y13.5085 
G01 X80.4965 Y13.3905 
G01 X80.3984 Y13.2556 
G01 X80.3227 Y13.1069 
G01 X80.2711 Y12.9482 
G01 X80.2450 Y12.7834 
G01 X80.2450 Y12.6166 
G01 X80.2711 Y12.4518 
G01 X80.3227 Y12.2931 
G01 X80.3984 Y12.1444 
G01 X80.4965 Y12.0095 
G01 X80.6145 Y11.8915 
G01 X80.7494 Y11.7934 
G01 X80.8981 Y11.7177 
G01 X81.0568 Y11.6661 
G01 X81.2216 Y11.6400 
G01 X81.3884 Y11.6400 
G01 X81.5532 Y11.6661 
G01 X81.7119 Y11.7177 
G01 X81.8606 Y11.7934 
G01 X81.9955 Y11.8915 
G01 X82.1135 Y12.0095 
G01 X82.2116 Y12.1444 
G01 X82.2873 Y12.2931 
G01 X82.3389 Y12.4518 
G01 X82.3650 Y12.6166 
G00 Z1.0000 
G00 X82.3650 Y17.6966 
G01 Z-0.1000 F500.00 
G01 X82.3650 Y17.8634 
G01 X82.3389 Y18.0282 
G01 X82.2873 Y18.1869 
G01 X82.2116 Y18.3356 
G01 X82.1135 Y18.4705 
G01 X81.9955 Y18.5885 
G01 X81.8606 Y18.6866 
G01 X81.7119 Y18.7623 
G01 X81.5532 Y18.8139 
G01 X81.3884 Y18.8400 
G01 X81.2216 Y18.8400 
G01 X81.0568 Y18.8139 
G01 X80.8981 Y18.7623 
G01 X80.7494 Y18.6866 
G01 X80.6145 Y18.5885 
G01 X80.4965 Y18.4705 
G01 X80.3984 Y18.3356 
G01 X80.3227 Y18.1869 
G01 X80.2711 Y18.0282 
G01 X80.2450 Y17.8634 
G01 X80.2450 Y17.6966 
G01 X80.2711 Y17.5318 
G01 X80.3227 Y17.3731 
G01 X80.3984 Y17.2244 
G01 X80.4965 Y17.0895 
G01 X80.6145 Y16.9715 
G01 X80.7494 Y16.8734 
G01 X80.8981 Y16.7977 
G01 X81.0568 Y16.7461 
G01 X81.2216 Y16.7200 
G01 X81.3884 Y16.7200 
G01 X81.5532 Y16.7461 
G01 X81.7119 Y16.7977 
G01 X81.8606 Y16.8734 
G01 X81.9955 Y16.9715 
G01 X82.1135 Y17.0895 
G01 X82.2116 Y17.2244 
G01 X82.2873 Y17.3731 
G01 X82.3389 Y17.5318 
G01 X82.3650 Y17.6966 
G00 Z1.0000 
G00 X82.3650 Y22.7766 
G01 Z-0.1000 F500.00 
G01 X82.3650 Y22.9434 
G01 X82.3389 Y23.1082 
G01 X82.2873 Y23.2669 
G01 X82.2116 Y23.4156 
G01 X82.1135 Y23.5505 
G01 X81.9955 Y23.6685 
G01 X81.8606 Y23.7666 
G01 X81.7119 Y23.8423 
G01 X81.5532 Y23.8939 
G01 X81.3884 Y23.9200 
G01 X81.2216 Y23.9200 
G01 X81.0568 Y23.8939 
G01 X80.8981 Y23.8423 
G01 X80.7494 Y23.7666 
G01 X80.6145 Y23.6685 
G01 X80.4965 Y23.5505 
G01 X80.3984 Y23.4156 
G01 X80.3227 Y23.2669 
G01 X80.2711 Y23.1082 
G01 X80.2450 Y22.9434 
G01 X80.2450 Y22.7766 
G01 X80.2711 Y22.6118 
G01 X80.3227 Y22.4531 
G01 X80.3984 Y22.3044 
G01 X80.4965 Y22.1695 
G01 X80.6145 Y22.0515 
G01 X80.7494 Y21.9534 
G01 X80.8981 Y21.8777 
G01 X81.0568 Y21.8261 
G01 X81.2216 Y21.8000 
G01 X81.3884 Y21.8000 
G01 X81.5532 Y21.8261 
G01 X81.7119 Y21.8777 
G01 X81.8606 Y21.9534 
G01 X81.9955 Y22.0515 
G01 X82.1135 Y22.1695 
G01 X82.2116 Y22.3044 
G01 X82.2873 Y22.4531 
G01 X82.3389 Y22.6118 
G01 X82.3650 Y22.7766 
G00 Z1.0000 
G00 X82.3650 Y27.8566 
G01 Z-0.1000 F500.00 
G01 X82.3650 Y28.0234 
G01 X82.3389 Y28.1882 
G01 X82.2873 Y28.3469 
G01 X82.2116 Y28.4956 
G01 X82.1135 Y28.6305 
G01 X81.9955 Y28.7485 
G01 X81.8606 Y28.8466 
G01 X81.7119 Y28.9223 
G01 X81.5532 Y28.9739 
G01 X81.3884 Y29.0000 
G01 X81.2216 Y29.0000 
G01 X81.0568 Y28.9739 
G01 X80.8981 Y28.9223 
G01 X80.7494 Y28.8466 
G01 X80.6145 Y28.7485 
G01 X80.4965 Y28.6305 
G01 X80.3984 Y28.4956 
G01 X80.3227 Y28.3469 
G01 X80.2711 Y28.1882 
G01 X80.2450 Y28.0234 
G01 X80.2450 Y27.8566 
G01 X80.2711 Y27.6918 
G01 X80.3227 Y27.5331 
G01 X80.3984 Y27.3844 
G01 X80.4965 Y27.2495 
G01 X80.6145 Y27.1315 
G01 X80.7494 Y27.0334 
G01 X80.8981 Y26.9577 
G01 X81.0568 Y26.9061 
G01 X81.2216 Y26.8800 
G01 X81.3884 Y26.8800 
G01 X81.5532 Y26.9061 
G01 X81.7119 Y26.9577 
G01 X81.8606 Y27.0334 
G01 X81.9955 Y27.1315 
G01 X82.1135 Y27.2495 
G01 X82.2116 Y27.3844 
G01 X82.2873 Y27.5331 
G01 X82.3389 Y27.6918 
G01 X82.3650 Y27.8566 
G00 Z1.0000 
G00 X4.8950 Y2.4566 
G01 Z-0.1000 F500.00 
G01 X4.8950 Y2.6234 
G01 X4.8689 Y2.7882 
G01 X4.8173 Y2.9469 
G01 X4.7416 Y3.0956 
G01 X4.6435 Y3.2305 
G01 X4.5255 Y3.3485 
G01 X4.3906 Y3.4466 
G01 X4.2419 Y3.5223 
G01 X4.0832 Y3.5739 
G01 X3.9184 Y3.6000 
G01 X3.7516 Y3.6000 
G01 X3.5868 Y3.5739 
G01 X3.4281 Y3.5223 
G01 X3.2794 Y3.4466 
G01 X3.1445 Y3.3485 
G01 X3.0265 Y3.2305 
G01 X2.9284 Y3.0956 
G01 X2.8527 Y2.9469 
G01 X2.8011 Y2.7882 
G01 X2.7750 Y2.6234 
G01 X2.7750 Y2.4566 
G01 X2.8011 Y2.2918 
G01 X2.8527 Y2.1331 
G01 X2.9284 Y1.9844 
G01 X3.0265 Y1.8495 
G01 X3.1445 Y1.7315 
G01 X3.2794 Y1.6334 
G01 X3.4281 Y1.5577 
G01 X3.5868 Y1.5061 
G01 X3.7516 Y1.4800 
G01 X3.9184 Y1.4800 
G01 X4.0832 Y1.5061 
G01 X4.2419 Y1.5577 
G01 X4.3906 Y1.6334 
G01 X4.5255 Y1.7315 
G01 X4.6435 Y1.8495 
G01 X4.7416 Y1.9844 
G01 X4.8173 Y2.1331 
G01 X4.8689 Y2.2918 
G01 X4.8950 Y2.4566 
G00 Z1.0000 
G00 X4.8950 Y7.5366 
G01 Z-0.1000 F500.00 
G01 X4.8950 Y7.7034 
G01 X4.8689 Y7.8682 
G01 X4.8173 Y8.0269 
G01 X4.7416 Y8.1756 
G01 X4.6435 Y8.3105 
G01 X4.5255 Y8.4285 
G01 X4.3906 Y8.5266 
G01 X4.2419 Y8.6023 
G01 X4.0832 Y8.6539 
G01 X3.9184 Y8.6800 
G01 X3.7516 Y8.6800 
G01 X3.5868 Y8.6539 
G01 X3.4281 Y8.6023 
G01 X3.2794 Y8.5266 
G01 X3.1445 Y8.4285 
G01 X3.0265 Y8.3105 
G01 X2.9284 Y8.1756 
G01 X2.8527 Y8.0269 
G01 X2.8011 Y7.8682 
G01 X2.7750 Y7.7034 
G01 X2.7750 Y7.5366 
G01 X2.8011 Y7.3718 
G01 X2.8527 Y7.2131 
G01 X2.9284 Y7.0644 
G01 X3.0265 Y6.9295 
G01 X3.1445 Y6.8115 
G01 X3.2794 Y6.7134 
G01 X3.4281 Y6.6377 
G01 X3.5868 Y6.5861 
G01 X3.7516 Y6.5600 
G01 X3.9184 Y6.5600 
G01 X4.0832 Y6.5861 
G01 X4.2419 Y6.6377 
G01 X4.3906 Y6.7134 
G01 X4.5255 Y6.8115 
G01 X4.6435 Y6.9295 
G01 X4.7416 Y7.0644 
G01 X4.8173 Y7.2131 
G01 X4.8689 Y7.3718 
G01 X4.8950 Y7.5366 
G00 Z1.0000 
G00 X4.8950 Y12.6166 
G01 Z-0.1000 F500.00 
G01 X4.8950 Y12.7834 
G01 X4.8689 Y12.9482 
G01 X4.8173 Y13.1069 
G01 X4.7416 Y13.2556 
G01 X4.6435 Y13.3905 
G01 X4.5255 Y13.5085 
G01 X4.3906 Y13.6066 
G01 X4.2419 Y13.6823 
G01 X4.0832 Y13.7339 
G01 X3.9184 Y13.7600 
G01 X3.7516 Y13.7600 
G01 X3.5868 Y13.7339 
G01 X3.4281 Y13.6823 
G01 X3.2794 Y13.6066 
G01 X3.1445 Y13.5085 
G01 X3.0265 Y13.3905 
G01 X2.9284 Y13.2556 
G01 X2.8527 Y13.1069 
G01 X2.8011 Y12.9482 
G01 X2.7750 Y12.7834 
G01 X2.7750 Y12.6166 
G01 X2.8011 Y12.4518 
G01 X2.8527 Y12.2931 
G01 X2.9284 Y12.1444 
G01 X3.0265 Y12.0095 
G01 X3.1445 Y11.8915 
G01 X3.2794 Y11.7934 
G01 X3.4281 Y11.7177 
G01 X3.5868 Y11.6661 
G01 X3.7516 Y11.6400 
G01 X3.9184 Y11.6400 
G01 X4.0832 Y11.6661 
G01 X4.2419 Y11.7177 
G01 X4.3906 Y11.7934 
G01 X4.5255 Y11.8915 
G01 X4.6435 Y12.0095 
G01 X4.7416 Y12.1444 
G01 X4.8173 Y12.2931 
G01 X4.8689 Y12.4518 
G01 X4.8950 Y12.6166 
G00 Z1.0000 
G00 X4.8950 Y17.6966 
G01 Z-0.1000 F500.00 
G01 X4.8950 Y17.8634 
G01 X4.8689 Y18.0282 
G01 X4.8173 Y18.1869 
G01 X4.7416 Y18.3356 
G01 X4.6435 Y18.4705 
G01 X4.5255 Y18.5885 
G01 X4.3906 Y18.6866 
G01 X4.2419 Y18.7623 
G01 X4.0832 Y18.8139 
G01 X3.9184 Y18.8400 
G01 X3.7516 Y18.8400 
G01 X3.5868 Y18.8139 
G01 X3.4281 Y18.7623 
G01 X3.2794 Y18.6866 
G01 X3.1445 Y18.5885 
G01 X3.0265 Y18.4705 
G01 X2.9284 Y18.3356 
G01 X2.8527 Y18.1869 
G01 X2.8011 Y18.0282 
G01 X2.7750 Y17.8634 
G01 X2.7750 Y17.6966 
G01 X2.8011 Y17.5318 
G01 X2.8527 Y17.3731 
G01 X2.9284 Y17.2244 
G01 X3.0265 Y17.0895 
G01 X3.1445 Y16.9715 
G01 X3.2794 Y16.8734 
G01 X3.4281 Y16.7977 
G01 X3.5868 Y16.7461 
G01 X3.7516 Y16.7200 
G01 X3.9184 Y16.7200 
G01 X4.0832 Y16.7461 
G01 X4.2419 Y16.7977 
G01 X4.3906 Y16.8734 
G01 X4.5255 Y16.9715 
G01 X4.6435 Y17.0895 
G01 X4.7416 Y17.2244 
G01 X4.8173 Y17.3731 
G01 X4.8689 Y17.5318 
G01 X4.8950 Y17.6966 
G00 Z1.0000 
G00 X4.8950 Y22.7766 
G01 Z-0.1000 F500.00 
G01 X4.8950 Y22.9434 
G01 X4.8689 Y23.1082 
G01 X4.8173 Y23.2669 
G01 X4.7416 Y23.4156 
G01 X4.6435 Y23.5505 
G01 X4.5255 Y23.6685 
G01 X4.3906 Y23.7666 
G01 X4.2419 Y23.8423 
G01 X4.0832 Y23.8939 
G01 X3.9184 Y23.9200 
G01 X3.7516 Y23.9200 
G01 X3.5868 Y23.8939 
G01 X3.4281 Y23.8423 
G01 X3.2794 Y23.7666 
G01 X3.1445 Y23.6685 
G01 X3.0265 Y23.5505 
G01 X2.9284 Y23.4156 
G01 X2.8527 Y23.2669 
G01 X2.8011 Y23.1082 
G01 X2.7750 Y22.9434 
G01 X2.7750 Y22.7766 
G01 X2.8011 Y22.6118 
G01 X2.8527 Y22.4531 
G01 X2.9284 Y22.3044 
G01 X3.0265 Y22.1695 
G01 X3.1445 Y22.0515 
G01 X3.2794 Y21.9534 
G01 X3.4281 Y21.8777 
G01 X3.5868 Y21.8261 
G01 X3.7516 Y21.8000 
G01 X3.9184 Y21.8000 
G01 X4.0832 Y21.8261 
G01 X4.2419 Y21.8777 
G01 X4.3906 Y21.9534 
G01 X4.5255 Y22.0515 
G01 X4.6435 Y22.1695 
G01 X4.7416 Y22.3044 
G01 X4.8173 Y22.4531 
G01 X4.8689 Y22.6118 
G01 X4.8950 Y22.7766 
G00 Z1.0000 
G00 X4.8950 Y27.8566 
G01 Z-0.1000 F500.00 
G01 X4.8950 Y28.0234 
G01 X4.8689 Y28.1882 
G01 X4.8173 Y28.3469 
G01 X4.7416 Y28.4956 
G01 X4.6435 Y28.6305 
G01 X4.5255 Y28.7485 
G01 X4.3906 Y28.8466 
G01 X4.2419 Y28.9223 
G01 X4.0832 Y28.9739 
G01 X3.9184 Y29.0000 
G01 X3.7516 Y29.0000 
G01 X3.5868 Y28.9739 
G01 X3.4281 Y28.9223 
G01 X3.2794 Y28.8466 
G01 X3.1445 Y28.7485 
G01 X3.0265 Y28.6305 
G01 X2.9284 Y28.4956 
G01 X2.8527 Y28.3469 
G01 X2.8011 Y28.1882 
G01 X2.7750 Y28.0234 
G01 X2.7750 Y27.8566 
G01 X2.8011 Y27.6918 
G01 X2.8527 Y27.5331 
G01 X2.9284 Y27.3844 
G01 X3.0265 Y27.2495 
G01 X3.1445 Y27.1315 
G01 X3.2794 Y27.0334 
G01 X3.4281 Y26.9577 
G01 X3.5868 Y26.9061 
G01 X3.7516 Y26.8800 
G01 X3.9184 Y26.8800 
G01 X4.0832 Y26.9061 
G01 X4.2419 Y26.9577 
G01 X4.3906 Y27.0334 
G01 X4.5255 Y27.1315 
G01 X4.6435 Y27.2495 
G01 X4.7416 Y27.3844 
G01 X4.8173 Y27.5331 
G01 X4.8689 Y27.6918 
G01 X4.8950 Y27.8566 
G00 Z1.0000 
G00 X76.0440 Y1.3711 
G01 Z-0.1000 F500.00 
G01 X76.0440 Y2.7288 
G01 X76.0089 Y2.7640 
G01 X74.6511 Y2.7640 
G01 X74.6160 Y2.7288 
G01 X74.6160 Y1.3711 
G01 X74.6511 Y1.3360 
G01 X76.0089 Y1.3360 
G01 X76.0440 Y1.3711 
G00 Z1.0000 
G00 X76.0440 Y11.3711 
G01 Z-0.1000 F500.00 
G01 X76.0440 Y12.7289 
G01 X76.0089 Y12.7640 
G01 X74.6511 Y12.7640 
G01 X74.6160 Y12.7289 
G01 X74.6160 Y11.3711 
G01 X74.6511 Y11.3360 
G01 X76.0089 Y11.3360 
G01 X76.0440 Y11.3711 
G00 Z1.0000 
G00 X59.7240 Y1.4711 
G01 Z-0.1000 F500.00 
G01 X59.7240 Y2.8289 
G01 X59.6889 Y2.8640 
G01 X58.3311 Y2.8640 
G01 X58.2960 Y2.8289 
G01 X58.2960 Y1.4711 
G01 X58.3311 Y1.4360 
G01 X59.6889 Y1.4360 
G01 X59.7240 Y1.4711 
G00 Z1.0000 
G00 X59.8240 Y11.3711 
G01 Z-0.1000 F500.00 
G01 X59.8240 Y12.7289 
G01 X59.7889 Y12.7640 
G01 X58.4311 Y12.7640 
G01 X58.3960 Y12.7289 
G01 X58.3960 Y11.3711 
G01 X58.4311 Y11.3360 
G01 X59.7889 Y11.3360 
G01 X59.8240 Y11.3711 
G00 Z1.0000 
G00 X53.9032 Y7.0919 
G01 Z-0.1000 F500.00 
G01 X53.9032 Y8.1480 
G01 X53.8681 Y8.1832 
G01 X52.8119 Y8.1832 
G01 X52.7768 Y8.1480 
G01 X52.7768 Y7.0919 
G01 X52.8119 Y7.0568 
G01 X53.0768 Y7.0568 
G01 X53.0768 Y3.9190 
G01 X51.9610 Y2.8032 
G01 X49.9200 Y2.8032 
G01 X49.9200 Y3.3149 
G01 X49.8849 Y3.3500 
G01 X48.5351 Y3.3500 
G01 X48.5000 Y3.3149 
G01 X48.5000 Y1.7651 
G01 X48.5351 Y1.7300 
G01 X49.8849 Y1.7300 
G01 X49.9200 Y1.7651 
G01 X49.9200 Y2.2768 
G01 X52.1046 Y2.2768 
G01 X52.1716 Y2.2947 
G01 X52.2316 Y2.3294 
G01 X52.2806 Y2.3784 
G01 X52.2806 Y2.3784 
G01 X53.5506 Y3.6484 
G01 X53.5853 Y3.7084 
G01 X53.6032 Y3.7753 
G01 X53.6032 Y7.0568 
G01 X53.8681 Y7.0568 
G01 X53.9032 Y7.0919 
(File Footer)
G00 Z1.0000 
G00 Z30.0000 
M05
M02
