( This gcode generated by /Applications/EAGLE-7.2.0/ulp/pcb-gcode.ulp )
( Copyright 2005 by John Johnson. See readme.txt for licensing terms. )

( This file generated from the board /Users/arminlanghofer/Documents/eagle/arduinosnullzaehler/snullv2.brd )
( This file generated 18.01.15 10:39 )

G21

G90
G00 Z30.0000 
G00 X0 Y0
M03
G04 P0.000000
G00 Z1.0000 
G00 X-22.6772 Y12.1417 
G01 Z-0.1000 F500.00 
G01 X-22.6772 Y12.4368 
G01 X-26.5610 Y12.4368 
G01 X-27.7784 Y11.2194 
G01 X-27.8384 Y11.1847 
G01 X-27.9053 Y11.1668 
G01 X-36.2200 Y11.1668 
G01 X-36.2200 Y11.0801 
G01 X-36.2551 Y11.0450 
G01 X-38.0049 Y11.0450 
G01 X-38.0400 Y11.0801 
G01 X-38.0400 Y11.7798 
G01 X-38.0049 Y11.8150 
G01 X-36.2551 Y11.8150 
G01 X-36.2200 Y11.7798 
G01 X-36.2200 Y11.6932 
G01 X-28.0490 Y11.6932 
G01 X-26.8806 Y12.8616 
G01 X-26.8316 Y12.9106 
G01 X-26.7716 Y12.9453 
G01 X-26.7047 Y12.9632 
G01 X-22.6772 Y12.9632 
G01 X-22.6772 Y13.2583 
G01 X-22.6421 Y13.2934 
G01 X-20.4079 Y13.2934 
G01 X-20.3728 Y13.2583 
G01 X-20.3728 Y12.1417 
G01 X-20.4079 Y12.1066 
G01 X-22.6421 Y12.1066 
G01 X-22.6772 Y12.1417 
G00 Z1.0000 
G00 X-61.1428 Y11.1668 
G01 Z-0.1000 F500.00 
G01 X-61.1428 Y10.8717 
G01 X-61.1779 Y10.8366 
G01 X-63.4121 Y10.8366 
G01 X-63.4472 Y10.8717 
G01 X-63.4472 Y11.9883 
G01 X-63.4121 Y12.0234 
G01 X-61.2232 Y12.0234 
G01 X-61.2232 Y12.7347 
G01 X-61.2053 Y12.8016 
G01 X-61.1706 Y12.8616 
G01 X-59.9006 Y14.1316 
G01 X-59.8516 Y14.1806 
G01 X-59.7916 Y14.2153 
G01 X-59.7247 Y14.2332 
G01 X-55.8453 Y14.2332 
G01 X-55.7784 Y14.2153 
G01 X-55.7184 Y14.1806 
G01 X-53.2310 Y11.6932 
G01 X-47.6000 Y11.6932 
G01 X-47.6000 Y11.7798 
G01 X-47.5648 Y11.8150 
G01 X-45.8151 Y11.8150 
G01 X-45.7800 Y11.7798 
G01 X-45.7800 Y11.0801 
G01 X-45.8151 Y11.0450 
G01 X-47.5648 Y11.0450 
G01 X-47.6000 Y11.0801 
G01 X-47.6000 Y11.1668 
G01 X-53.3747 Y11.1668 
G01 X-53.4416 Y11.1847 
G01 X-53.5016 Y11.2194 
G01 X-53.5506 Y11.2684 
G01 X-55.9890 Y13.7068 
G01 X-59.5810 Y13.7068 
G01 X-60.6968 Y12.5910 
G01 X-60.6968 Y11.3953 
G01 X-60.7147 Y11.3284 
G01 X-60.7494 Y11.2684 
G01 X-60.7984 Y11.2194 
G01 X-60.8584 Y11.1847 
G01 X-60.9253 Y11.1668 
G01 X-60.9947 Y11.1668 
G01 X-61.1428 Y11.1668 
G00 Z1.0000 
G00 X-61.1428 Y17.0683 
G01 Z-0.1000 F500.00 
G01 X-61.1428 Y16.7732 
G01 X-54.5753 Y16.7732 
G01 X-54.5084 Y16.7553 
G01 X-54.4484 Y16.7206 
G01 X-50.6910 Y12.9632 
G01 X-47.6000 Y12.9632 
G01 X-47.6000 Y13.0499 
G01 X-47.5648 Y13.0850 
G01 X-45.8151 Y13.0850 
G01 X-45.7800 Y13.0499 
G01 X-45.7800 Y12.3501 
G01 X-45.8151 Y12.3150 
G01 X-47.5648 Y12.3150 
G01 X-47.6000 Y12.3501 
G01 X-47.6000 Y12.4368 
G01 X-50.8347 Y12.4368 
G01 X-50.9016 Y12.4547 
G01 X-50.9616 Y12.4894 
G01 X-51.0106 Y12.5384 
G01 X-54.7190 Y16.2468 
G01 X-61.1428 Y16.2468 
G01 X-61.1428 Y15.9517 
G01 X-61.1779 Y15.9166 
G01 X-63.4121 Y15.9166 
G01 X-63.4472 Y15.9517 
G01 X-63.4472 Y17.0683 
G01 X-63.4121 Y17.1034 
G01 X-61.1779 Y17.1034 
G01 X-61.1428 Y17.0683 
G00 Z1.0000 
G00 X-71.0028 Y17.0683 
G01 Z-0.1000 F500.00 
G01 X-71.0028 Y15.9517 
G01 X-71.0379 Y15.9166 
G01 X-73.2721 Y15.9166 
G01 X-73.3072 Y15.9517 
G01 X-73.3072 Y16.2468 
G01 X-73.6947 Y16.2468 
G01 X-73.7616 Y16.2647 
G01 X-73.8216 Y16.2994 
G01 X-75.0916 Y17.5694 
G01 X-75.1406 Y17.6184 
G01 X-75.1753 Y17.6784 
G01 X-75.1932 Y17.7453 
G01 X-75.1932 Y20.2110 
G01 X-76.3630 Y21.3808 
G01 X-76.3647 Y21.3818 
G01 X-76.3876 Y21.4054 
G01 X-76.4106 Y21.4284 
G01 X-76.4116 Y21.4301 
G01 X-76.4130 Y21.4316 
G01 X-76.4290 Y21.4602 
G01 X-76.4453 Y21.4884 
G01 X-76.4458 Y21.4903 
G01 X-76.4468 Y21.4921 
G01 X-76.4547 Y21.5238 
G01 X-76.4632 Y21.5553 
G01 X-76.4632 Y21.5574 
G01 X-76.5873 Y22.0500 
G01 X-77.1949 Y22.0500 
G01 X-77.2300 Y22.0851 
G01 X-77.2300 Y23.6349 
G01 X-77.1949 Y23.6700 
G01 X-75.8451 Y23.6700 
G01 X-75.8100 Y23.6349 
G01 X-75.8100 Y22.0851 
G01 X-75.8451 Y22.0500 
G01 X-76.0445 Y22.0500 
G01 X-75.9625 Y21.7247 
G01 X-74.7194 Y20.4816 
G01 X-74.6847 Y20.4216 
G01 X-74.6668 Y20.3546 
G01 X-74.6668 Y17.8890 
G01 X-73.5510 Y16.7732 
G01 X-73.3072 Y16.7732 
G01 X-73.3072 Y17.0683 
G01 X-73.2721 Y17.1034 
G01 X-71.0379 Y17.1034 
G01 X-71.0028 Y17.0683 
G00 Z1.0000 
G00 X-71.0028 Y22.1483 
G01 Z-0.1000 F500.00 
G01 X-71.0028 Y21.0317 
G01 X-71.0379 Y20.9966 
G01 X-73.2721 Y20.9966 
G01 X-73.3072 Y21.0317 
G01 X-73.3072 Y21.3268 
G01 X-73.6947 Y21.3268 
G01 X-73.7616 Y21.3447 
G01 X-73.8216 Y21.3794 
G01 X-75.0916 Y22.6494 
G01 X-75.1406 Y22.6984 
G01 X-75.1753 Y22.7584 
G01 X-75.1932 Y22.8253 
G01 X-75.1932 Y24.0210 
G01 X-76.3616 Y25.1894 
G01 X-76.4106 Y25.2384 
G01 X-76.4453 Y25.2984 
G01 X-76.4632 Y25.3653 
G01 X-76.4632 Y26.6374 
G01 X-76.5873 Y27.1300 
G01 X-77.1949 Y27.1300 
G01 X-77.2300 Y27.1651 
G01 X-77.2300 Y28.7149 
G01 X-77.1949 Y28.7500 
G01 X-75.8451 Y28.7500 
G01 X-75.8100 Y28.7149 
G01 X-75.8100 Y27.1651 
G01 X-75.8451 Y27.1300 
G01 X-76.0445 Y27.1300 
G01 X-75.9452 Y26.7361 
G01 X-75.9368 Y26.7047 
G01 X-75.9368 Y26.7027 
G01 X-75.9363 Y26.7007 
G01 X-75.9368 Y26.6679 
G01 X-75.9368 Y25.5090 
G01 X-74.7194 Y24.2916 
G01 X-74.6847 Y24.2316 
G01 X-74.6668 Y24.1647 
G01 X-74.6668 Y22.9690 
G01 X-73.5510 Y21.8532 
G01 X-73.3072 Y21.8532 
G01 X-73.3072 Y22.1483 
G01 X-73.2721 Y22.1834 
G01 X-71.0379 Y22.1834 
G01 X-71.0028 Y22.1483 
G00 Z1.0000 
G00 X-48.9740 Y25.3297 
G01 Z-0.1000 F500.00 
G01 X-48.9740 Y25.4703 
G01 X-48.9466 Y25.6083 
G01 X-48.8927 Y25.7382 
G01 X-48.8232 Y25.8423 
G01 X-48.8232 Y25.9281 
G01 X-48.7881 Y25.9632 
G01 X-48.7023 Y25.9632 
G01 X-48.5982 Y26.0327 
G01 X-48.4683 Y26.0866 
G01 X-48.3303 Y26.1140 
G01 X-48.1897 Y26.1140 
G01 X-48.0517 Y26.0866 
G01 X-47.9218 Y26.0327 
G01 X-47.8177 Y25.9632 
G01 X-47.7319 Y25.9632 
G01 X-47.6968 Y25.9281 
G01 X-47.6968 Y25.8423 
G01 X-47.6273 Y25.7382 
G01 X-47.5734 Y25.6083 
G01 X-47.5460 Y25.4703 
G01 X-47.5460 Y25.3297 
G01 X-47.5734 Y25.1917 
G01 X-47.6273 Y25.0618 
G01 X-47.6968 Y24.9577 
G01 X-47.6968 Y24.8719 
G01 X-47.7319 Y24.8368 
G01 X-47.8177 Y24.8368 
G01 X-47.9218 Y24.7673 
G01 X-48.0517 Y24.7134 
G01 X-48.1897 Y24.6860 
G01 X-48.3303 Y24.6860 
G01 X-48.4683 Y24.7134 
G01 X-48.5982 Y24.7673 
G01 X-48.7023 Y24.8368 
G01 X-48.7881 Y24.8368 
G01 X-48.8232 Y24.8719 
G01 X-48.8232 Y24.9577 
G01 X-48.8927 Y25.0618 
G01 X-48.9466 Y25.1917 
G01 X-48.9740 Y25.3297 
G00 Z1.0000 
G00 X-33.7340 Y10.0897 
G01 Z-0.1000 F500.00 
G01 X-33.7340 Y10.2303 
G01 X-33.7066 Y10.3683 
G01 X-33.6527 Y10.4982 
G01 X-33.5746 Y10.6151 
G01 X-33.4751 Y10.7146 
G01 X-33.3582 Y10.7927 
G01 X-33.2283 Y10.8466 
G01 X-33.0903 Y10.8740 
G01 X-32.9497 Y10.8740 
G01 X-32.8117 Y10.8466 
G01 X-32.6818 Y10.7927 
G01 X-32.5648 Y10.7146 
G01 X-32.4654 Y10.6151 
G01 X-32.3873 Y10.4982 
G01 X-32.3334 Y10.3683 
G01 X-32.3060 Y10.2303 
G01 X-32.3060 Y10.0897 
G01 X-32.3334 Y9.9517 
G01 X-32.3873 Y9.8218 
G01 X-32.4654 Y9.7049 
G01 X-32.5648 Y9.6054 
G01 X-32.6818 Y9.5273 
G01 X-32.8117 Y9.4734 
G01 X-32.9497 Y9.4460 
G01 X-33.0903 Y9.4460 
G01 X-33.2283 Y9.4734 
G01 X-33.3582 Y9.5273 
G01 X-33.4751 Y9.6054 
G01 X-33.5746 Y9.7049 
G01 X-33.6527 Y9.8218 
G01 X-33.7066 Y9.9517 
G01 X-33.7340 Y10.0897 
G00 Z1.0000 
G00 X-51.5140 Y10.0897 
G01 Z-0.1000 F500.00 
G01 X-51.5140 Y10.2303 
G01 X-51.4866 Y10.3683 
G01 X-51.4327 Y10.4982 
G01 X-51.3546 Y10.6151 
G01 X-51.2551 Y10.7146 
G01 X-51.1382 Y10.7927 
G01 X-51.0083 Y10.8466 
G01 X-50.8703 Y10.8740 
G01 X-50.7297 Y10.8740 
G01 X-50.5917 Y10.8466 
G01 X-50.4618 Y10.7927 
G01 X-50.3449 Y10.7146 
G01 X-50.2454 Y10.6151 
G01 X-50.1673 Y10.4982 
G01 X-50.1134 Y10.3683 
G01 X-50.0860 Y10.2303 
G01 X-50.0860 Y10.0897 
G01 X-50.1134 Y9.9517 
G01 X-50.1673 Y9.8218 
G01 X-50.2454 Y9.7049 
G01 X-50.3449 Y9.6054 
G01 X-50.4618 Y9.5273 
G01 X-50.5917 Y9.4734 
G01 X-50.7297 Y9.4460 
G01 X-50.8703 Y9.4460 
G01 X-51.0083 Y9.4734 
G01 X-51.0833 Y9.5045 
G01 X-52.7768 Y7.8110 
G01 X-52.7768 Y7.0919 
G01 X-52.8119 Y7.0568 
G01 X-53.8681 Y7.0568 
G01 X-53.9032 Y7.0919 
G01 X-53.9032 Y8.1480 
G01 X-53.8681 Y8.1832 
G01 X-53.1490 Y8.1832 
G01 X-51.4555 Y9.8767 
G01 X-51.4866 Y9.9517 
G01 X-51.5140 Y10.0897 
G00 Z1.0000 
G00 X-82.3650 Y7.5366 
G01 Z-0.1000 F500.00 
G01 X-82.3650 Y7.7034 
G01 X-82.3389 Y7.8682 
G01 X-82.2873 Y8.0269 
G01 X-82.2116 Y8.1756 
G01 X-82.1135 Y8.3105 
G01 X-81.9955 Y8.4285 
G01 X-81.8606 Y8.5266 
G01 X-81.7119 Y8.6023 
G01 X-81.5532 Y8.6539 
G01 X-81.3884 Y8.6800 
G01 X-81.2216 Y8.6800 
G01 X-81.0568 Y8.6539 
G01 X-80.8981 Y8.6023 
G01 X-80.7494 Y8.5266 
G01 X-80.6145 Y8.4285 
G01 X-80.4965 Y8.3105 
G01 X-80.3984 Y8.1756 
G01 X-80.3227 Y8.0269 
G01 X-80.2711 Y7.8682 
G01 X-80.2450 Y7.7034 
G01 X-80.2450 Y7.5366 
G01 X-80.2711 Y7.3718 
G01 X-80.3227 Y7.2131 
G01 X-80.3741 Y7.1121 
G01 X-75.7099 Y2.7640 
G01 X-75.5354 Y2.7640 
G01 X-75.1827 Y3.8837 
G01 X-75.1753 Y3.9116 
G01 X-75.1724 Y3.9166 
G01 X-75.1706 Y3.9221 
G01 X-75.1551 Y3.9466 
G01 X-75.1406 Y3.9716 
G01 X-75.1365 Y3.9757 
G01 X-75.1334 Y3.9806 
G01 X-75.1120 Y4.0002 
G01 X-75.0916 Y4.0206 
G01 X-75.0866 Y4.0235 
G01 X-75.0823 Y4.0274 
G01 X-75.0566 Y4.0408 
G01 X-75.0316 Y4.0553 
G01 X-75.0260 Y4.0568 
G01 X-75.0209 Y4.0594 
G01 X-74.9926 Y4.0657 
G01 X-74.9647 Y4.0732 
G01 X-74.9589 Y4.0732 
G01 X-74.9532 Y4.0745 
G01 X-74.9243 Y4.0732 
G01 X-73.3072 Y4.0732 
G01 X-73.3072 Y4.3683 
G01 X-73.2721 Y4.4034 
G01 X-71.0379 Y4.4034 
G01 X-71.0028 Y4.3683 
G01 X-71.0028 Y4.0732 
G01 X-67.5732 Y4.0732 
G01 X-67.5732 Y8.6268 
G01 X-71.0028 Y8.6268 
G01 X-71.0028 Y8.3317 
G01 X-71.0379 Y8.2966 
G01 X-73.2721 Y8.2966 
G01 X-73.3072 Y8.3317 
G01 X-73.3072 Y9.4482 
G01 X-73.2721 Y9.4834 
G01 X-71.0379 Y9.4834 
G01 X-71.0028 Y9.4482 
G01 X-71.0028 Y9.1532 
G01 X-67.5732 Y9.1532 
G01 X-67.5732 Y13.7068 
G01 X-71.0028 Y13.7068 
G01 X-71.0028 Y13.4117 
G01 X-71.0379 Y13.3766 
G01 X-73.2721 Y13.3766 
G01 X-73.3072 Y13.4117 
G01 X-73.3072 Y14.5282 
G01 X-73.2721 Y14.5634 
G01 X-71.0379 Y14.5634 
G01 X-71.0028 Y14.5282 
G01 X-71.0028 Y14.2332 
G01 X-67.5732 Y14.2332 
G01 X-67.5732 Y18.7868 
G01 X-71.0028 Y18.7868 
G01 X-71.0028 Y18.4917 
G01 X-71.0379 Y18.4566 
G01 X-73.2721 Y18.4566 
G01 X-73.3072 Y18.4917 
G01 X-73.3072 Y19.6083 
G01 X-73.2721 Y19.6434 
G01 X-71.0379 Y19.6434 
G01 X-71.0028 Y19.6083 
G01 X-71.0028 Y19.3132 
G01 X-67.5732 Y19.3132 
G01 X-67.5732 Y21.6247 
G01 X-67.5553 Y21.6916 
G01 X-67.5206 Y21.7516 
G01 X-64.9806 Y24.2916 
G01 X-64.9316 Y24.3406 
G01 X-64.8716 Y24.3753 
G01 X-64.8047 Y24.3932 
G01 X-63.1472 Y24.3932 
G01 X-63.1472 Y24.6883 
G01 X-63.1121 Y24.7234 
G01 X-60.8779 Y24.7234 
G01 X-60.8428 Y24.6883 
G01 X-60.8428 Y24.3932 
G01 X-56.1432 Y24.3932 
G01 X-56.1432 Y27.9747 
G01 X-56.1253 Y28.0416 
G01 X-56.0906 Y28.1016 
G01 X-56.0416 Y28.1506 
G01 X-55.9816 Y28.1853 
G01 X-55.9147 Y28.2032 
G01 X-27.9053 Y28.2032 
G01 X-27.8384 Y28.1853 
G01 X-27.7784 Y28.1506 
G01 X-27.7294 Y28.1016 
G01 X-25.6833 Y26.0555 
G01 X-25.6083 Y26.0866 
G01 X-25.4703 Y26.1140 
G01 X-25.3297 Y26.1140 
G01 X-25.1917 Y26.0866 
G01 X-25.0618 Y26.0327 
G01 X-24.9449 Y25.9546 
G01 X-24.8454 Y25.8551 
G01 X-24.7673 Y25.7382 
G01 X-24.7362 Y25.6632 
G01 X-22.6772 Y25.6632 
G01 X-22.6772 Y25.9582 
G01 X-22.6421 Y25.9934 
G01 X-20.4079 Y25.9934 
G01 X-20.3728 Y25.9582 
G01 X-20.3728 Y25.6632 
G01 X-12.8172 Y25.6632 
G01 X-12.8172 Y25.9582 
G01 X-12.7820 Y25.9934 
G01 X-10.5479 Y25.9934 
G01 X-10.5128 Y25.9582 
G01 X-10.5128 Y24.8417 
G01 X-10.5479 Y24.8066 
G01 X-12.7820 Y24.8066 
G01 X-12.8172 Y24.8417 
G01 X-12.8172 Y25.1368 
G01 X-16.2468 Y25.1368 
G01 X-16.2468 Y20.5832 
G01 X-12.8172 Y20.5832 
G01 X-12.8172 Y20.8783 
G01 X-12.7820 Y20.9134 
G01 X-10.5479 Y20.9134 
G01 X-10.5128 Y20.8783 
G01 X-10.5128 Y19.7617 
G01 X-10.5479 Y19.7266 
G01 X-12.7820 Y19.7266 
G01 X-12.8172 Y19.7617 
G01 X-12.8172 Y20.0568 
G01 X-16.2468 Y20.0568 
G01 X-16.2468 Y15.4270 
G01 X-12.8172 Y15.4270 
G01 X-12.8172 Y15.7983 
G01 X-12.7820 Y15.8334 
G01 X-10.5479 Y15.8334 
G01 X-10.5128 Y15.7983 
G01 X-10.5128 Y14.6817 
G01 X-10.5479 Y14.6466 
G01 X-12.7820 Y14.6466 
G01 X-12.8172 Y14.6817 
G01 X-12.8172 Y15.0530 
G01 X-16.2468 Y15.0530 
G01 X-16.2468 Y10.4232 
G01 X-12.8172 Y10.4232 
G01 X-12.8172 Y10.7183 
G01 X-12.7820 Y10.7534 
G01 X-10.5479 Y10.7534 
G01 X-10.5128 Y10.7183 
G01 X-10.5128 Y9.6017 
G01 X-10.5479 Y9.5666 
G01 X-12.7820 Y9.5666 
G01 X-12.8172 Y9.6017 
G01 X-12.8172 Y9.8968 
G01 X-16.2468 Y9.8968 
G01 X-16.2468 Y5.3432 
G01 X-12.8172 Y5.3432 
G01 X-12.8172 Y5.6383 
G01 X-12.7820 Y5.6734 
G01 X-10.5479 Y5.6734 
G01 X-10.5128 Y5.6383 
G01 X-10.5128 Y4.5217 
G01 X-10.5479 Y4.4866 
G01 X-12.7820 Y4.4866 
G01 X-12.8172 Y4.5217 
G01 X-12.8172 Y4.8168 
G01 X-13.0240 Y4.8168 
G01 X-13.0240 Y1.9394 
G01 X-13.0280 Y1.9242 
G01 X-13.0359 Y1.9105 
G01 X-13.0471 Y1.8993 
G01 X-13.0608 Y1.8914 
G01 X-13.0761 Y1.8873 
G01 X-19.6506 Y1.8873 
G01 X-19.6658 Y1.8914 
G01 X-19.6795 Y1.8993 
G01 X-19.6907 Y1.9105 
G01 X-19.6986 Y1.9242 
G01 X-19.7027 Y1.9394 
G01 X-19.7027 Y4.8168 
G01 X-20.3728 Y4.8168 
G01 X-20.3728 Y4.5217 
G01 X-20.4079 Y4.4866 
G01 X-22.6421 Y4.4866 
G01 X-22.6772 Y4.5217 
G01 X-22.6772 Y5.6383 
G01 X-22.6421 Y5.6734 
G01 X-20.4079 Y5.6734 
G01 X-20.3728 Y5.6383 
G01 X-20.3728 Y5.3432 
G01 X-16.7732 Y5.3432 
G01 X-16.7732 Y9.8968 
G01 X-20.3728 Y9.8968 
G01 X-20.3728 Y9.6017 
G01 X-20.4079 Y9.5666 
G01 X-22.6421 Y9.5666 
G01 X-22.6772 Y9.6017 
G01 X-22.6772 Y10.7183 
G01 X-22.6421 Y10.7534 
G01 X-20.4079 Y10.7534 
G01 X-20.3728 Y10.7183 
G01 X-20.3728 Y10.4232 
G01 X-16.7732 Y10.4232 
G01 X-16.7732 Y14.9768 
G01 X-20.3728 Y14.9768 
G01 X-20.3728 Y14.6817 
G01 X-20.4079 Y14.6466 
G01 X-22.6421 Y14.6466 
G01 X-22.6772 Y14.6817 
G01 X-22.6772 Y15.7983 
G01 X-22.6421 Y15.8334 
G01 X-20.4079 Y15.8334 
G01 X-20.3728 Y15.7983 
G01 X-20.3728 Y15.5032 
G01 X-16.7732 Y15.5032 
G01 X-16.7732 Y20.0568 
G01 X-20.3728 Y20.0568 
G01 X-20.3728 Y19.7617 
G01 X-20.4079 Y19.7266 
G01 X-22.6421 Y19.7266 
G01 X-22.6772 Y19.7617 
G01 X-22.6772 Y20.8783 
G01 X-22.6421 Y20.9134 
G01 X-20.4079 Y20.9134 
G01 X-20.3728 Y20.8783 
G01 X-20.3728 Y20.5832 
G01 X-16.7732 Y20.5832 
G01 X-16.7732 Y25.1368 
G01 X-20.3728 Y25.1368 
G01 X-20.3728 Y24.8417 
G01 X-20.4079 Y24.8066 
G01 X-22.6421 Y24.8066 
G01 X-22.6772 Y24.8417 
G01 X-22.6772 Y25.1368 
G01 X-24.7362 Y25.1368 
G01 X-24.7673 Y25.0618 
G01 X-24.8454 Y24.9449 
G01 X-24.9449 Y24.8454 
G01 X-25.0618 Y24.7673 
G01 X-25.1917 Y24.7134 
G01 X-25.3297 Y24.6860 
G01 X-25.4703 Y24.6860 
G01 X-25.6083 Y24.7134 
G01 X-25.7382 Y24.7673 
G01 X-25.8551 Y24.8454 
G01 X-25.9546 Y24.9449 
G01 X-26.0327 Y25.0618 
G01 X-26.0866 Y25.1917 
G01 X-26.1140 Y25.3297 
G01 X-26.1140 Y25.4703 
G01 X-26.0866 Y25.6083 
G01 X-26.0555 Y25.6833 
G01 X-28.0490 Y27.6768 
G01 X-41.6468 Y27.6768 
G01 X-41.6468 Y20.4290 
G01 X-39.2610 Y18.0432 
G01 X-38.0400 Y18.0432 
G01 X-38.0400 Y18.1299 
G01 X-38.0049 Y18.1650 
G01 X-36.2551 Y18.1650 
G01 X-36.2200 Y18.1299 
G01 X-36.2200 Y17.4301 
G01 X-36.2551 Y17.3950 
G01 X-38.0049 Y17.3950 
G01 X-38.0400 Y17.4301 
G01 X-38.0400 Y17.5168 
G01 X-39.4047 Y17.5168 
G01 X-39.4716 Y17.5347 
G01 X-39.5316 Y17.5694 
G01 X-39.5806 Y17.6184 
G01 X-42.0190 Y20.0568 
G01 X-45.7800 Y20.0568 
G01 X-45.7800 Y19.9701 
G01 X-45.8151 Y19.9350 
G01 X-47.5648 Y19.9350 
G01 X-47.6000 Y19.9701 
G01 X-47.6000 Y20.6699 
G01 X-47.5648 Y20.7050 
G01 X-45.8151 Y20.7050 
G01 X-45.7800 Y20.6699 
G01 X-45.7800 Y20.5832 
G01 X-42.1732 Y20.5832 
G01 X-42.1732 Y21.3268 
G01 X-45.7800 Y21.3268 
G01 X-45.7800 Y21.2401 
G01 X-45.8151 Y21.2050 
G01 X-47.5648 Y21.2050 
G01 X-47.6000 Y21.2401 
G01 X-47.6000 Y21.9398 
G01 X-47.5648 Y21.9750 
G01 X-45.8151 Y21.9750 
G01 X-45.7800 Y21.9398 
G01 X-45.7800 Y21.8532 
G01 X-42.1732 Y21.8532 
G01 X-42.1732 Y22.5968 
G01 X-45.7800 Y22.5968 
G01 X-45.7800 Y22.5101 
G01 X-45.8151 Y22.4750 
G01 X-47.5648 Y22.4750 
G01 X-47.6000 Y22.5101 
G01 X-47.6000 Y23.2098 
G01 X-47.5648 Y23.2450 
G01 X-45.8151 Y23.2450 
G01 X-45.7800 Y23.2098 
G01 X-45.7800 Y23.1232 
G01 X-42.1732 Y23.1232 
G01 X-42.1732 Y27.6768 
G01 X-55.6168 Y27.6768 
G01 X-55.6168 Y24.3932 
G01 X-53.2872 Y24.3932 
G01 X-53.2872 Y24.6883 
G01 X-53.2521 Y24.7234 
G01 X-51.0323 Y24.7234 
G01 X-51.1382 Y24.7673 
G01 X-51.2551 Y24.8454 
G01 X-51.3546 Y24.9449 
G01 X-51.4327 Y25.0618 
G01 X-51.4866 Y25.1917 
G01 X-51.5140 Y25.3297 
G01 X-51.5140 Y25.4703 
G01 X-51.4866 Y25.6083 
G01 X-51.4327 Y25.7382 
G01 X-51.3546 Y25.8551 
G01 X-51.2551 Y25.9546 
G01 X-51.1382 Y26.0327 
G01 X-51.0323 Y26.0766 
G01 X-53.2521 Y26.0766 
G01 X-53.2872 Y26.1117 
G01 X-53.2872 Y27.2283 
G01 X-53.2521 Y27.2634 
G01 X-51.0179 Y27.2634 
G01 X-50.9828 Y27.2283 
G01 X-50.9828 Y26.9332 
G01 X-49.4953 Y26.9332 
G01 X-49.4284 Y26.9153 
G01 X-49.3684 Y26.8806 
G01 X-49.3194 Y26.8316 
G01 X-49.2847 Y26.7716 
G01 X-49.2668 Y26.7047 
G01 X-49.2668 Y16.6190 
G01 X-48.1510 Y15.5032 
G01 X-47.6000 Y15.5032 
G01 X-47.6000 Y15.5899 
G01 X-47.5648 Y15.6250 
G01 X-45.8151 Y15.6250 
G01 X-45.7800 Y15.5899 
G01 X-45.7800 Y14.8901 
G01 X-45.8151 Y14.8550 
G01 X-47.5648 Y14.8550 
G01 X-47.6000 Y14.8901 
G01 X-47.6000 Y14.9768 
G01 X-48.2947 Y14.9768 
G01 X-48.3616 Y14.9947 
G01 X-48.4216 Y15.0294 
G01 X-48.4706 Y15.0784 
G01 X-49.7406 Y16.3484 
G01 X-49.7753 Y16.4084 
G01 X-49.7932 Y16.4753 
G01 X-49.7932 Y26.4068 
G01 X-50.9828 Y26.4068 
G01 X-50.9828 Y26.1117 
G01 X-51.0079 Y26.0866 
G01 X-50.8703 Y26.1140 
G01 X-50.7297 Y26.1140 
G01 X-50.5917 Y26.0866 
G01 X-50.4618 Y26.0327 
G01 X-50.3449 Y25.9546 
G01 X-50.2454 Y25.8551 
G01 X-50.1673 Y25.7382 
G01 X-50.1134 Y25.6083 
G01 X-50.0860 Y25.4703 
G01 X-50.0860 Y25.3297 
G01 X-50.1134 Y25.1917 
G01 X-50.1673 Y25.0618 
G01 X-50.2454 Y24.9449 
G01 X-50.3449 Y24.8454 
G01 X-50.4618 Y24.7673 
G01 X-50.5917 Y24.7134 
G01 X-50.7297 Y24.6860 
G01 X-50.8703 Y24.6860 
G01 X-51.0079 Y24.7134 
G01 X-50.9828 Y24.6883 
G01 X-50.9828 Y23.5717 
G01 X-51.0179 Y23.5366 
G01 X-53.2521 Y23.5366 
G01 X-53.2872 Y23.5717 
G01 X-53.2872 Y23.8668 
G01 X-60.8428 Y23.8668 
G01 X-60.8428 Y23.5717 
G01 X-60.8779 Y23.5366 
G01 X-63.1121 Y23.5366 
G01 X-63.1472 Y23.5717 
G01 X-63.1472 Y23.8668 
G01 X-64.6610 Y23.8668 
G01 X-67.0468 Y21.4810 
G01 X-67.0468 Y19.3132 
G01 X-63.4472 Y19.3132 
G01 X-63.4472 Y19.6083 
G01 X-63.4121 Y19.6434 
G01 X-61.1779 Y19.6434 
G01 X-61.1428 Y19.6083 
G01 X-61.1428 Y18.4917 
G01 X-61.1779 Y18.4566 
G01 X-63.4121 Y18.4566 
G01 X-63.4472 Y18.4917 
G01 X-63.4472 Y18.7868 
G01 X-67.0468 Y18.7868 
G01 X-67.0468 Y14.2332 
G01 X-63.4472 Y14.2332 
G01 X-63.4472 Y14.5282 
G01 X-63.4121 Y14.5634 
G01 X-61.1779 Y14.5634 
G01 X-61.1428 Y14.5282 
G01 X-61.1428 Y13.4117 
G01 X-61.1779 Y13.3766 
G01 X-63.4121 Y13.3766 
G01 X-63.4472 Y13.4117 
G01 X-63.4472 Y13.7068 
G01 X-67.0468 Y13.7068 
G01 X-67.0468 Y9.1532 
G01 X-63.4472 Y9.1532 
G01 X-63.4472 Y9.4482 
G01 X-63.4121 Y9.4834 
G01 X-61.1779 Y9.4834 
G01 X-61.1428 Y9.4482 
G01 X-61.1428 Y8.3317 
G01 X-61.1779 Y8.2966 
G01 X-63.4121 Y8.2966 
G01 X-63.4472 Y8.3317 
G01 X-63.4472 Y8.6268 
G01 X-67.0468 Y8.6268 
G01 X-67.0468 Y4.0732 
G01 X-63.4472 Y4.0732 
G01 X-63.4472 Y4.3683 
G01 X-63.4121 Y4.4034 
G01 X-61.1779 Y4.4034 
G01 X-61.1428 Y4.3683 
G01 X-61.1428 Y3.2517 
G01 X-61.1779 Y3.2166 
G01 X-63.4121 Y3.2166 
G01 X-63.4472 Y3.2517 
G01 X-63.4472 Y3.5468 
G01 X-71.0028 Y3.5468 
G01 X-71.0028 Y3.2517 
G01 X-71.0379 Y3.2166 
G01 X-73.2721 Y3.2166 
G01 X-73.3072 Y3.2517 
G01 X-73.3072 Y3.5468 
G01 X-74.7370 Y3.5468 
G01 X-74.9835 Y2.7640 
G01 X-74.6511 Y2.7640 
G01 X-74.6160 Y2.7288 
G01 X-74.6160 Y1.3711 
G01 X-74.6511 Y1.3360 
G01 X-76.0089 Y1.3360 
G01 X-76.0440 Y1.3711 
G01 X-76.0440 Y2.3558 
G01 X-80.7320 Y6.7261 
G01 X-80.7494 Y6.7134 
G01 X-80.8981 Y6.6377 
G01 X-81.0568 Y6.5861 
G01 X-81.2216 Y6.5600 
G01 X-81.3884 Y6.5600 
G01 X-81.5532 Y6.5861 
G01 X-81.7119 Y6.6377 
G01 X-81.8606 Y6.7134 
G01 X-81.9955 Y6.8115 
G01 X-82.1135 Y6.9295 
G01 X-82.2116 Y7.0644 
G01 X-82.2873 Y7.2131 
G01 X-82.3389 Y7.3718 
G01 X-82.3650 Y7.5366 
G00 Z1.0000 
G00 X-82.3650 Y12.6166 
G01 Z-0.1000 F500.00 
G01 X-82.3650 Y12.7834 
G01 X-82.3389 Y12.9482 
G01 X-82.2873 Y13.1069 
G01 X-82.2116 Y13.2556 
G01 X-82.1135 Y13.3905 
G01 X-81.9955 Y13.5085 
G01 X-81.8606 Y13.6066 
G01 X-81.7119 Y13.6823 
G01 X-81.5532 Y13.7339 
G01 X-81.3884 Y13.7600 
G01 X-81.2216 Y13.7600 
G01 X-81.0568 Y13.7339 
G01 X-80.8981 Y13.6823 
G01 X-80.7494 Y13.6066 
G01 X-80.6145 Y13.5085 
G01 X-80.4965 Y13.3905 
G01 X-80.3984 Y13.2556 
G01 X-80.3227 Y13.1069 
G01 X-80.2711 Y12.9482 
G01 X-80.2450 Y12.7834 
G01 X-80.2450 Y12.6166 
G01 X-80.2711 Y12.4518 
G01 X-80.3227 Y12.2931 
G01 X-80.3702 Y12.1999 
G01 X-77.6439 Y9.7000 
G01 X-76.4751 Y9.7000 
G01 X-76.4400 Y9.6649 
G01 X-76.4400 Y8.1151 
G01 X-76.4751 Y8.0800 
G01 X-77.8248 Y8.0800 
G01 X-77.8600 Y8.1151 
G01 X-77.8600 Y9.1839 
G01 X-80.7251 Y11.8111 
G01 X-80.7494 Y11.7934 
G01 X-80.8981 Y11.7177 
G01 X-81.0568 Y11.6661 
G01 X-81.2216 Y11.6400 
G01 X-81.3884 Y11.6400 
G01 X-81.5532 Y11.6661 
G01 X-81.7119 Y11.7177 
G01 X-81.8606 Y11.7934 
G01 X-81.9955 Y11.8915 
G01 X-82.1135 Y12.0095 
G01 X-82.2116 Y12.1444 
G01 X-82.2873 Y12.2931 
G01 X-82.3389 Y12.4518 
G01 X-82.3650 Y12.6166 
G00 Z1.0000 
G00 X-82.3650 Y22.7766 
G01 Z-0.1000 F500.00 
G01 X-82.3650 Y22.9434 
G01 X-82.3389 Y23.1082 
G01 X-82.2873 Y23.2669 
G01 X-82.2116 Y23.4156 
G01 X-82.1135 Y23.5505 
G01 X-81.9955 Y23.6685 
G01 X-81.8606 Y23.7666 
G01 X-81.7119 Y23.8423 
G01 X-81.5532 Y23.8939 
G01 X-81.3884 Y23.9200 
G01 X-81.2216 Y23.9200 
G01 X-81.0568 Y23.8939 
G01 X-80.8981 Y23.8423 
G01 X-80.7494 Y23.7666 
G01 X-80.6145 Y23.6685 
G01 X-80.4965 Y23.5505 
G01 X-80.3984 Y23.4156 
G01 X-80.3227 Y23.2669 
G01 X-80.2760 Y23.1232 
G01 X-79.1300 Y23.1232 
G01 X-79.1300 Y23.6349 
G01 X-79.0949 Y23.6700 
G01 X-77.7451 Y23.6700 
G01 X-77.7100 Y23.6349 
G01 X-77.7100 Y22.0851 
G01 X-77.7451 Y22.0500 
G01 X-79.0949 Y22.0500 
G01 X-79.1300 Y22.0851 
G01 X-79.1300 Y22.5968 
G01 X-80.2760 Y22.5968 
G01 X-80.3227 Y22.4531 
G01 X-80.3984 Y22.3044 
G01 X-80.4965 Y22.1695 
G01 X-80.6145 Y22.0515 
G01 X-80.7494 Y21.9534 
G01 X-80.8981 Y21.8777 
G01 X-81.0568 Y21.8261 
G01 X-81.2216 Y21.8000 
G01 X-81.3884 Y21.8000 
G01 X-81.5532 Y21.8261 
G01 X-81.7119 Y21.8777 
G01 X-81.8606 Y21.9534 
G01 X-81.9955 Y22.0515 
G01 X-82.1135 Y22.1695 
G01 X-82.2116 Y22.3044 
G01 X-82.2873 Y22.4531 
G01 X-82.3389 Y22.6118 
G01 X-82.3650 Y22.7766 
G00 Z1.0000 
G00 X-82.3650 Y27.8566 
G01 Z-0.1000 F500.00 
G01 X-82.3650 Y28.0234 
G01 X-82.3389 Y28.1882 
G01 X-82.2873 Y28.3469 
G01 X-82.2116 Y28.4956 
G01 X-82.1135 Y28.6305 
G01 X-81.9955 Y28.7485 
G01 X-81.8606 Y28.8466 
G01 X-81.7119 Y28.9223 
G01 X-81.5532 Y28.9739 
G01 X-81.3884 Y29.0000 
G01 X-81.2216 Y29.0000 
G01 X-81.0568 Y28.9739 
G01 X-80.8981 Y28.9223 
G01 X-80.7494 Y28.8466 
G01 X-80.6145 Y28.7485 
G01 X-80.4965 Y28.6305 
G01 X-80.3984 Y28.4956 
G01 X-80.3227 Y28.3469 
G01 X-80.2760 Y28.2032 
G01 X-79.1300 Y28.2032 
G01 X-79.1300 Y28.7149 
G01 X-79.0949 Y28.7500 
G01 X-77.7451 Y28.7500 
G01 X-77.7100 Y28.7149 
G01 X-77.7100 Y27.1651 
G01 X-77.7451 Y27.1300 
G01 X-79.0949 Y27.1300 
G01 X-79.1300 Y27.1651 
G01 X-79.1300 Y27.6768 
G01 X-80.2760 Y27.6768 
G01 X-80.3227 Y27.5331 
G01 X-80.3984 Y27.3844 
G01 X-80.4965 Y27.2495 
G01 X-80.6145 Y27.1315 
G01 X-80.7494 Y27.0334 
G01 X-80.8981 Y26.9577 
G01 X-81.0568 Y26.9061 
G01 X-81.2216 Y26.8800 
G01 X-81.3884 Y26.8800 
G01 X-81.5532 Y26.9061 
G01 X-81.7119 Y26.9577 
G01 X-81.8606 Y27.0334 
G01 X-81.9955 Y27.1315 
G01 X-82.1135 Y27.2495 
G01 X-82.2116 Y27.3844 
G01 X-82.2873 Y27.5331 
G01 X-82.3389 Y27.6918 
G01 X-82.3650 Y27.8566 
G00 Z1.0000 
G00 X-4.8173 Y2.9469 
G01 Z-0.1000 F500.00 
G01 X-4.7416 Y3.0956 
G01 X-4.6435 Y3.2305 
G01 X-4.5255 Y3.3485 
G01 X-4.3906 Y3.4466 
G01 X-4.2419 Y3.5223 
G01 X-4.0832 Y3.5739 
G01 X-3.9184 Y3.6000 
G01 X-3.7516 Y3.6000 
G01 X-3.5868 Y3.5739 
G01 X-3.4281 Y3.5223 
G01 X-3.2794 Y3.4466 
G01 X-3.1445 Y3.3485 
G01 X-3.0265 Y3.2305 
G01 X-2.9284 Y3.0956 
G01 X-2.8527 Y2.9469 
G01 X-2.8011 Y2.7882 
G01 X-2.7750 Y2.6234 
G01 X-2.7750 Y2.4566 
G01 X-2.8011 Y2.2918 
G01 X-2.8527 Y2.1331 
G01 X-2.9284 Y1.9844 
G01 X-3.0265 Y1.8495 
G01 X-3.1445 Y1.7315 
G01 X-3.2794 Y1.6334 
G01 X-3.4281 Y1.5577 
G01 X-3.5868 Y1.5061 
G01 X-3.7516 Y1.4800 
G01 X-3.9184 Y1.4800 
G01 X-4.0832 Y1.5061 
G01 X-4.2419 Y1.5577 
G01 X-4.3906 Y1.6334 
G01 X-4.5255 Y1.7315 
G01 X-4.6435 Y1.8495 
G01 X-4.7416 Y1.9844 
G01 X-4.8173 Y2.1331 
G01 X-4.8640 Y2.2768 
G01 X-7.2300 Y2.2768 
G01 X-7.2300 Y1.7651 
G01 X-7.2651 Y1.7300 
G01 X-8.6149 Y1.7300 
G01 X-8.6500 Y1.7651 
G01 X-8.6500 Y3.3149 
G01 X-8.6149 Y3.3500 
G01 X-7.2651 Y3.3500 
G01 X-7.2300 Y3.3149 
G01 X-7.2300 Y2.8032 
G01 X-4.8640 Y2.8032 
G01 X-4.8173 Y2.9469 
G00 Z1.0000 
G00 X-4.8950 Y12.7834 
G01 Z-0.1000 F500.00 
G01 X-4.8689 Y12.9482 
G01 X-4.8173 Y13.1069 
G01 X-4.7416 Y13.2556 
G01 X-4.6435 Y13.3905 
G01 X-4.5255 Y13.5085 
G01 X-4.3906 Y13.6066 
G01 X-4.2419 Y13.6823 
G01 X-4.0832 Y13.7339 
G01 X-3.9184 Y13.7600 
G01 X-3.7516 Y13.7600 
G01 X-3.5868 Y13.7339 
G01 X-3.4281 Y13.6823 
G01 X-3.2794 Y13.6066 
G01 X-3.1445 Y13.5085 
G01 X-3.0265 Y13.3905 
G01 X-2.9284 Y13.2556 
G01 X-2.8527 Y13.1069 
G01 X-2.8011 Y12.9482 
G01 X-2.7750 Y12.7834 
G01 X-2.7750 Y12.6166 
G01 X-2.8011 Y12.4518 
G01 X-2.8527 Y12.2931 
G01 X-2.9284 Y12.1444 
G01 X-3.0265 Y12.0095 
G01 X-3.1445 Y11.8915 
G01 X-3.2794 Y11.7934 
G01 X-3.4281 Y11.7177 
G01 X-3.5868 Y11.6661 
G01 X-3.7516 Y11.6400 
G01 X-3.9184 Y11.6400 
G01 X-4.0832 Y11.6661 
G01 X-4.2419 Y11.7177 
G01 X-4.3906 Y11.7934 
G01 X-4.5255 Y11.8915 
G01 X-4.6435 Y12.0095 
G01 X-4.7416 Y12.1444 
G01 X-4.7528 Y12.1664 
G01 X-7.2300 Y12.3758 
G01 X-7.2300 Y11.9251 
G01 X-7.2651 Y11.8900 
G01 X-8.6149 Y11.8900 
G01 X-8.6500 Y11.9251 
G01 X-8.6500 Y13.4748 
G01 X-8.6149 Y13.5100 
G01 X-7.2651 Y13.5100 
G01 X-7.2300 Y13.4748 
G01 X-7.2300 Y12.9041 
G01 X-4.8950 Y12.7067 
G01 X-4.8950 Y12.7834 
G00 Z1.0000 
G00 X-4.8950 Y27.8566 
G01 Z-0.1000 F500.00 
G01 X-4.8950 Y28.0234 
G01 X-4.8689 Y28.1882 
G01 X-4.8173 Y28.3469 
G01 X-4.7439 Y28.4911 
G01 X-5.1906 Y28.9468 
G01 X-63.3734 Y28.9468 
G01 X-63.9600 Y28.2124 
G01 X-63.9600 Y26.9451 
G01 X-63.9951 Y26.9100 
G01 X-65.5448 Y26.9100 
G01 X-65.5800 Y26.9451 
G01 X-65.5800 Y28.2949 
G01 X-65.5448 Y28.3300 
G01 X-64.5397 Y28.3300 
G01 X-63.7180 Y29.3588 
G01 X-63.7106 Y29.3716 
G01 X-63.6965 Y29.3857 
G01 X-63.6840 Y29.4013 
G01 X-63.6721 Y29.4101 
G01 X-63.6616 Y29.4206 
G01 X-63.6443 Y29.4306 
G01 X-63.6282 Y29.4424 
G01 X-63.6144 Y29.4479 
G01 X-63.6016 Y29.4553 
G01 X-63.5823 Y29.4604 
G01 X-63.5637 Y29.4677 
G01 X-63.5490 Y29.4694 
G01 X-63.5347 Y29.4732 
G01 X-63.5147 Y29.4732 
G01 X-63.4948 Y29.4754 
G01 X-63.4802 Y29.4732 
G01 X-5.1133 Y29.4732 
G01 X-5.1120 Y29.4735 
G01 X-5.0786 Y29.4732 
G01 X-5.0453 Y29.4732 
G01 X-5.0441 Y29.4729 
G01 X-5.0427 Y29.4728 
G01 X-5.0106 Y29.4639 
G01 X-4.9784 Y29.4553 
G01 X-4.9773 Y29.4546 
G01 X-4.9760 Y29.4542 
G01 X-4.9473 Y29.4373 
G01 X-4.9184 Y29.4206 
G01 X-4.9175 Y29.4197 
G01 X-4.9163 Y29.4190 
G01 X-4.8930 Y29.3952 
G01 X-4.8694 Y29.3716 
G01 X-4.8687 Y29.3705 
G01 X-4.3670 Y28.8586 
G01 X-4.2419 Y28.9223 
G01 X-4.0832 Y28.9739 
G01 X-3.9184 Y29.0000 
G01 X-3.7516 Y29.0000 
G01 X-3.5868 Y28.9739 
G01 X-3.4281 Y28.9223 
G01 X-3.2794 Y28.8466 
G01 X-3.1445 Y28.7485 
G01 X-3.0265 Y28.6305 
G01 X-2.9284 Y28.4956 
G01 X-2.8527 Y28.3469 
G01 X-2.8011 Y28.1882 
G01 X-2.7750 Y28.0234 
G01 X-2.7750 Y27.8566 
G01 X-2.8011 Y27.6918 
G01 X-2.8527 Y27.5331 
G01 X-2.9284 Y27.3844 
G01 X-3.0265 Y27.2495 
G01 X-3.1445 Y27.1315 
G01 X-3.2794 Y27.0334 
G01 X-3.4281 Y26.9577 
G01 X-3.5868 Y26.9061 
G01 X-3.7516 Y26.8800 
G01 X-3.9184 Y26.8800 
G01 X-4.0832 Y26.9061 
G01 X-4.2419 Y26.9577 
G01 X-4.3906 Y27.0334 
G01 X-4.5255 Y27.1315 
G01 X-4.6435 Y27.2495 
G01 X-4.7416 Y27.3844 
G01 X-4.8173 Y27.5331 
G01 X-4.8689 Y27.6918 
G01 X-4.8950 Y27.8566 
G00 Z1.0000 
G00 X-76.0440 Y11.3711 
G01 Z-0.1000 F500.00 
G01 X-76.0440 Y12.3918 
G01 X-78.6290 Y14.9768 
G01 X-82.4410 Y14.9768 
G01 X-83.5568 Y13.8610 
G01 X-83.5568 Y3.9190 
G01 X-82.4410 Y2.8032 
G01 X-82.3340 Y2.8032 
G01 X-82.2873 Y2.9469 
G01 X-82.2116 Y3.0956 
G01 X-82.1135 Y3.2305 
G01 X-81.9955 Y3.3485 
G01 X-81.8606 Y3.4466 
G01 X-81.7119 Y3.5223 
G01 X-81.5532 Y3.5739 
G01 X-81.3884 Y3.6000 
G01 X-81.2216 Y3.6000 
G01 X-81.0568 Y3.5739 
G01 X-80.8981 Y3.5223 
G01 X-80.7494 Y3.4466 
G01 X-80.6145 Y3.3485 
G01 X-80.4965 Y3.2305 
G01 X-80.3984 Y3.0956 
G01 X-80.3227 Y2.9469 
G01 X-80.2711 Y2.7882 
G01 X-80.2450 Y2.6234 
G01 X-80.2450 Y2.4566 
G01 X-80.2711 Y2.2918 
G01 X-80.3227 Y2.1331 
G01 X-80.3984 Y1.9844 
G01 X-80.4965 Y1.8495 
G01 X-80.6145 Y1.7315 
G01 X-80.7494 Y1.6334 
G01 X-80.8981 Y1.5577 
G01 X-81.0568 Y1.5061 
G01 X-81.2216 Y1.4800 
G01 X-81.3884 Y1.4800 
G01 X-81.5532 Y1.5061 
G01 X-81.7119 Y1.5577 
G01 X-81.8606 Y1.6334 
G01 X-81.9955 Y1.7315 
G01 X-82.1135 Y1.8495 
G01 X-82.2116 Y1.9844 
G01 X-82.2873 Y2.1331 
G01 X-82.3340 Y2.2768 
G01 X-82.5847 Y2.2768 
G01 X-82.6516 Y2.2947 
G01 X-82.7116 Y2.3294 
G01 X-82.7606 Y2.3784 
G01 X-83.9816 Y3.5994 
G01 X-83.9816 Y3.5994 
G01 X-84.0306 Y3.6484 
G01 X-84.0653 Y3.7084 
G01 X-84.0832 Y3.7753 
G01 X-84.0832 Y14.0046 
G01 X-84.0653 Y14.0716 
G01 X-84.0306 Y14.1316 
G01 X-83.9816 Y14.1806 
G01 X-82.7116 Y15.4506 
G01 X-82.6516 Y15.4853 
G01 X-82.5847 Y15.5032 
G01 X-78.4853 Y15.5032 
G01 X-78.4184 Y15.4853 
G01 X-78.3584 Y15.4506 
G01 X-78.3094 Y15.4016 
G01 X-75.6718 Y12.7640 
G01 X-74.6511 Y12.7640 
G01 X-74.6160 Y12.7289 
G01 X-74.6160 Y11.3711 
G01 X-74.6511 Y11.3360 
G01 X-76.0089 Y11.3360 
G01 X-76.0440 Y11.3711 
G00 Z1.0000 
G00 X-59.7240 Y1.4711 
G01 Z-0.1000 F500.00 
G01 X-59.7240 Y2.8289 
G01 X-59.6889 Y2.8640 
G01 X-58.3311 Y2.8640 
G01 X-58.2960 Y2.8289 
G01 X-58.2960 Y1.4711 
G01 X-58.3311 Y1.4360 
G01 X-59.6889 Y1.4360 
G01 X-59.7240 Y1.4711 
G00 Z1.0000 
G00 X-59.8240 Y11.3711 
G01 Z-0.1000 F500.00 
G01 X-59.8240 Y12.7289 
G01 X-59.7889 Y12.7640 
G01 X-58.4311 Y12.7640 
G01 X-58.3960 Y12.7289 
G01 X-58.3960 Y11.7623 
G01 X-58.2646 Y11.6442 
G01 X-58.2584 Y11.6406 
G01 X-58.2389 Y11.6211 
G01 X-58.2183 Y11.6026 
G01 X-58.2144 Y11.5966 
G01 X-58.2094 Y11.5916 
G01 X-58.1956 Y11.5677 
G01 X-58.1805 Y11.5445 
G01 X-58.1783 Y11.5378 
G01 X-58.1747 Y11.5316 
G01 X-58.1676 Y11.5049 
G01 X-58.1590 Y11.4786 
G01 X-58.1586 Y11.4715 
G01 X-58.1568 Y11.4647 
G01 X-58.1568 Y11.4370 
G01 X-58.1553 Y11.4094 
G01 X-58.1568 Y11.4025 
G01 X-58.1568 Y10.2690 
G01 X-54.4484 Y6.5606 
G01 X-54.3994 Y6.5116 
G01 X-54.3647 Y6.4516 
G01 X-54.3468 Y6.3847 
G01 X-54.3468 Y3.9190 
G01 X-53.2310 Y2.8032 
G01 X-42.0190 Y2.8032 
G01 X-40.9032 Y3.9190 
G01 X-40.9032 Y16.3691 
G01 X-44.5297 Y18.7868 
G01 X-45.7800 Y18.7868 
G01 X-45.7800 Y18.7001 
G01 X-45.8151 Y18.6650 
G01 X-47.5648 Y18.6650 
G01 X-47.6000 Y18.7001 
G01 X-47.6000 Y19.3999 
G01 X-47.5648 Y19.4350 
G01 X-45.8151 Y19.4350 
G01 X-45.7800 Y19.3999 
G01 X-45.7800 Y19.3132 
G01 X-44.4761 Y19.3132 
G01 X-44.4676 Y19.3149 
G01 X-44.4415 Y19.3132 
G01 X-44.4153 Y19.3132 
G01 X-44.4071 Y19.3110 
G01 X-44.3985 Y19.3104 
G01 X-44.3737 Y19.3020 
G01 X-44.3484 Y19.2953 
G01 X-44.3410 Y19.2910 
G01 X-44.3328 Y19.2882 
G01 X-44.3111 Y19.2737 
G01 X-44.2884 Y19.2606 
G01 X-44.2823 Y19.2545 
G01 X-40.5603 Y16.7732 
G01 X-38.0400 Y16.7732 
G01 X-38.0400 Y16.8599 
G01 X-38.0049 Y16.8950 
G01 X-36.2551 Y16.8950 
G01 X-36.2200 Y16.8599 
G01 X-36.2200 Y16.7732 
G01 X-34.8532 Y16.7732 
G01 X-34.8532 Y17.0381 
G01 X-34.8180 Y17.0732 
G01 X-33.7619 Y17.0732 
G01 X-33.7268 Y17.0381 
G01 X-33.7268 Y16.7732 
G01 X-31.8590 Y16.7732 
G01 X-30.7432 Y17.8890 
G01 X-30.7432 Y24.7362 
G01 X-30.8182 Y24.7673 
G01 X-30.9351 Y24.8454 
G01 X-31.0346 Y24.9449 
G01 X-31.1127 Y25.0618 
G01 X-31.1666 Y25.1917 
G01 X-31.1940 Y25.3297 
G01 X-31.1940 Y25.4703 
G01 X-31.1666 Y25.6083 
G01 X-31.1127 Y25.7382 
G01 X-31.0346 Y25.8551 
G01 X-30.9351 Y25.9546 
G01 X-30.8182 Y26.0327 
G01 X-30.6883 Y26.0866 
G01 X-30.5503 Y26.1140 
G01 X-30.4097 Y26.1140 
G01 X-30.2717 Y26.0866 
G01 X-30.1418 Y26.0327 
G01 X-30.0249 Y25.9546 
G01 X-29.9254 Y25.8551 
G01 X-29.8473 Y25.7382 
G01 X-29.7934 Y25.6083 
G01 X-29.7660 Y25.4703 
G01 X-29.7660 Y25.3297 
G01 X-29.7934 Y25.1917 
G01 X-29.8473 Y25.0618 
G01 X-29.9254 Y24.9449 
G01 X-30.0249 Y24.8454 
G01 X-30.1418 Y24.7673 
G01 X-30.2168 Y24.7362 
G01 X-30.2168 Y17.7453 
G01 X-30.2347 Y17.6784 
G01 X-30.2694 Y17.6184 
G01 X-30.3184 Y17.5694 
G01 X-31.5884 Y16.2994 
G01 X-31.6484 Y16.2647 
G01 X-31.7153 Y16.2468 
G01 X-33.7268 Y16.2468 
G01 X-33.7268 Y15.9819 
G01 X-33.7619 Y15.9468 
G01 X-34.8180 Y15.9468 
G01 X-34.8532 Y15.9819 
G01 X-34.8532 Y16.2468 
G01 X-36.2200 Y16.2468 
G01 X-36.2200 Y16.1601 
G01 X-36.2551 Y16.1250 
G01 X-38.0049 Y16.1250 
G01 X-38.0400 Y16.1601 
G01 X-38.0400 Y16.2468 
G01 X-40.3768 Y16.2468 
G01 X-40.3768 Y3.7753 
G01 X-40.3947 Y3.7084 
G01 X-40.4294 Y3.6484 
G01 X-41.7484 Y2.3294 
G01 X-41.8084 Y2.2947 
G01 X-41.8753 Y2.2768 
G01 X-53.3747 Y2.2768 
G01 X-53.4416 Y2.2947 
G01 X-53.5016 Y2.3294 
G01 X-53.5506 Y2.3784 
G01 X-54.8206 Y3.6484 
G01 X-54.8553 Y3.7084 
G01 X-54.8732 Y3.7753 
G01 X-54.8732 Y6.2410 
G01 X-58.5816 Y9.9494 
G01 X-58.5816 Y9.9494 
G01 X-58.6306 Y9.9984 
G01 X-58.6653 Y10.0584 
G01 X-58.6832 Y10.1253 
G01 X-58.6832 Y11.3127 
G01 X-58.7092 Y11.3360 
G01 X-59.7889 Y11.3360 
G01 X-59.8240 Y11.3711 
G00 Z1.0000 
G00 X-9.1300 Y13.4748 
G01 Z-0.1000 F500.00 
G01 X-9.1300 Y11.9251 
G01 X-9.1651 Y11.8900 
G01 X-10.5149 Y11.8900 
G01 X-10.5500 Y11.9251 
G01 X-10.5500 Y12.1066 
G01 X-12.7820 Y12.1066 
G01 X-12.8172 Y12.1417 
G01 X-12.8172 Y13.2583 
G01 X-12.7820 Y13.2934 
G01 X-10.5500 Y13.2934 
G01 X-10.5500 Y13.4748 
G01 X-10.5149 Y13.5100 
G01 X-9.1651 Y13.5100 
G01 X-9.1300 Y13.4748 
G00 Z1.0000 
G00 X-7.2300 Y18.5549 
G01 Z-0.1000 F500.00 
G01 X-7.2300 Y18.0432 
G01 X-4.8640 Y18.0432 
G01 X-4.8173 Y18.1869 
G01 X-4.7416 Y18.3356 
G01 X-4.6435 Y18.4705 
G01 X-4.5255 Y18.5885 
G01 X-4.3906 Y18.6866 
G01 X-4.2419 Y18.7623 
G01 X-4.0832 Y18.8139 
G01 X-3.9184 Y18.8400 
G01 X-3.7516 Y18.8400 
G01 X-3.5868 Y18.8139 
G01 X-3.4281 Y18.7623 
G01 X-3.2794 Y18.6866 
G01 X-3.1445 Y18.5885 
G01 X-3.0265 Y18.4705 
G01 X-2.9284 Y18.3356 
G01 X-2.8527 Y18.1869 
G01 X-2.8011 Y18.0282 
G01 X-2.7750 Y17.8634 
G01 X-2.7750 Y17.6966 
G01 X-2.8011 Y17.5318 
G01 X-2.8527 Y17.3731 
G01 X-2.9284 Y17.2244 
G01 X-3.0265 Y17.0895 
G01 X-3.1445 Y16.9715 
G01 X-3.2794 Y16.8734 
G01 X-3.4281 Y16.7977 
G01 X-3.5868 Y16.7461 
G01 X-3.7516 Y16.7200 
G01 X-3.9184 Y16.7200 
G01 X-4.0832 Y16.7461 
G01 X-4.2419 Y16.7977 
G01 X-4.3906 Y16.8734 
G01 X-4.5255 Y16.9715 
G01 X-4.6435 Y17.0895 
G01 X-4.7416 Y17.2244 
G01 X-4.8173 Y17.3731 
G01 X-4.8640 Y17.5168 
G01 X-7.2300 Y17.5168 
G01 X-7.2300 Y17.0051 
G01 X-7.2651 Y16.9700 
G01 X-8.6149 Y16.9700 
G01 X-8.6500 Y17.0051 
G01 X-8.6500 Y18.5549 
G01 X-8.6149 Y18.5900 
G01 X-7.2651 Y18.5900 
G01 X-7.2300 Y18.5549 
G00 Z1.0000 
G00 X-9.1300 Y18.5549 
G01 Z-0.1000 F500.00 
G01 X-9.1300 Y17.0051 
G01 X-9.1651 Y16.9700 
G01 X-10.5149 Y16.9700 
G01 X-10.5500 Y17.0051 
G01 X-10.5500 Y17.1866 
G01 X-12.7820 Y17.1866 
G01 X-12.8172 Y17.2217 
G01 X-12.8172 Y18.3383 
G01 X-12.7820 Y18.3734 
G01 X-10.5500 Y18.3734 
G01 X-10.5500 Y18.5549 
G01 X-10.5149 Y18.5900 
G01 X-9.1651 Y18.5900 
G01 X-9.1300 Y18.5549 
G00 Z1.0000 
G00 X-7.2300 Y8.3948 
G01 Z-0.1000 F500.00 
G01 X-7.2300 Y7.8832 
G01 X-5.0453 Y7.8832 
G01 X-4.9784 Y7.8653 
G01 X-4.9708 Y7.8609 
G01 X-4.8697 Y7.8629 
G01 X-4.8689 Y7.8682 
G01 X-4.8173 Y8.0269 
G01 X-4.7416 Y8.1756 
G01 X-4.6435 Y8.3105 
G01 X-4.5255 Y8.4285 
G01 X-4.3906 Y8.5266 
G01 X-4.2419 Y8.6023 
G01 X-4.0832 Y8.6539 
G01 X-3.9184 Y8.6800 
G01 X-3.7516 Y8.6800 
G01 X-3.5868 Y8.6539 
G01 X-3.4281 Y8.6023 
G01 X-3.2794 Y8.5266 
G01 X-3.1445 Y8.4285 
G01 X-3.0265 Y8.3105 
G01 X-2.9284 Y8.1756 
G01 X-2.8527 Y8.0269 
G01 X-2.8011 Y7.8682 
G01 X-2.7750 Y7.7034 
G01 X-2.7750 Y7.5366 
G01 X-2.8011 Y7.3718 
G01 X-2.8527 Y7.2131 
G01 X-2.9284 Y7.0644 
G01 X-3.0265 Y6.9295 
G01 X-3.1445 Y6.8115 
G01 X-3.2794 Y6.7134 
G01 X-3.4281 Y6.6377 
G01 X-3.5868 Y6.5861 
G01 X-3.7516 Y6.5600 
G01 X-3.9184 Y6.5600 
G01 X-4.0832 Y6.5861 
G01 X-4.2419 Y6.6377 
G01 X-4.3906 Y6.7134 
G01 X-4.5255 Y6.8115 
G01 X-4.6435 Y6.9295 
G01 X-4.7416 Y7.0644 
G01 X-4.8173 Y7.2131 
G01 X-4.8575 Y7.3366 
G01 X-5.0678 Y7.3325 
G01 X-5.0703 Y7.3318 
G01 X-5.1024 Y7.3318 
G01 X-5.1345 Y7.3312 
G01 X-5.1370 Y7.3318 
G01 X-5.1397 Y7.3318 
G01 X-5.1706 Y7.3401 
G01 X-5.2017 Y7.3478 
G01 X-5.2041 Y7.3491 
G01 X-5.2066 Y7.3497 
G01 X-5.2188 Y7.3568 
G01 X-7.2300 Y7.3568 
G01 X-7.2300 Y6.8451 
G01 X-7.2651 Y6.8100 
G01 X-8.6149 Y6.8100 
G01 X-8.6500 Y6.8451 
G01 X-8.6500 Y8.3948 
G01 X-8.6149 Y8.4300 
G01 X-7.2651 Y8.4300 
G01 X-7.2300 Y8.3948 
G00 Z1.0000 
G00 X-9.1300 Y8.3948 
G01 Z-0.1000 F500.00 
G01 X-9.1300 Y6.8451 
G01 X-9.1651 Y6.8100 
G01 X-10.5149 Y6.8100 
G01 X-10.5500 Y6.8451 
G01 X-10.5500 Y7.0266 
G01 X-12.7820 Y7.0266 
G01 X-12.8172 Y7.0617 
G01 X-12.8172 Y8.1783 
G01 X-12.7820 Y8.2134 
G01 X-10.5500 Y8.2134 
G01 X-10.5500 Y8.3948 
G01 X-10.5149 Y8.4300 
G01 X-9.1651 Y8.4300 
G01 X-9.1300 Y8.3948 
G00 Z1.0000 
G00 X-9.1300 Y3.3149 
G01 Z-0.1000 F500.00 
G01 X-9.1300 Y1.7651 
G01 X-9.1651 Y1.7300 
G01 X-10.5149 Y1.7300 
G01 X-10.5500 Y1.7651 
G01 X-10.5500 Y1.9466 
G01 X-12.7820 Y1.9466 
G01 X-12.8172 Y1.9817 
G01 X-12.8172 Y3.0983 
G01 X-12.7820 Y3.1334 
G01 X-10.5500 Y3.1334 
G01 X-10.5500 Y3.3149 
G01 X-10.5149 Y3.3500 
G01 X-9.1651 Y3.3500 
G01 X-9.1300 Y3.3149 
G00 Z1.0000 
G00 X-75.9600 Y8.1151 
G01 Z-0.1000 F500.00 
G01 X-75.9600 Y9.6649 
G01 X-75.9249 Y9.7000 
G01 X-74.5751 Y9.7000 
G01 X-74.5400 Y9.6649 
G01 X-74.5400 Y8.1151 
G01 X-74.5751 Y8.0800 
G01 X-74.7745 Y8.0800 
G01 X-74.6925 Y7.7547 
G01 X-73.5510 Y6.6132 
G01 X-73.3072 Y6.6132 
G01 X-73.3072 Y6.9083 
G01 X-73.2721 Y6.9434 
G01 X-71.0379 Y6.9434 
G01 X-71.0028 Y6.9083 
G01 X-71.0028 Y5.7917 
G01 X-71.0379 Y5.7566 
G01 X-73.2721 Y5.7566 
G01 X-73.3072 Y5.7917 
G01 X-73.3072 Y6.0868 
G01 X-73.6947 Y6.0868 
G01 X-73.7616 Y6.1047 
G01 X-73.8216 Y6.1394 
G01 X-75.0930 Y7.4108 
G01 X-75.0947 Y7.4118 
G01 X-75.1176 Y7.4354 
G01 X-75.1406 Y7.4584 
G01 X-75.1416 Y7.4601 
G01 X-75.1430 Y7.4616 
G01 X-75.1590 Y7.4902 
G01 X-75.1753 Y7.5184 
G01 X-75.1758 Y7.5203 
G01 X-75.1768 Y7.5221 
G01 X-75.1847 Y7.5538 
G01 X-75.1932 Y7.5853 
G01 X-75.1932 Y7.5874 
G01 X-75.3173 Y8.0800 
G01 X-75.9249 Y8.0800 
G01 X-75.9600 Y8.1151 
G00 Z1.0000 
G00 X-79.1300 Y17.0051 
G01 Z-0.1000 F500.00 
G01 X-79.1300 Y17.5168 
G01 X-80.2760 Y17.5168 
G01 X-80.3227 Y17.3731 
G01 X-80.3984 Y17.2244 
G01 X-80.4965 Y17.0895 
G01 X-80.6145 Y16.9715 
G01 X-80.7494 Y16.8734 
G01 X-80.8981 Y16.7977 
G01 X-81.0568 Y16.7461 
G01 X-81.2216 Y16.7200 
G01 X-81.3884 Y16.7200 
G01 X-81.5532 Y16.7461 
G01 X-81.7119 Y16.7977 
G01 X-81.8606 Y16.8734 
G01 X-81.9955 Y16.9715 
G01 X-82.1135 Y17.0895 
G01 X-82.2116 Y17.2244 
G01 X-82.2873 Y17.3731 
G01 X-82.3389 Y17.5318 
G01 X-82.3650 Y17.6966 
G01 X-82.3650 Y17.8634 
G01 X-82.3389 Y18.0282 
G01 X-82.2873 Y18.1869 
G01 X-82.2116 Y18.3356 
G01 X-82.1135 Y18.4705 
G01 X-81.9955 Y18.5885 
G01 X-81.8606 Y18.6866 
G01 X-81.7119 Y18.7623 
G01 X-81.5532 Y18.8139 
G01 X-81.3884 Y18.8400 
G01 X-81.2216 Y18.8400 
G01 X-81.0568 Y18.8139 
G01 X-80.8981 Y18.7623 
G01 X-80.7494 Y18.6866 
G01 X-80.6145 Y18.5885 
G01 X-80.4965 Y18.4705 
G01 X-80.3984 Y18.3356 
G01 X-80.3227 Y18.1869 
G01 X-80.2760 Y18.0432 
G01 X-79.1300 Y18.0432 
G01 X-79.1300 Y18.5549 
G01 X-79.0949 Y18.5900 
G01 X-77.7451 Y18.5900 
G01 X-77.7100 Y18.5549 
G01 X-77.7100 Y17.0051 
G01 X-77.7451 Y16.9700 
G01 X-79.0949 Y16.9700 
G01 X-79.1300 Y17.0051 
G00 Z1.0000 
G00 X-77.2300 Y17.0051 
G01 Z-0.1000 F500.00 
G01 X-77.2300 Y18.5549 
G01 X-77.1949 Y18.5900 
G01 X-75.8451 Y18.5900 
G01 X-75.8100 Y18.5549 
G01 X-75.8100 Y17.0051 
G01 X-75.8451 Y16.9700 
G01 X-75.9368 Y16.9700 
G01 X-75.9368 Y15.3490 
G01 X-73.4494 Y12.8616 
G01 X-73.4147 Y12.8016 
G01 X-73.3968 Y12.7347 
G01 X-73.3968 Y11.6932 
G01 X-73.3072 Y11.6932 
G01 X-73.3072 Y11.9883 
G01 X-73.2721 Y12.0234 
G01 X-71.0379 Y12.0234 
G01 X-71.0028 Y11.9883 
G01 X-71.0028 Y10.8717 
G01 X-71.0379 Y10.8366 
G01 X-73.2721 Y10.8366 
G01 X-73.3072 Y10.8717 
G01 X-73.3072 Y11.1668 
G01 X-73.6947 Y11.1668 
G01 X-73.7616 Y11.1847 
G01 X-73.8216 Y11.2194 
G01 X-73.8706 Y11.2684 
G01 X-73.9053 Y11.3284 
G01 X-73.9232 Y11.3953 
G01 X-73.9232 Y12.5910 
G01 X-76.3616 Y15.0294 
G01 X-76.4106 Y15.0784 
G01 X-76.4453 Y15.1384 
G01 X-76.4632 Y15.2053 
G01 X-76.4632 Y16.9700 
G01 X-77.1949 Y16.9700 
G01 X-77.2300 Y17.0051 
G00 Z1.0000 
G00 X-65.5448 Y26.4300 
G01 Z-0.1000 F500.00 
G01 X-63.9951 Y26.4300 
G01 X-63.9600 Y26.3949 
G01 X-63.9600 Y25.7873 
G01 X-63.7632 Y25.7377 
G01 X-63.7632 Y26.7047 
G01 X-63.7453 Y26.7716 
G01 X-63.7106 Y26.8316 
G01 X-63.6616 Y26.8806 
G01 X-63.6016 Y26.9153 
G01 X-63.5347 Y26.9332 
G01 X-63.1472 Y26.9332 
G01 X-63.1472 Y27.2283 
G01 X-63.1121 Y27.2634 
G01 X-60.8779 Y27.2634 
G01 X-60.8428 Y27.2283 
G01 X-60.8428 Y26.1117 
G01 X-60.8779 Y26.0766 
G01 X-63.1121 Y26.0766 
G01 X-63.1472 Y26.1117 
G01 X-63.1472 Y26.4068 
G01 X-63.2368 Y26.4068 
G01 X-63.2368 Y25.4021 
G01 X-63.2363 Y25.3693 
G01 X-63.2368 Y25.3673 
G01 X-63.2368 Y25.3653 
G01 X-63.2453 Y25.3338 
G01 X-63.2532 Y25.3021 
G01 X-63.2542 Y25.3003 
G01 X-63.2547 Y25.2984 
G01 X-63.2710 Y25.2702 
G01 X-63.2870 Y25.2416 
G01 X-63.2884 Y25.2401 
G01 X-63.2894 Y25.2384 
G01 X-63.3124 Y25.2154 
G01 X-63.3353 Y25.1918 
G01 X-63.3370 Y25.1908 
G01 X-63.3384 Y25.1894 
G01 X-63.3666 Y25.1731 
G01 X-63.3947 Y25.1563 
G01 X-63.3967 Y25.1557 
G01 X-63.3984 Y25.1547 
G01 X-63.4299 Y25.1463 
G01 X-63.4614 Y25.1373 
G01 X-63.4634 Y25.1373 
G01 X-63.4653 Y25.1368 
G01 X-63.4979 Y25.1368 
G01 X-63.5307 Y25.1363 
G01 X-63.5327 Y25.1368 
G01 X-63.5347 Y25.1368 
G01 X-63.5661 Y25.1452 
G01 X-63.9600 Y25.2445 
G01 X-63.9600 Y25.0451 
G01 X-63.9951 Y25.0100 
G01 X-65.5448 Y25.0100 
G01 X-65.5800 Y25.0451 
G01 X-65.5800 Y26.3949 
G01 X-65.5448 Y26.4300 
G00 Z1.0000 
G00 X-7.2300 Y23.6349 
G01 Z-0.1000 F500.00 
G01 X-7.2300 Y23.1232 
G01 X-4.8640 Y23.1232 
G01 X-4.8173 Y23.2669 
G01 X-4.7416 Y23.4156 
G01 X-4.6435 Y23.5505 
G01 X-4.5255 Y23.6685 
G01 X-4.3906 Y23.7666 
G01 X-4.2419 Y23.8423 
G01 X-4.0832 Y23.8939 
G01 X-3.9184 Y23.9200 
G01 X-3.7516 Y23.9200 
G01 X-3.5868 Y23.8939 
G01 X-3.4281 Y23.8423 
G01 X-3.2794 Y23.7666 
G01 X-3.1445 Y23.6685 
G01 X-3.0265 Y23.5505 
G01 X-2.9284 Y23.4156 
G01 X-2.8527 Y23.2669 
G01 X-2.8011 Y23.1082 
G01 X-2.7750 Y22.9434 
G01 X-2.7750 Y22.7766 
G01 X-2.8011 Y22.6118 
G01 X-2.8527 Y22.4531 
G01 X-2.9284 Y22.3044 
G01 X-3.0265 Y22.1695 
G01 X-3.1445 Y22.0515 
G01 X-3.2794 Y21.9534 
G01 X-3.4281 Y21.8777 
G01 X-3.5868 Y21.8261 
G01 X-3.7516 Y21.8000 
G01 X-3.9184 Y21.8000 
G01 X-4.0832 Y21.8261 
G01 X-4.2419 Y21.8777 
G01 X-4.3906 Y21.9534 
G01 X-4.5255 Y22.0515 
G01 X-4.6435 Y22.1695 
G01 X-4.7416 Y22.3044 
G01 X-4.8173 Y22.4531 
G01 X-4.8640 Y22.5968 
G01 X-7.2300 Y22.5968 
G01 X-7.2300 Y22.0851 
G01 X-7.2651 Y22.0500 
G01 X-8.6149 Y22.0500 
G01 X-8.6500 Y22.0851 
G01 X-8.6500 Y23.6349 
G01 X-8.6149 Y23.6700 
G01 X-7.2651 Y23.6700 
G01 X-7.2300 Y23.6349 
G00 Z1.0000 
G00 X-9.1300 Y23.6349 
G01 Z-0.1000 F500.00 
G01 X-9.1300 Y22.0851 
G01 X-9.1651 Y22.0500 
G01 X-10.5149 Y22.0500 
G01 X-10.5500 Y22.0851 
G01 X-10.5500 Y22.2666 
G01 X-12.7820 Y22.2666 
G01 X-12.8172 Y22.3017 
G01 X-12.8172 Y23.4183 
G01 X-12.7820 Y23.4534 
G01 X-10.5500 Y23.4534 
G01 X-10.5500 Y23.6349 
G01 X-10.5149 Y23.6700 
G01 X-9.1651 Y23.6700 
G01 X-9.1300 Y23.6349 
G00 Z1.0000 
G00 X-47.5648 Y6.7350 
G01 Z-0.1000 F500.00 
G01 X-45.8151 Y6.7350 
G01 X-45.7800 Y6.6999 
G01 X-45.7800 Y6.0001 
G01 X-45.8151 Y5.9650 
G01 X-47.5648 Y5.9650 
G01 X-47.6000 Y6.0001 
G01 X-47.6000 Y6.6999 
G01 X-47.5648 Y6.7350 
G00 Z1.0000 
G00 X-47.5648 Y8.0050 
G01 Z-0.1000 F500.00 
G01 X-45.8151 Y8.0050 
G01 X-45.7800 Y7.9699 
G01 X-45.7800 Y7.2701 
G01 X-45.8151 Y7.2350 
G01 X-47.5648 Y7.2350 
G01 X-47.6000 Y7.2701 
G01 X-47.6000 Y7.9699 
G01 X-47.5648 Y8.0050 
G00 Z1.0000 
G00 X-47.5648 Y9.2750 
G01 Z-0.1000 F500.00 
G01 X-45.8151 Y9.2750 
G01 X-45.7800 Y9.2399 
G01 X-45.7800 Y8.5401 
G01 X-45.8151 Y8.5050 
G01 X-47.5648 Y8.5050 
G01 X-47.6000 Y8.5401 
G01 X-47.6000 Y9.2399 
G01 X-47.5648 Y9.2750 
G00 Z1.0000 
G00 X-47.5648 Y10.5450 
G01 Z-0.1000 F500.00 
G01 X-45.8151 Y10.5450 
G01 X-45.7800 Y10.5099 
G01 X-45.7800 Y9.8101 
G01 X-45.8151 Y9.7750 
G01 X-47.5648 Y9.7750 
G01 X-47.6000 Y9.8101 
G01 X-47.6000 Y10.5099 
G01 X-47.5648 Y10.5450 
G00 Z1.0000 
G00 X-47.5648 Y14.3550 
G01 Z-0.1000 F500.00 
G01 X-45.8151 Y14.3550 
G01 X-45.7800 Y14.3199 
G01 X-45.7800 Y13.6201 
G01 X-45.8151 Y13.5850 
G01 X-47.5648 Y13.5850 
G01 X-47.6000 Y13.6201 
G01 X-47.6000 Y13.7068 
G01 X-49.5647 Y13.7068 
G01 X-49.6316 Y13.7247 
G01 X-49.6916 Y13.7594 
G01 X-49.7406 Y13.8084 
G01 X-57.2590 Y21.3268 
G01 X-61.1428 Y21.3268 
G01 X-61.1428 Y21.0317 
G01 X-61.1779 Y20.9966 
G01 X-63.4121 Y20.9966 
G01 X-63.4472 Y21.0317 
G01 X-63.4472 Y22.1483 
G01 X-63.4121 Y22.1834 
G01 X-61.1779 Y22.1834 
G01 X-61.1428 Y22.1483 
G01 X-61.1428 Y21.8532 
G01 X-57.1153 Y21.8532 
G01 X-57.0484 Y21.8353 
G01 X-56.9884 Y21.8006 
G01 X-49.4210 Y14.2332 
G01 X-47.6000 Y14.2332 
G01 X-47.6000 Y14.3199 
G01 X-47.5648 Y14.3550 
G00 Z1.0000 
G00 X-38.0049 Y19.4350 
G01 Z-0.1000 F500.00 
G01 X-36.2551 Y19.4350 
G01 X-36.2200 Y19.3999 
G01 X-36.2200 Y18.7001 
G01 X-36.2551 Y18.6650 
G01 X-38.0049 Y18.6650 
G01 X-38.0400 Y18.7001 
G01 X-38.0400 Y19.3999 
G01 X-38.0049 Y19.4350 
G00 Z1.0000 
G00 X-38.0049 Y20.7050 
G01 Z-0.1000 F500.00 
G01 X-36.2551 Y20.7050 
G01 X-36.2200 Y20.6699 
G01 X-36.2200 Y20.5832 
G01 X-33.9990 Y20.5832 
G01 X-32.4055 Y22.1767 
G01 X-32.4366 Y22.2517 
G01 X-32.4640 Y22.3897 
G01 X-32.4640 Y22.5303 
G01 X-32.4366 Y22.6683 
G01 X-32.3827 Y22.7982 
G01 X-32.3046 Y22.9151 
G01 X-32.2051 Y23.0146 
G01 X-32.0882 Y23.0927 
G01 X-31.9583 Y23.1466 
G01 X-31.8203 Y23.1740 
G01 X-31.6797 Y23.1740 
G01 X-31.5417 Y23.1466 
G01 X-31.4118 Y23.0927 
G01 X-31.2949 Y23.0146 
G01 X-31.1954 Y22.9151 
G01 X-31.1173 Y22.7982 
G01 X-31.0634 Y22.6683 
G01 X-31.0360 Y22.5303 
G01 X-31.0360 Y22.3897 
G01 X-31.0634 Y22.2517 
G01 X-31.1173 Y22.1218 
G01 X-31.1954 Y22.0049 
G01 X-31.2949 Y21.9054 
G01 X-31.4118 Y21.8273 
G01 X-31.5417 Y21.7734 
G01 X-31.6797 Y21.7460 
G01 X-31.8203 Y21.7460 
G01 X-31.9583 Y21.7734 
G01 X-32.0333 Y21.8045 
G01 X-33.7284 Y20.1094 
G01 X-33.7884 Y20.0747 
G01 X-33.8553 Y20.0568 
G01 X-36.2200 Y20.0568 
G01 X-36.2200 Y19.9701 
G01 X-36.2551 Y19.9350 
G01 X-38.0049 Y19.9350 
G01 X-38.0400 Y19.9701 
G01 X-38.0400 Y20.6699 
G01 X-38.0049 Y20.7050 
G00 Z1.0000 
G00 X-38.0049 Y21.9750 
G01 Z-0.1000 F500.00 
G01 X-36.2551 Y21.9750 
G01 X-36.2200 Y21.9398 
G01 X-36.2200 Y21.8532 
G01 X-35.6388 Y21.8532 
G01 X-35.0891 Y22.2150 
G01 X-35.1040 Y22.2897 
G01 X-35.1040 Y22.4303 
G01 X-35.0766 Y22.5683 
G01 X-35.0227 Y22.6982 
G01 X-34.9446 Y22.8151 
G01 X-34.8451 Y22.9146 
G01 X-34.7282 Y22.9927 
G01 X-34.5983 Y23.0466 
G01 X-34.4603 Y23.0740 
G01 X-34.3197 Y23.0740 
G01 X-34.1817 Y23.0466 
G01 X-34.0518 Y22.9927 
G01 X-33.9349 Y22.9146 
G01 X-33.8354 Y22.8151 
G01 X-33.7573 Y22.6982 
G01 X-33.7034 Y22.5683 
G01 X-33.6760 Y22.4303 
G01 X-33.6760 Y22.2897 
G01 X-33.7034 Y22.1517 
G01 X-33.7573 Y22.0218 
G01 X-33.8354 Y21.9048 
G01 X-33.9349 Y21.8054 
G01 X-34.0518 Y21.7273 
G01 X-34.1817 Y21.6734 
G01 X-34.3197 Y21.6460 
G01 X-34.4603 Y21.6460 
G01 X-34.5983 Y21.6734 
G01 X-34.7282 Y21.7273 
G01 X-34.7999 Y21.7752 
G01 X-35.3929 Y21.3849 
G01 X-35.3984 Y21.3794 
G01 X-35.4217 Y21.3659 
G01 X-35.4443 Y21.3511 
G01 X-35.4517 Y21.3486 
G01 X-35.4584 Y21.3447 
G01 X-35.4844 Y21.3378 
G01 X-35.5100 Y21.3293 
G01 X-35.5178 Y21.3288 
G01 X-35.5253 Y21.3268 
G01 X-35.5523 Y21.3268 
G01 X-35.5792 Y21.3252 
G01 X-35.5868 Y21.3268 
G01 X-36.2200 Y21.3268 
G01 X-36.2200 Y21.2401 
G01 X-36.2551 Y21.2050 
G01 X-38.0049 Y21.2050 
G01 X-38.0400 Y21.2401 
G01 X-38.0400 Y21.9398 
G01 X-38.0049 Y21.9750 
G00 Z1.0000 
G00 X-38.0049 Y23.2450 
G01 Z-0.1000 F500.00 
G01 X-36.2551 Y23.2450 
G01 X-36.2200 Y23.2098 
G01 X-36.2200 Y22.5101 
G01 X-36.2551 Y22.4750 
G01 X-38.0049 Y22.4750 
G01 X-38.0400 Y22.5101 
G01 X-38.0400 Y23.2098 
G01 X-38.0049 Y23.2450 
G00 Z1.0000 
G00 X-47.5648 Y18.1650 
G01 Z-0.1000 F500.00 
G01 X-45.8151 Y18.1650 
G01 X-45.7800 Y18.1299 
G01 X-45.7800 Y17.4301 
G01 X-45.8151 Y17.3950 
G01 X-47.5648 Y17.3950 
G01 X-47.6000 Y17.4301 
G01 X-47.6000 Y18.1299 
G01 X-47.5648 Y18.1650 
G00 Z1.0000 
G00 X-38.0049 Y15.6250 
G01 Z-0.1000 F500.00 
G01 X-36.2551 Y15.6250 
G01 X-36.2200 Y15.5899 
G01 X-36.2200 Y14.8901 
G01 X-36.2551 Y14.8550 
G01 X-38.0049 Y14.8550 
G01 X-38.0400 Y14.8901 
G01 X-38.0400 Y15.5899 
G01 X-38.0049 Y15.6250 
G00 Z1.0000 
G00 X-38.0049 Y14.3550 
G01 Z-0.1000 F500.00 
G01 X-36.2551 Y14.3550 
G01 X-36.2200 Y14.3199 
G01 X-36.2200 Y14.2332 
G01 X-31.8590 Y14.2332 
G01 X-28.2032 Y17.8890 
G01 X-28.2032 Y20.3115 
G01 X-28.2049 Y20.3376 
G01 X-28.2032 Y20.3461 
G01 X-28.2032 Y20.3546 
G01 X-28.1964 Y20.3799 
G01 X-28.1913 Y20.4056 
G01 X-28.1875 Y20.4133 
G01 X-28.1853 Y20.4216 
G01 X-28.1722 Y20.4442 
G01 X-28.1606 Y20.4677 
G01 X-28.1549 Y20.4742 
G01 X-28.1506 Y20.4816 
G01 X-28.1321 Y20.5001 
G01 X-28.1148 Y20.5198 
G01 X-28.1077 Y20.5245 
G01 X-28.1016 Y20.5306 
G01 X-28.0789 Y20.5437 
G01 X-24.2977 Y23.0645 
G01 X-24.2916 Y23.0706 
G01 X-24.2689 Y23.0837 
G01 X-24.2472 Y23.0982 
G01 X-24.2390 Y23.1010 
G01 X-24.2316 Y23.1053 
G01 X-24.2063 Y23.1120 
G01 X-24.1815 Y23.1204 
G01 X-24.1729 Y23.1210 
G01 X-24.1647 Y23.1232 
G01 X-24.1385 Y23.1232 
G01 X-24.1124 Y23.1249 
G01 X-24.1039 Y23.1232 
G01 X-22.6772 Y23.1232 
G01 X-22.6772 Y23.4183 
G01 X-22.6421 Y23.4534 
G01 X-20.4079 Y23.4534 
G01 X-20.3728 Y23.4183 
G01 X-20.3728 Y22.3017 
G01 X-20.4079 Y22.2666 
G01 X-22.6421 Y22.2666 
G01 X-22.6772 Y22.3017 
G01 X-22.6772 Y22.5968 
G01 X-24.0503 Y22.5968 
G01 X-27.6768 Y20.1791 
G01 X-27.6768 Y17.7453 
G01 X-27.6947 Y17.6784 
G01 X-27.7294 Y17.6184 
G01 X-31.5394 Y13.8084 
G01 X-31.5884 Y13.7594 
G01 X-31.6484 Y13.7247 
G01 X-31.7153 Y13.7068 
G01 X-36.2200 Y13.7068 
G01 X-36.2200 Y13.6201 
G01 X-36.2551 Y13.5850 
G01 X-38.0049 Y13.5850 
G01 X-38.0400 Y13.6201 
G01 X-38.0400 Y14.3199 
G01 X-38.0049 Y14.3550 
G00 Z1.0000 
G00 X-38.0049 Y10.5450 
G01 Z-0.1000 F500.00 
G01 X-36.2551 Y10.5450 
G01 X-36.2200 Y10.5099 
G01 X-36.2200 Y9.8101 
G01 X-36.2551 Y9.7750 
G01 X-38.0049 Y9.7750 
G01 X-38.0400 Y9.8101 
G01 X-38.0400 Y10.5099 
G01 X-38.0049 Y10.5450 
G00 Z1.0000 
G00 X-38.0049 Y9.2750 
G01 Z-0.1000 F500.00 
G01 X-36.2551 Y9.2750 
G01 X-36.2200 Y9.2399 
G01 X-36.2200 Y9.1532 
G01 X-27.9053 Y9.1532 
G01 X-27.8384 Y9.1353 
G01 X-27.7784 Y9.1006 
G01 X-26.5610 Y7.8832 
G01 X-22.6772 Y7.8832 
G01 X-22.6772 Y8.1783 
G01 X-22.6421 Y8.2134 
G01 X-20.4079 Y8.2134 
G01 X-20.3728 Y8.1783 
G01 X-20.3728 Y7.0617 
G01 X-20.4079 Y7.0266 
G01 X-22.6421 Y7.0266 
G01 X-22.6772 Y7.0617 
G01 X-22.6772 Y7.3568 
G01 X-26.7047 Y7.3568 
G01 X-26.7716 Y7.3747 
G01 X-26.8316 Y7.4094 
G01 X-26.8806 Y7.4584 
G01 X-28.0490 Y8.6268 
G01 X-36.2200 Y8.6268 
G01 X-36.2200 Y8.5401 
G01 X-36.2551 Y8.5050 
G01 X-38.0049 Y8.5050 
G01 X-38.0400 Y8.5401 
G01 X-38.0400 Y9.2399 
G01 X-38.0049 Y9.2750 
G00 Z1.0000 
G00 X-38.0049 Y8.0050 
G01 Z-0.1000 F500.00 
G01 X-36.2551 Y8.0050 
G01 X-36.2200 Y7.9699 
G01 X-36.2200 Y7.8832 
G01 X-32.9853 Y7.8832 
G01 X-32.9184 Y7.8653 
G01 X-32.8584 Y7.8306 
G01 X-27.8310 Y2.8032 
G01 X-22.6772 Y2.8032 
G01 X-22.6772 Y3.0983 
G01 X-22.6421 Y3.1334 
G01 X-20.4079 Y3.1334 
G01 X-20.3728 Y3.0983 
G01 X-20.3728 Y1.9817 
G01 X-20.4079 Y1.9466 
G01 X-22.6421 Y1.9466 
G01 X-22.6772 Y1.9817 
G01 X-22.6772 Y2.2768 
G01 X-27.9747 Y2.2768 
G01 X-28.0416 Y2.2947 
G01 X-28.1016 Y2.3294 
G01 X-28.1506 Y2.3784 
G01 X-33.1290 Y7.3568 
G01 X-36.2200 Y7.3568 
G01 X-36.2200 Y7.2701 
G01 X-36.2551 Y7.2350 
G01 X-38.0049 Y7.2350 
G01 X-38.0400 Y7.2701 
G01 X-38.0400 Y7.9699 
G01 X-38.0049 Y8.0050 
G00 Z1.0000 
G00 X-38.0049 Y6.7350 
G01 Z-0.1000 F500.00 
G01 X-36.2551 Y6.7350 
G01 X-36.2200 Y6.6999 
G01 X-36.2200 Y6.6132 
G01 X-34.2553 Y6.6132 
G01 X-34.1884 Y6.5953 
G01 X-34.1284 Y6.5606 
G01 X-34.0794 Y6.5116 
G01 X-32.8094 Y5.2416 
G01 X-32.7747 Y5.1816 
G01 X-32.7568 Y5.1147 
G01 X-32.7568 Y2.5053 
G01 X-32.7747 Y2.4384 
G01 X-32.8094 Y2.3784 
G01 X-32.8584 Y2.3294 
G01 X-34.1284 Y1.0594 
G01 X-34.1884 Y1.0247 
G01 X-34.2553 Y1.0068 
G01 X-54.6447 Y1.0068 
G01 X-54.7116 Y1.0247 
G01 X-54.7716 Y1.0594 
G01 X-54.8206 Y1.1084 
G01 X-54.8206 Y1.1084 
G01 X-56.0906 Y2.3784 
G01 X-56.1253 Y2.4384 
G01 X-56.1432 Y2.5053 
G01 X-56.1432 Y4.9710 
G01 X-57.2590 Y6.0868 
G01 X-61.1428 Y6.0868 
G01 X-61.1428 Y5.7917 
G01 X-61.1779 Y5.7566 
G01 X-63.4121 Y5.7566 
G01 X-63.4472 Y5.7917 
G01 X-63.4472 Y6.9083 
G01 X-63.4121 Y6.9434 
G01 X-61.1779 Y6.9434 
G01 X-61.1428 Y6.9083 
G01 X-61.1428 Y6.6132 
G01 X-57.1153 Y6.6132 
G01 X-57.0484 Y6.5953 
G01 X-56.9884 Y6.5606 
G01 X-56.9394 Y6.5116 
G01 X-56.9394 Y6.5116 
G01 X-55.7184 Y5.2906 
G01 X-55.7184 Y5.2906 
G01 X-55.6694 Y5.2416 
G01 X-55.6347 Y5.1816 
G01 X-55.6168 Y5.1147 
G01 X-55.6168 Y2.6490 
G01 X-54.5010 Y1.5332 
G01 X-34.3990 Y1.5332 
G01 X-33.2832 Y2.6490 
G01 X-33.2832 Y4.9710 
G01 X-34.3990 Y6.0868 
G01 X-36.2200 Y6.0868 
G01 X-36.2200 Y6.0001 
G01 X-36.2551 Y5.9650 
G01 X-38.0049 Y5.9650 
G01 X-38.0400 Y6.0001 
G01 X-38.0400 Y6.6999 
G01 X-38.0049 Y6.7350 
G00 Z1.0000 
G00 X-22.6772 Y17.2217 
G01 Z-0.1000 F500.00 
G01 X-22.6772 Y17.5168 
G01 X-24.0210 Y17.5168 
G01 X-29.0484 Y12.4894 
G01 X-29.1084 Y12.4547 
G01 X-29.1753 Y12.4368 
G01 X-36.2200 Y12.4368 
G01 X-36.2200 Y12.3501 
G01 X-36.2551 Y12.3150 
G01 X-38.0049 Y12.3150 
G01 X-38.0400 Y12.3501 
G01 X-38.0400 Y13.0499 
G01 X-38.0049 Y13.0850 
G01 X-36.2551 Y13.0850 
G01 X-36.2200 Y13.0499 
G01 X-36.2200 Y12.9632 
G01 X-29.3190 Y12.9632 
G01 X-24.3406 Y17.9416 
G01 X-24.2916 Y17.9906 
G01 X-24.2316 Y18.0253 
G01 X-24.1647 Y18.0432 
G01 X-22.6772 Y18.0432 
G01 X-22.6772 Y18.3383 
G01 X-22.6421 Y18.3734 
G01 X-20.4079 Y18.3734 
G01 X-20.3728 Y18.3383 
G01 X-20.3728 Y17.2217 
G01 X-20.4079 Y17.1866 
G01 X-22.6421 Y17.1866 
G01 X-22.6772 Y17.2217 
G00 Z1.0000 
G00 X-43.7432 Y3.2819 
G01 Z-0.1000 F500.00 
G01 X-43.7432 Y4.3380 
G01 X-43.7081 Y4.3732 
G01 X-43.4432 Y4.3732 
G01 X-43.4432 Y15.1310 
G01 X-44.5590 Y16.2468 
G01 X-45.7800 Y16.2468 
G01 X-45.7800 Y16.1601 
G01 X-45.8151 Y16.1250 
G01 X-47.5648 Y16.1250 
G01 X-47.6000 Y16.1601 
G01 X-47.6000 Y16.8599 
G01 X-47.5648 Y16.8950 
G01 X-45.8151 Y16.8950 
G01 X-45.7800 Y16.8599 
G01 X-45.7800 Y16.7732 
G01 X-44.4153 Y16.7732 
G01 X-44.3484 Y16.7553 
G01 X-44.2884 Y16.7206 
G01 X-44.2394 Y16.6716 
G01 X-42.9694 Y15.4016 
G01 X-42.9347 Y15.3416 
G01 X-42.9168 Y15.2747 
G01 X-42.9168 Y4.3732 
G01 X-42.6519 Y4.3732 
G01 X-42.6168 Y4.3380 
G01 X-42.6168 Y3.2819 
G01 X-42.6519 Y3.2468 
G01 X-43.7081 Y3.2468 
G01 X-43.7432 Y3.2819 
(File Footer)
G00 Z1.0000 
G00 Z30.0000 
M05
M02
